<?xml version="1.0" encoding="UTF-8"?>
<map version="1.10" tiledversion="1.12.2" orientation="orthogonal" renderorder="right-down" width="40" height="20" tilewidth="16" tileheight="16" infinite="0" nextlayerid="7" nextobjectid="13">
 <tileset firstgid="1" source="../../../../common/maps/tileset/main.tsx"/>
 <tileset firstgid="10113" source="../../../../common/maps/tileset/buildings.tsx"/>
 <tileset firstgid="11905" source="../../../../common/maps/tileset/dungeon.tsx"/>
 <layer id="1" name="Background" width="40" height="20">
  <data encoding="csv">
4186,4186,4186,4186,4186,4186,4186,4186,4186,4186,4186,4186,4186,4186,4186,4186,4186,4186,4186,4186,4186,4186,4186,4186,4186,4186,4186,4186,4186,4186,4186,4186,4186,4186,4186,4186,4186,4186,4186,4186,
4186,4186,4186,4186,4186,4186,4186,4186,4186,4186,4186,4186,4186,4186,4186,4186,4186,4186,4186,4186,4186,4186,4186,4186,4186,4186,4186,4186,4186,4186,4186,4186,4186,4186,4186,4186,4186,4186,4186,4186,
4186,4186,4186,4186,4186,4186,4186,4186,4186,4186,4186,4186,4186,4186,4186,4186,4186,4186,4186,4186,4186,4186,4186,4186,4186,4186,4186,4186,4186,4186,4186,4186,4186,4186,4186,4186,4186,4186,4186,4186,
4186,4186,4186,4186,4186,4186,4186,4186,4186,4186,4186,4186,4186,4186,4186,4186,4186,4186,4186,4186,4186,4186,4186,4186,4186,4186,4186,4186,4186,4186,4186,4186,4186,4186,4186,4186,4186,4186,4186,4186,
4186,4186,4186,4186,4186,4186,4186,4186,4186,4186,4186,4186,4186,4186,4186,4186,4186,4186,4186,4186,4186,4186,4186,4186,4186,4186,4186,4186,4186,4186,4186,4186,4186,4186,4186,4186,4186,4186,4186,4186,
4186,4186,4186,4186,4186,4186,4186,4186,4186,4186,4186,4186,4186,4186,4186,4186,4186,4186,4186,4186,4186,4186,4186,4186,4186,4186,4186,4186,4186,4186,4186,4186,4186,4186,4186,4186,4186,4186,4186,4186,
4186,4186,4186,4186,4186,4186,4186,4186,4186,4186,4186,4186,4186,4186,4186,4186,4186,4186,4186,4186,4186,4186,4186,4186,4186,4186,4186,4186,4186,4186,4186,4186,4186,4186,4186,4186,4186,4186,4186,4186,
4186,4186,4186,4186,4186,4186,4186,4186,4186,4186,4186,4186,4186,4186,4186,4186,4186,4186,4186,4186,4186,4186,4186,4186,4186,4186,4186,4186,4186,4186,4186,4186,4186,4186,4186,4186,4186,4186,4186,4186,
4186,4186,4186,4186,4186,4186,4186,4186,4186,4186,4186,4186,4186,4186,4186,4186,4186,4186,4186,4186,4186,4186,4186,4186,4186,4186,4186,4186,4186,4186,4186,4186,4186,4186,4186,4186,4186,4186,4186,4186,
4186,4186,4186,4186,4186,4186,4186,4186,4186,4186,4186,4186,4186,4186,4186,4186,4186,4186,4186,4186,4186,4186,4186,4186,4186,4186,4186,4186,4186,4186,4186,4186,4186,4186,4186,4186,4186,4186,4186,4186,
4186,4186,4186,4186,4186,4186,4186,4186,4186,4186,4186,4186,4186,4186,4186,4186,4186,4186,4186,4186,4186,4186,4186,4186,4186,4186,4186,4186,4186,4186,4186,4186,4186,4186,4186,4186,4186,4186,4186,4186,
4186,4186,4186,4186,4186,4186,4186,4186,4186,4186,4186,4186,4186,4186,4186,4186,4186,4186,4186,4186,4186,4186,4186,4186,4186,4186,4186,4186,4186,4186,4186,4186,4186,4186,4186,4186,4186,4186,4186,4186,
4186,4186,4186,4186,4186,4186,4186,4186,4186,4186,4186,4186,4186,4186,4186,4186,4186,4186,4186,4186,4186,4186,4186,4186,4186,4186,4186,4186,4186,4186,4186,4186,4186,4186,4186,4186,4186,4186,4186,4186,
4186,4186,4186,4186,4186,4186,4186,4186,4186,4186,4186,4186,4186,4186,4186,4186,4186,4186,4186,4186,4186,4186,4186,4186,4186,4186,4186,4186,4186,4186,4186,4186,4186,4186,4186,4186,4186,4186,4186,4186,
4186,4186,4186,4186,4186,4186,4186,4186,4186,4186,4186,4186,4186,4186,4186,4186,4186,4186,4186,4186,4186,4186,4186,4186,4186,4186,4186,4186,4186,4186,4186,4186,4186,4186,4186,4186,4186,4186,4186,4186,
4186,4186,4186,4186,4186,4186,4186,4186,4186,4186,4186,4186,4186,4186,4186,4186,4186,4186,4186,4186,4186,4186,4186,4186,4186,4186,4186,4186,4186,4186,4186,4186,4186,4186,4186,4186,4186,4186,4186,4186,
4186,4186,4186,4186,4186,4186,4186,4186,4186,4186,4186,4186,4186,4186,4186,4186,4186,4186,4186,4186,4186,4186,4186,4186,4186,4186,4186,4186,4186,4186,4186,4186,4186,4186,4186,4186,4186,4186,4186,4186,
4186,4186,4186,4186,4186,4186,4186,4186,4186,4186,4186,4186,4186,4186,4186,4186,4186,4186,4186,4186,4186,4186,4186,4186,4186,4186,4186,4186,4186,4186,4186,4186,4186,4186,4186,4186,4186,4186,4186,4186,
4186,4186,4186,4186,4186,4186,4186,4186,4186,4186,4186,4186,4186,4186,4186,4186,4186,4186,4186,4186,4186,4186,4186,4186,4186,4186,4186,4186,4186,4186,4186,4186,4186,4186,4186,4186,4186,4186,4186,4186,
4186,4186,4186,4186,4186,4186,4186,4186,4186,4186,4186,4186,4186,4186,4186,4186,4186,4186,4186,4186,4186,4186,4186,4186,4186,4186,4186,4186,4186,4186,4186,4186,4186,4186,4186,4186,4186,4186,4186,4186
</data>
 </layer>
 <layer id="6" name="Floor" width="40" height="20">
  <data encoding="csv">
2872,2872,2872,2872,2872,2872,2872,2872,2872,2872,2872,2872,2872,2872,2872,2872,2872,2872,2872,2872,2872,2872,2872,2872,2872,2872,2872,2872,2872,2872,2872,2872,2872,2872,2872,2872,2872,2872,2872,2872,
2872,2872,2872,2872,2872,2872,2872,2872,2872,2872,2872,2872,2872,2872,2872,2872,2872,2872,2872,2872,2872,2872,2872,2872,2872,2872,2872,2872,2872,2872,2872,2872,2872,2872,2872,2872,2872,2872,2872,2872,
2872,2872,2872,2872,2872,2872,2872,2872,2872,2872,2872,2872,2872,2872,2872,2872,2872,2872,2872,2872,2872,2872,2872,2872,2872,2872,2872,2872,2872,2872,2872,2872,2872,2872,2872,2872,2872,2872,2872,2872,
2872,2872,2872,2872,2872,2872,2872,2872,2872,2872,2872,2872,2872,2872,2872,2872,2872,2872,2872,2872,2872,2872,2872,2872,2872,2872,2872,2872,2872,2872,2872,2872,2872,2872,2872,2872,2872,2872,2872,2872,
2872,2872,2872,2872,2872,2872,2872,2872,2872,2872,2872,2872,2872,2872,2872,2872,2872,2872,2872,2872,2872,2872,2872,2872,2872,2716,3030,2718,2872,2872,2872,2872,2872,2872,2872,2872,2872,2872,2872,2872,
2872,2872,2872,2872,2872,2872,2872,2872,2872,2872,2872,2872,2872,2872,2872,2872,2872,2872,2872,2872,2872,2872,2872,2872,2716,3031,0,2876,2872,2872,2716,3030,2717,2718,2872,2872,2872,2872,2872,2872,
2872,2872,2872,2872,2872,2872,2872,2872,2872,2872,2872,2872,2872,2872,2872,2872,2872,2872,2872,2872,2872,2872,2872,2872,3032,3033,2714,3034,2872,2872,2874,0,0,2876,2872,2872,2872,2872,2872,2872,
2872,2872,2872,2872,2872,2872,2872,2872,2872,2872,2872,2872,2872,2872,2872,2872,2872,2872,2872,2872,2872,2872,2872,2872,2872,2872,2872,2716,2718,2872,2873,0,0,2876,2872,2872,2872,2872,2872,2872,
2872,2872,2872,2872,2872,2872,2872,2872,2872,2872,2872,2872,2872,2872,2872,2872,2872,2872,2872,2872,2872,2872,2872,2872,2872,2872,2716,3031,3029,2718,3032,2714,3033,3034,2872,2872,2872,2872,2872,2872,
2872,2872,2872,2872,2872,2872,2872,2872,2872,2872,2872,2872,2872,2872,2872,2872,2872,2872,2872,2872,2872,2872,2872,2872,2872,2872,2874,0,0,2871,2872,2872,2872,2872,2872,2872,2872,2872,2872,2872,
2872,2872,2872,2872,2872,2872,2872,2872,2872,2872,2872,2872,2872,2872,2872,2872,2872,2872,2872,2872,2872,2872,2872,2872,2872,2872,3032,3033,2714,3034,2872,2872,2872,2872,2872,2872,2872,2872,2872,2872,
2872,2872,2872,2872,2872,2872,2872,2872,2872,2872,2872,2872,2872,2872,2872,2872,2872,2872,2872,2872,2872,2872,2872,2872,2872,2872,2872,2872,2872,2872,2872,2872,2872,2872,2872,2872,2872,2872,2872,2872,
2872,2872,2872,2872,2872,2872,2872,2872,2872,2872,2872,2872,2872,2872,2872,2872,2872,2872,2872,2872,2872,2872,2872,2872,2872,2872,2872,2872,2872,2872,2872,2872,2872,2872,2872,2872,2872,2872,2872,2872,
2872,2872,2872,2872,2872,2872,2872,2872,2872,2872,2872,2872,2872,2872,2872,2872,2872,2872,2872,2872,2872,2872,2872,2872,2872,2872,2872,2872,2872,2872,2872,2872,2872,2872,2872,2872,2872,2872,2872,2872,
2872,2872,2872,2872,2872,2872,2872,2872,2872,2872,2872,2872,2872,2872,2872,2872,2872,2872,2872,2872,2872,2872,2872,2872,2872,2872,2872,2872,2872,2872,2872,2872,2872,2872,2872,2872,2872,2872,2872,2872,
2872,2872,2872,2872,2872,2872,2872,2872,2872,2872,2872,2872,2872,2872,2872,2872,2872,2872,2872,2872,2872,2872,2872,2872,2872,2872,2872,2872,2872,2872,2872,2872,2872,2872,2872,2872,2872,2872,2872,2872,
2872,2872,2872,2872,2872,2872,2872,2872,2872,2872,2872,2872,2872,2872,2872,2872,2872,2872,2872,2872,2872,2872,2872,2872,2872,2872,2872,2872,2872,2872,2872,2872,2872,2872,2872,2872,2872,2872,2872,2872,
2872,2872,2872,2872,2872,2872,2872,2872,2872,2872,2872,2872,2872,2872,2872,2872,2872,2872,2872,2872,2872,2872,2872,2872,2872,2872,2872,2872,2872,2872,2872,2872,2872,2872,2872,2872,2872,2872,2872,2872,
2872,2872,2872,2872,2872,2872,2872,2872,2872,2872,2872,2872,2872,2872,2872,2872,2872,2872,2872,2872,2872,2872,2872,2872,2872,2872,2872,2872,2872,2872,2872,2872,2872,2872,2872,2872,2872,2872,2872,2872,
2872,2872,2872,2872,2872,2872,2872,2872,2872,2872,2872,2872,2872,2872,2872,2872,2872,2872,2872,2872,2872,2872,2872,2872,2872,2872,2872,2872,2872,2872,2872,2872,2872,2872,2872,2872,2872,2872,2872,2872
</data>
 </layer>
 <layer id="2" name="Ground" width="40" height="20">
  <data encoding="csv">
2374,2374,2374,2374,2374,2374,2374,2374,2374,2374,2374,2374,2374,2374,2374,2374,2374,2374,2374,2374,2374,2374,2374,2374,2374,2374,2374,2374,2374,2374,2374,2374,2374,2374,2374,2374,2374,2374,2374,2374,
2374,2374,2374,2374,2374,2374,2374,2374,2374,2374,2374,2374,2374,2374,2374,2374,2374,2374,2374,2374,2374,2374,2374,2374,2374,2374,2374,2374,2374,2374,2374,2374,2374,2374,2374,2374,2374,2374,2374,2374,
2374,2374,2374,2374,2374,2374,2374,2374,2374,2374,2374,2374,2374,2374,2374,2374,2374,2374,2374,2374,2374,2374,2374,2374,2374,2374,2374,2374,2374,2374,2374,2374,2374,2374,2374,2374,2374,2374,2374,2374,
2374,2374,2374,2374,2374,2374,2374,2374,2374,2374,2374,2374,2374,2374,2374,2374,2374,2374,2374,2374,2374,2374,2374,2374,2374,2374,2374,2374,2374,2374,2374,2374,2374,2374,2374,2374,2374,2374,2374,2374,
2374,2374,2374,2374,2374,2374,2374,2374,2374,2374,2374,2374,2374,2374,2374,2374,2374,2374,2374,2374,2374,2374,2374,2374,2374,2218,2532,2220,2374,2374,2374,2374,2374,2218,2532,2220,2374,2374,2374,2374,
2374,2374,2374,2374,2374,2374,2374,2374,2374,2374,2374,2374,2374,2218,2219,2220,2374,2374,2374,2374,2374,2218,2219,2532,2532,2533,0,2531,2532,2532,2219,2219,2532,2533,0,2531,2220,2374,2374,2374,
2374,2374,2374,2374,2374,2374,2374,2374,2374,2374,2374,2218,2219,2533,0,2531,2532,2219,2532,2219,2532,2533,0,0,0,0,0,0,0,0,0,0,0,0,0,0,2531,2220,2374,2374,
2374,2374,2374,2374,2374,2374,2374,2374,2374,2374,2218,2533,0,0,0,0,0,0,0,0,0,0,0,0,0,0,0,0,0,0,0,0,0,0,0,0,0,2378,2374,2374,
2374,2374,2374,2374,2374,2374,2374,2374,2374,2218,2533,0,0,0,0,0,0,0,0,0,0,2215,2535,2535,2217,0,0,0,0,0,0,0,0,0,0,2215,2535,2536,2374,2374,
2374,2374,2374,2374,2374,2374,2374,2374,2374,2376,0,0,0,0,0,0,0,0,0,2215,2216,2536,2374,2374,2376,0,0,0,0,0,0,0,2215,2535,2535,2536,2374,2374,2374,2374,
2374,2374,2374,2374,2374,2374,2374,2374,2374,2376,0,0,0,0,0,0,0,0,0,2373,2374,2374,2374,2374,2376,0,2215,2535,2217,0,2215,2535,2536,2374,2374,2374,2374,2374,2374,2374,
2374,2374,2374,2374,2374,2374,2374,2374,2374,2376,0,0,0,0,0,0,0,0,0,2378,2374,2374,2374,2218,2533,0,2373,2374,2534,2216,2536,2374,2374,2374,2374,2374,2374,2374,2374,2374,
2374,2374,2374,2374,2374,2374,2374,2374,2374,2534,2217,0,0,0,0,0,0,0,0,2531,2532,2219,2532,2533,0,0,2378,2374,2374,2374,2374,2374,2374,2374,2374,2374,2374,2374,2374,2374,
2374,2374,2374,2374,2374,2374,2374,2374,2374,2374,2534,2217,0,2215,2535,2217,0,0,0,0,0,0,0,0,0,2215,2536,2374,2374,2374,2374,2374,2374,2374,2374,2374,2374,2374,2374,2374,
2374,2374,2374,2374,2374,2374,2374,2374,2374,2374,2374,2534,2216,2536,2374,2376,0,2215,2535,2217,0,2215,2535,2535,2216,2536,2374,2374,2374,2374,2374,2374,2374,2374,2374,2374,2374,2374,2374,2374,
2374,2374,2374,2374,2374,2374,2374,2374,2374,2374,2374,2374,2374,2374,2374,2534,2216,2536,2374,2375,0,2378,2374,2374,2374,2374,2374,2374,2374,2374,2374,2374,2374,2374,2374,2374,2374,2374,2374,2374,
2374,2374,2374,2374,2374,2374,2374,2374,2374,2374,2374,2374,2374,2374,2374,2374,2374,2374,2374,2375,0,2378,2374,2374,2374,2374,2374,2374,2374,2374,2374,2374,2374,2374,2374,2374,2374,2374,2374,2374,
2374,2374,2374,2374,2374,2374,2374,2374,2374,2374,2374,2374,2374,2374,2374,2374,2374,2374,2374,2376,0,2373,2374,2374,2374,2374,2374,2374,2374,2374,2374,2374,2374,2374,2374,2374,2374,2374,2374,2374,
2374,2374,2374,2374,2374,2374,2374,2374,2374,2374,2374,2374,2374,2374,2374,2374,2374,2374,2374,2375,0,2378,2374,2374,2374,2374,2374,2374,2374,2374,2374,2374,2374,2374,2374,2374,2374,2374,2374,2374,
2374,2374,2374,2374,2374,2374,2374,2374,2374,2374,2374,2374,2374,2374,2374,2374,2374,2374,2374,2375,0,2373,2374,2374,2374,2374,2374,2374,2374,2374,2374,2374,2374,2374,2374,2374,2374,2374,2374,2374
</data>
 </layer>
 <layer id="3" name="Foreground" width="40" height="20">
  <properties>
   <property name="spriteLayer" type="bool" value="true"/>
  </properties>
  <data encoding="csv">
0,0,0,0,0,0,0,0,0,0,0,0,0,0,0,0,0,0,0,0,0,0,0,0,0,0,0,0,0,0,0,0,0,0,0,0,0,0,0,0,
0,0,0,0,0,0,0,0,0,0,0,0,0,0,0,0,0,0,0,0,0,0,0,0,0,0,0,0,0,0,0,0,0,0,0,0,0,0,0,0,
0,0,0,0,0,0,0,0,0,0,0,0,0,0,0,0,0,0,0,0,0,0,0,0,0,0,0,0,0,0,0,0,0,0,0,0,0,0,0,0,
0,0,0,0,0,0,0,0,0,0,0,0,0,0,0,0,0,0,0,0,0,0,0,0,0,0,0,0,0,0,0,0,0,0,0,0,0,0,0,0,
0,0,0,0,0,0,0,0,0,0,0,0,0,0,0,0,0,0,0,0,0,0,0,0,0,0,0,0,0,0,0,0,0,0,0,0,0,0,0,0,
0,0,0,0,0,0,0,0,0,0,0,0,0,0,0,0,0,0,0,0,0,0,0,0,0,0,0,0,0,0,0,0,0,0,0,0,0,0,0,0,
0,0,0,0,0,0,0,0,0,0,0,0,0,0,15732,0,0,0,0,0,0,0,0,0,0,0,15732,0,0,0,0,0,0,0,0,0,0,0,0,0,
0,0,0,0,0,0,0,0,0,0,0,0,0,0,0,0,0,0,0,0,0,0,0,0,0,0,0,0,0,0,0,0,0,0,0,0,0,0,0,0,
0,0,0,0,0,0,0,0,0,0,0,0,15668,0,0,0,0,0,0,0,0,0,0,0,0,0,0,0,0,0,0,0,0,0,0,0,0,0,0,0,
0,0,0,0,0,0,0,0,0,0,0,0,0,0,0,0,0,0,0,0,0,0,0,0,0,0,0,0,0,15669,0,15731,0,0,0,0,0,0,0,0,
0,0,0,0,0,0,0,0,0,0,0,15669,0,0,0,0,0,0,0,0,0,0,0,0,0,0,0,0,0,0,0,0,0,0,0,0,0,0,0,0,
0,0,0,0,0,0,0,0,0,0,0,0,0,0,0,0,15732,0,0,0,0,0,0,0,0,0,0,0,0,0,0,0,0,0,0,0,0,0,0,0,
0,0,0,0,0,0,0,0,0,0,0,0,15668,0,0,0,0,0,0,0,0,0,0,0,0,0,0,0,0,0,0,0,0,0,0,0,0,0,0,0,
0,0,0,0,0,0,0,0,0,0,0,0,0,0,0,0,0,0,0,0,0,0,0,0,0,0,0,0,0,0,0,0,0,0,0,0,0,0,0,0,
0,0,0,0,0,0,0,0,0,0,0,0,0,0,0,0,0,0,0,0,0,0,0,0,0,0,0,0,0,0,0,0,0,0,0,0,0,0,0,0,
0,0,0,0,0,0,0,0,0,0,0,0,0,0,0,0,0,0,0,0,0,0,0,0,0,0,0,0,0,0,0,0,0,0,0,0,0,0,0,0,
0,0,0,0,0,0,0,0,0,0,0,0,0,0,0,0,0,0,0,0,0,0,0,0,0,0,0,0,0,0,0,0,0,0,0,0,0,0,0,0,
0,0,0,0,0,0,0,0,0,0,0,0,0,0,0,0,0,0,0,0,0,0,0,0,0,0,0,0,0,0,0,0,0,0,0,0,0,0,0,0,
0,0,0,0,0,0,0,0,0,0,0,0,0,0,0,0,0,0,0,0,0,0,0,0,0,0,0,0,0,0,0,0,0,0,0,0,0,0,0,0,
0,0,0,0,0,0,0,0,0,0,0,0,0,0,0,0,0,0,0,0,0,0,0,0,0,0,0,0,0,0,0,0,0,0,0,0,0,0,0,0
</data>
 </layer>
 <layer id="5" name="AboveSprites" width="40" height="20">
  <data encoding="csv">
0,0,0,0,0,0,0,0,0,0,0,0,0,0,0,0,0,0,0,0,0,0,0,0,0,0,0,0,0,0,0,0,0,0,0,0,0,0,0,0,
0,0,0,0,0,0,0,0,0,0,0,0,0,0,0,0,0,0,0,0,0,0,0,0,0,0,0,0,0,0,0,0,0,0,0,0,0,0,0,0,
0,0,0,0,0,0,0,0,0,0,0,0,0,0,0,0,0,0,0,0,0,0,0,0,0,0,0,0,0,0,0,0,0,0,0,0,0,0,0,0,
0,0,0,0,0,0,0,0,0,0,0,0,0,0,0,0,0,0,0,0,0,0,0,0,0,0,0,0,0,0,0,0,0,0,0,0,0,0,0,0,
0,0,0,0,0,0,0,0,0,0,0,0,0,0,0,0,0,0,0,0,0,0,0,0,0,0,0,0,0,0,0,0,0,0,0,0,0,0,0,0,
0,0,0,0,0,0,0,0,0,0,0,0,0,0,0,0,0,0,0,0,0,0,0,0,0,0,0,0,0,0,0,0,0,0,0,0,0,0,0,0,
0,0,0,0,0,0,0,0,0,0,0,0,0,0,0,0,0,0,0,0,0,0,0,0,0,0,0,0,0,0,0,0,0,0,0,0,0,0,0,0,
0,0,0,0,0,0,0,0,0,0,0,0,0,0,0,0,0,0,0,0,0,0,0,0,0,0,0,0,0,0,0,0,0,0,0,0,0,0,0,0,
0,0,0,0,0,0,0,0,0,0,0,0,0,0,0,0,0,0,0,0,0,0,0,0,0,0,0,0,0,0,0,0,0,0,0,0,0,0,0,0,
0,0,0,0,0,0,0,0,0,0,0,0,0,0,0,0,0,0,0,0,0,0,0,0,0,0,0,0,0,0,0,0,0,0,0,0,0,0,0,0,
0,0,0,0,0,0,0,0,0,0,0,0,0,0,0,0,0,0,0,0,0,0,0,0,0,0,0,0,0,0,0,0,0,0,0,0,0,0,0,0,
0,0,0,0,0,0,0,0,0,0,0,0,0,0,0,0,0,0,0,0,0,0,0,0,0,0,0,0,0,0,0,0,0,0,0,0,0,0,0,0,
0,0,0,0,0,0,0,0,0,0,0,0,0,0,0,0,0,0,0,0,0,0,0,0,0,0,0,0,0,0,0,0,0,0,0,0,0,0,0,0,
0,0,0,0,0,0,0,0,0,0,0,0,0,0,0,0,0,0,0,0,0,0,0,0,0,0,0,0,0,0,0,0,0,0,0,0,0,0,0,0,
0,0,0,0,0,0,0,0,0,0,0,0,0,0,0,0,0,0,0,0,0,0,0,0,0,0,0,0,0,0,0,0,0,0,0,0,0,0,0,0,
0,0,0,0,0,0,0,0,0,0,0,0,0,0,0,0,0,0,0,0,0,0,0,0,0,0,0,0,0,0,0,0,0,0,0,0,0,0,0,0,
0,0,0,0,0,0,0,0,0,0,0,0,0,0,0,0,0,0,0,0,0,0,0,0,0,0,0,0,0,0,0,0,0,0,0,0,0,0,0,0,
0,0,0,0,0,0,0,0,0,0,0,0,0,0,0,0,0,0,0,0,0,0,0,0,0,0,0,0,0,0,0,0,0,0,0,0,0,0,0,0,
0,0,0,0,0,0,0,0,0,0,0,0,0,0,0,0,0,0,0,0,0,0,0,0,0,0,0,0,0,0,0,0,0,0,0,0,0,0,0,0,
0,0,0,0,0,0,0,0,0,0,0,0,0,0,0,0,0,0,0,0,0,0,0,0,0,0,0,0,0,0,0,0,0,0,0,0,0,0,0,0
</data>
 </layer>
 <objectgroup id="4" name="Objects">
  <object id="1" template="../../../../common/maps/obj/entry_up.tx" x="304" y="330" width="48" height="16">
   <properties>
    <property name="teleport" value=""/>
   </properties>
  </object>
  <object id="2" template="../../../../common/maps/obj/waypoint.tx" x="296" y="184"/>
  <object id="3" template="../../../../common/maps/obj/waypoint.tx" x="504" y="120"/>
  <object id="4" template="../../../../common/maps/obj/waypoint.tx" x="392" y="200"/>
  <object id="5" template="../../../../common/maps/obj/enemy.tx" x="352" y="128">
   <properties>
    <property name="enemy" value="Prismat of Shandalar"/>
    <property name="speedModifier" type="float" value="4"/>
    <property name="threatRange" type="int" value="40"/>
    <property name="waypoints" value="2,3,4"/>
   </properties>
  </object>
  <object id="6" template="../../../../common/maps/obj/enemy.tx" x="208" y="176">
   <properties>
    <property name="enemy" value="Hollow Willow"/>
    <property name="speedModifier" type="float" value="4"/>
    <property name="threatRange" type="int" value="40"/>
    <property name="waypoints" value="3,2,4"/>
   </properties>
  </object>
  <object id="7" template="../../../../common/maps/obj/enemy.tx" x="448" y="128">
   <properties>
    <property name="enemy" value="Gorgon 2"/>
    <property name="speedModifier" type="float" value="4"/>
    <property name="threatRange" type="int" value="40"/>
    <property name="waypoints" value="11,12"/>
   </properties>
  </object>
  <object id="8" template="../../../../common/maps/obj/treasure.tx" x="528" y="128">
   <properties>
    <property name="reward">[{&quot;type&quot;: &quot;randomCard&quot;, &quot;count&quot;: 1, &quot;addMaxCount&quot;: 1}]</property>
   </properties>
  </object>
  <object id="9" template="../../../../common/maps/obj/gold.tx" x="320" y="144"/>
  <object id="10" template="../../obj/stone.tx" x="400" y="144"/>
  <object id="11" template="../../../../common/maps/obj/waypoint.tx" x="528" y="112"/>
  <object id="12" template="../../../../common/maps/obj/waypoint.tx" x="512" y="128"/>
 </objectgroup>
</map>
