<?xml version="1.0" encoding="UTF-8"?>
<map version="1.10" tiledversion="1.12.2" orientation="orthogonal" renderorder="right-down" width="40" height="20" tilewidth="16" tileheight="16" infinite="0" nextlayerid="7" nextobjectid="11">
 <tileset firstgid="1" source="../../../../common/maps/tileset/main.tsx"/>
 <tileset firstgid="10113" source="../../../../common/maps/tileset/buildings.tsx"/>
 <tileset firstgid="11905" source="../../../../common/maps/tileset/dungeon.tsx"/>
 <layer id="1" name="Background" width="40" height="20">
  <data encoding="csv">
2856,2856,2856,2856,2856,2856,2856,2856,2856,2856,2856,2856,2856,2856,2856,2856,2856,2856,2856,2856,2856,2856,2856,2856,2856,2856,2856,2856,2856,2856,2856,2856,2856,2856,2856,2856,2856,2856,2856,2856,
2856,2856,2856,2856,2856,2856,2856,2856,2856,2856,2856,2856,2856,2856,2856,2856,2856,2856,2856,2856,2856,2856,2856,2856,2856,2856,2856,2856,2856,2856,2856,2856,2856,2856,2856,2856,2856,2856,2856,2856,
2856,2856,2856,2856,2856,2856,2856,2856,2856,2856,2856,2856,2856,2856,2856,2856,2856,2856,2856,2856,2856,2856,2856,2856,2856,2856,2856,2856,2856,2856,2856,2856,2856,2856,2856,2856,2856,2856,2856,2856,
2856,2856,2856,2856,2856,2856,2856,2856,2856,2856,2856,2856,2856,2856,2856,2856,2856,2856,2856,2856,2856,2856,2856,2856,2856,2856,2856,2856,2856,2856,2856,2856,2856,2856,2856,2856,2856,2856,2856,2856,
2856,2856,2856,2856,2856,2856,2856,2856,2856,2856,2856,2856,2856,2856,2856,2856,2856,2856,2856,2856,2856,2856,2856,2856,2856,2856,2856,2856,2856,2856,2856,2856,2856,2856,2856,2856,2856,2856,2856,2856,
2856,2856,2856,2856,2856,2856,2856,2856,2856,2856,2856,2856,2856,2856,2856,2856,2856,2856,2856,2856,2856,2856,2856,2856,2856,2856,2856,2856,2856,2856,2856,2856,2856,2856,2856,2856,2856,2856,2856,2856,
2856,2856,2856,2856,2856,2856,2856,2856,2856,2856,2856,2856,2856,2856,2856,2856,2856,2856,2856,2856,2856,2856,2856,2856,2856,2856,2856,2856,2856,2856,2856,2856,2856,2856,2856,2856,2856,2856,2856,2856,
2856,2856,2856,2856,2856,2856,2856,2856,2856,2856,2856,2856,2856,2856,2856,2856,2856,2856,2856,2856,2856,2856,2856,2856,2856,2856,2856,2856,2856,2856,2856,2856,2856,2856,2856,2856,2856,2856,2856,2856,
2856,2856,2856,2856,2856,2856,2856,2856,2856,2856,2856,2856,2856,2856,2856,2856,2856,2856,2856,2856,2856,2856,2856,2856,2856,2856,2856,2856,2856,2856,2856,2856,2856,2856,2856,2856,2856,2856,2856,2856,
2856,2856,2856,2856,2856,2856,2856,2856,2856,2856,2856,2856,2856,2856,2856,2856,2856,2856,2856,2856,2856,2856,2856,2856,2856,2856,2856,2856,2856,2856,2856,2856,2856,2856,2856,2856,2856,2856,2856,2856,
2856,2856,2856,2856,2856,2856,2856,2856,2856,2856,2856,2856,2856,2856,2856,2856,2856,2856,2856,2856,2856,2856,2856,2856,2856,2856,2856,2856,2856,2856,2856,2856,2856,2856,2856,2856,2856,2856,2856,2856,
2856,2856,2856,2856,2856,2856,2856,2856,2856,2856,2856,2856,2856,2856,2856,2856,2856,2856,2856,2856,2856,2856,2856,2856,2856,2856,2856,2856,2856,2856,2856,2856,2856,2856,2856,2856,2856,2856,2856,2856,
2856,2856,2856,2856,2856,2856,2856,2856,2856,2856,2856,2856,2856,2856,2856,2856,2856,2856,2856,2856,2856,2856,2856,2856,2856,2856,2856,2856,2856,2856,2856,2856,2856,2856,2856,2856,2856,2856,2856,2856,
2856,2856,2856,2856,2856,2856,2856,2856,2856,2856,2856,2856,2856,2856,2856,2856,2856,2856,2856,2856,2856,2856,2856,2856,2856,2856,2856,2856,2856,2856,2856,2856,2856,2856,2856,2856,2856,2856,2856,2856,
2856,2856,2856,2856,2856,2856,2856,2856,2856,2856,2856,2856,2856,2856,2856,2856,2856,2856,2856,2856,2856,2856,2856,2856,2856,2856,2856,2856,2856,2856,2856,2856,2856,2856,2856,2856,2856,2856,2856,2856,
2856,2856,2856,2856,2856,2856,2856,2856,2856,2856,2856,2856,2856,2856,2856,2856,2856,2856,2856,2856,2856,2856,2856,2856,2856,2856,2856,2856,2856,2856,2856,2856,2856,2856,2856,2856,2856,2856,2856,2856,
2856,2856,2856,2856,2856,2856,2856,2856,2856,2856,2856,2856,2856,2856,2856,2856,2856,2856,2856,2856,2856,2856,2856,2856,2856,2856,2856,2856,2856,2856,2856,2856,2856,2856,2856,2856,2856,2856,2856,2856,
2856,2856,2856,2856,2856,2856,2856,2856,2856,2856,2856,2856,2856,2856,2856,2856,2856,2856,2856,2856,2856,2856,2856,2856,2856,2856,2856,2856,2856,2856,2856,2856,2856,2856,2856,2856,2856,2856,2856,2856,
2856,2856,2856,2856,2856,2856,2856,2856,2856,2856,2856,2856,2856,2856,2856,2856,2856,2856,2856,2856,2856,2856,2856,2856,2856,2856,2856,2856,2856,2856,2856,2856,2856,2856,2856,2856,2856,2856,2856,2856,
2856,2856,2856,2856,2856,2856,2856,2856,2856,2856,2856,2856,2856,2856,2856,2856,2856,2856,2856,2856,2856,2856,2856,2856,2856,2856,2856,2856,2856,2856,2856,2856,2856,2856,2856,2856,2856,2856,2856,2856
</data>
 </layer>
 <layer id="6" name="Floor" width="40" height="20">
  <data encoding="csv">
2382,2382,2382,2382,2382,2382,2382,2382,2382,2382,2382,2382,2382,2382,2382,2382,2382,2382,2382,2382,2382,2382,2382,2382,2382,2382,2382,2382,2382,2382,2382,2382,2382,2382,2382,2382,2382,2382,2382,2382,
2382,2382,2382,2382,2382,2382,2382,2382,2382,2382,2382,2382,2382,2382,2382,2382,2382,2382,2382,2382,2382,2382,2382,2382,2382,2382,2382,2382,2382,2382,2382,2382,2382,2382,2382,2382,2382,2382,2382,2382,
2382,2382,2382,2382,2382,2382,2382,2382,2382,2382,2382,2382,2382,2382,2382,2382,2382,2382,2382,2382,2382,2382,2382,2382,2382,2382,2382,2382,2382,2382,2382,2382,2382,2382,2382,2382,2382,2382,2382,2382,
2382,2382,2382,2382,2382,2382,2382,2382,2382,2382,2382,2382,2382,2382,2382,2382,2382,2382,2382,2382,2382,2382,2382,2382,2382,2382,2382,2382,2382,2382,2382,2382,2382,2382,2382,2382,2382,2382,2382,2382,
2382,2382,2382,2382,2382,2382,2382,2382,2382,2382,2382,2382,2382,2382,2382,2382,2382,2382,2382,2382,2382,2382,2382,2382,2382,2382,2382,2382,2382,2382,2382,2382,2382,2382,2382,2382,2382,2382,2382,2382,
2382,2382,2382,2382,2382,2382,2382,2382,2382,2382,2382,2382,2382,2382,2382,2382,2382,2382,2382,2382,2382,2382,2382,2382,2382,2382,2382,2382,2382,2382,2382,2382,2382,2382,2382,2382,2382,2382,2382,2382,
2382,2382,2382,2382,2382,2382,2382,2382,2382,2382,2382,2382,2382,2382,2382,2382,2382,2382,2382,2382,2382,2382,2382,2382,2382,2382,2382,2382,2382,2382,2382,2382,2382,2382,2382,2382,2382,2382,2382,2382,
2382,2382,2382,2382,2382,2382,2382,2382,2382,2382,2382,2382,2382,2382,2382,2382,2382,2226,2227,2540,2228,2382,2382,2382,2382,2382,2382,2382,2382,2382,2382,2382,2382,2382,2382,2382,2382,2382,2382,2382,
2382,2382,2382,2382,2382,2382,2382,2382,2382,2382,2382,2226,2540,2227,2228,2382,2382,2542,2225,0,2539,2227,2228,2382,2382,2382,2382,2382,2382,2382,2382,2382,2382,2382,2382,2382,2382,2382,2382,2382,
2382,2382,2382,2382,2382,2382,2382,2382,2382,2382,2226,2541,0,0,2386,2382,2382,2382,2383,0,2223,2224,2544,2382,2382,2382,2382,2382,2382,2382,2382,2382,2382,2382,2382,2382,2382,2382,2382,2382,
2382,2382,2382,2382,2382,2382,2382,2382,2382,2382,2542,2225,0,0,2381,2382,2382,2382,2542,2224,2544,2382,2382,2382,2382,2382,2382,2382,2382,2382,2382,2382,2382,2382,2382,2382,2382,2382,2382,2382,
2382,2382,2382,2382,2382,2382,2382,2382,2382,2382,2382,2542,2224,2543,2544,2382,2382,2382,2382,2382,2382,2382,2382,2382,2382,2382,2382,2382,2382,2382,2382,2382,2382,2382,2382,2382,2382,2382,2382,2382,
2382,2382,2382,2382,2382,2382,2382,2382,2382,2382,2382,2382,2382,2382,2382,2382,2382,2382,2382,2382,2382,2382,2382,2382,2382,2382,2382,2382,2382,2382,2382,2382,2382,2382,2382,2382,2382,2382,2382,2382,
2382,2382,2382,2382,2382,2382,2382,2382,2382,2382,2382,2382,2382,2382,2382,2382,2382,2382,2382,2382,2382,2382,2382,2382,2382,2382,2382,2382,2382,2382,2382,2382,2382,2382,2382,2382,2382,2382,2382,2382,
2382,2382,2382,2382,2382,2382,2382,2382,2382,2382,2382,2382,2382,2382,2382,2382,2382,2382,2382,2382,2382,2382,2382,2382,2382,2382,2382,2382,2382,2382,2382,2382,2382,2382,2382,2382,2382,2382,2382,2382,
2382,2382,2382,2382,2382,2382,2382,2382,2382,2382,2382,2382,2382,2382,2382,2382,2382,2382,2382,2382,2382,2382,2382,2382,2382,2382,2382,2382,2382,2382,2382,2382,2382,2382,2382,2382,2382,2382,2382,2382,
2382,2382,2382,2382,2382,2382,2382,2382,2382,2382,2382,2382,2382,2382,2382,2382,2382,2382,2382,2382,2382,2382,2382,2382,2382,2382,2382,2382,2382,2382,2382,2382,2382,2382,2382,2382,2382,2382,2382,2382,
2382,2382,2382,2382,2382,2382,2382,2382,2382,2382,2382,2382,2382,2382,2382,2382,2382,2382,2382,2382,2382,2382,2382,2382,2382,2382,2382,2382,2382,2382,2382,2382,2382,2382,2382,2382,2382,2382,2382,2382,
2382,2382,2382,2382,2382,2382,2382,2382,2382,2382,2382,2382,2382,2382,2382,2382,2382,2382,2382,2382,2382,2382,2382,2382,2382,2382,2382,2382,2382,2382,2382,2382,2382,2382,2382,2382,2382,2382,2382,2382,
2382,2382,2382,2382,2382,2382,2382,2382,2382,2382,2382,2382,2382,2382,2382,2382,2382,2382,2382,2382,2382,2382,2382,2382,2382,2382,2382,2382,2382,2382,2382,2382,2382,2382,2382,2382,2382,2382,2382,2382
</data>
 </layer>
 <layer id="2" name="Ground" width="40" height="20">
  <data encoding="csv">
2374,2374,2374,2374,2374,2374,2374,2374,2374,2374,2374,2374,2374,2374,2374,2374,2374,2374,2374,2374,2374,2374,2374,2374,2374,2374,2374,2374,2374,2374,2374,2374,2374,2374,2374,2374,2374,2374,2374,2374,
2374,2374,2374,2374,2374,2374,2374,2374,2374,2374,2374,2374,2374,2374,2374,2374,2374,2374,2374,2374,2374,2374,2374,2374,2374,2374,2374,2374,2374,2374,2374,2374,2374,2374,2374,2374,2374,2374,2374,2374,
2374,2374,2374,2374,2374,2374,2374,2374,2374,2374,2374,2374,2374,2374,2374,2374,2374,2374,2374,2374,2374,2374,2374,2374,2374,2374,2374,2374,2374,2374,2374,2374,2374,2374,2374,2374,2374,2374,2374,2374,
2374,2374,2374,2374,2374,2374,2374,2374,2374,2374,2374,2374,2374,2374,2374,2374,2374,2374,2374,2374,2374,2374,2374,2374,2374,2374,2374,2374,2374,2374,2374,2374,2374,2374,2374,2374,2374,2374,2374,2374,
2374,2374,2374,2374,2374,2374,2374,2374,2374,2374,2374,2374,2374,2374,2374,2374,2374,2374,2374,2374,2374,2374,2374,2374,2374,2374,2374,2374,2374,2374,2374,2374,2374,2374,2374,2374,2374,2374,2374,2374,
2374,2374,2374,2374,2374,2374,2374,2374,2374,2374,2374,2374,2374,2374,2374,2374,2218,2532,2219,2532,2532,2532,2220,2374,2374,2374,2374,2374,2374,2374,2374,2374,2374,2374,2374,2374,2374,2374,2374,2374,
2374,2374,2374,2374,2374,2374,2374,2374,2374,2374,2374,2374,2218,2219,2219,2219,2533,0,0,0,0,0,2531,2219,2219,2220,2374,2374,2374,2374,2374,2374,2374,2374,2374,2374,2374,2374,2374,2374,
2374,2374,2374,2374,2374,2374,2374,2374,2374,2374,2374,2218,2533,0,0,2215,2535,2217,0,0,0,0,0,0,0,2531,2219,2532,2219,2219,2219,2532,2220,2374,2374,2374,2374,2374,2374,2374,
2374,2374,2374,2374,2374,2374,2374,2374,2374,2218,2532,2533,0,0,2215,2536,2374,2534,2217,0,0,0,0,0,0,0,0,0,0,0,0,0,2531,2220,2374,2374,2374,2374,2374,2374,
2374,2374,2374,2374,2374,2374,2374,2374,2218,2533,0,0,0,0,2373,2374,2374,2374,2376,0,0,0,0,0,0,0,0,0,0,0,0,0,0,2531,2220,2374,2374,2374,2374,2374,
2374,2374,2374,2374,2374,2374,2374,2374,2375,0,0,0,0,0,2373,2374,2374,2218,2533,2215,2216,2216,2217,0,0,0,0,0,0,0,0,0,0,2215,2536,2374,2374,2374,2374,2374,
2374,2374,2374,2374,2374,2374,2374,2374,2534,2217,0,0,0,0,2531,2219,2219,2533,2215,2536,2374,2374,2375,0,0,0,0,0,0,0,0,0,2215,2536,2374,2374,2374,2374,2374,2374,
2374,2374,2374,2374,2374,2374,2374,2374,2374,2376,0,0,0,0,0,0,0,0,2378,2374,2374,2374,2376,0,0,0,0,0,0,0,2215,2216,2536,2374,2374,2374,2374,2374,2374,2374,
2374,2374,2374,2374,2374,2374,2374,2374,2374,2534,2217,0,0,0,0,0,0,0,2531,2220,2374,2374,2375,0,0,0,2215,2535,2216,2216,2536,2374,2374,2374,2374,2374,2374,2374,2374,2374,
2374,2374,2374,2374,2374,2374,2374,2374,2374,2374,2534,2216,2216,2217,0,0,0,0,0,2531,2532,2532,2533,0,2215,2535,2536,2374,2374,2374,2374,2374,2374,2374,2374,2374,2374,2374,2374,2374,
2374,2374,2374,2374,2374,2374,2374,2374,2374,2374,2374,2374,2374,2534,2535,2216,2217,2215,2216,2217,0,2215,2216,2535,2536,2374,2374,2374,2374,2374,2374,2374,2374,2374,2374,2374,2374,2374,2374,2374,
2374,2374,2374,2374,2374,2374,2374,2374,2374,2374,2374,2374,2374,2374,2374,2374,2534,2536,2374,2376,0,2373,2374,2374,2374,2374,2374,2374,2374,2374,2374,2374,2374,2374,2374,2374,2374,2374,2374,2374,
2374,2374,2374,2374,2374,2374,2374,2374,2374,2374,2374,2374,2374,2374,2374,2374,2374,2374,2374,2375,0,2373,2374,2374,2374,2374,2374,2374,2374,2374,2374,2374,2374,2374,2374,2374,2374,2374,2374,2374,
2374,2374,2374,2374,2374,2374,2374,2374,2374,2374,2374,2374,2374,2374,2374,2374,2374,2374,2374,2375,0,2373,2374,2374,2374,2374,2374,2374,2374,2374,2374,2374,2374,2374,2374,2374,2374,2374,2374,2374,
2374,2374,2374,2374,2374,2374,2374,2374,2374,2374,2374,2374,2374,2374,2374,2374,2374,2374,2374,2375,0,2378,2374,2374,2374,2374,2374,2374,2374,2374,2374,2374,2374,2374,2374,2374,2374,2374,2374,2374
</data>
 </layer>
 <layer id="3" name="Foreground" width="40" height="20">
  <properties>
   <property name="spriteLayer" type="bool" value="true"/>
  </properties>
  <data encoding="csv">
0,0,0,0,0,0,0,0,0,0,0,0,0,0,0,0,0,0,0,0,0,0,0,0,0,0,0,0,0,0,0,0,0,0,0,0,0,0,0,0,
0,0,0,0,0,0,0,0,0,0,0,0,0,0,0,0,0,0,0,0,0,0,0,0,0,0,0,0,0,0,0,0,0,0,0,0,0,0,0,0,
0,0,0,0,0,0,0,0,0,0,0,0,0,0,0,0,0,0,0,0,0,0,0,0,0,0,0,0,0,0,0,0,0,0,0,0,0,0,0,0,
0,0,0,0,0,0,0,0,0,0,0,0,0,0,0,0,0,0,0,0,0,0,0,0,0,0,0,0,0,0,0,0,0,0,0,0,0,0,0,0,
0,0,0,0,0,0,0,0,0,0,0,0,0,0,0,0,0,0,0,0,0,0,0,0,0,0,0,0,0,0,0,0,0,0,0,0,0,0,0,0,
0,0,0,0,0,0,0,0,0,0,0,0,0,0,0,0,0,0,0,0,0,0,0,0,0,0,0,0,0,0,0,0,0,0,0,0,0,0,0,0,
0,0,0,0,0,0,0,0,0,0,0,0,0,0,0,0,0,0,0,0,0,0,0,0,0,0,0,0,0,0,0,0,0,0,0,0,0,0,0,0,
0,0,0,0,0,0,0,0,0,0,0,0,0,15731,0,0,0,0,0,15732,0,0,0,0,0,0,0,0,0,0,0,0,0,0,0,0,0,0,0,0,
0,0,0,0,0,0,0,0,0,0,0,0,0,0,0,0,0,0,0,0,0,0,0,0,0,0,15669,0,15732,0,0,0,0,0,0,0,0,0,0,0,
0,0,0,0,0,0,0,0,0,0,0,0,0,0,0,0,0,0,0,0,15732,0,0,0,0,0,0,0,0,0,0,0,0,0,0,0,0,0,0,0,
0,0,0,0,0,0,0,0,0,15731,0,0,15731,0,0,0,0,0,0,0,0,0,0,0,0,0,0,0,0,0,0,0,0,0,0,0,0,0,0,0,
0,0,0,0,0,0,0,0,0,0,0,0,0,0,0,0,0,0,0,0,0,0,0,0,0,0,15732,0,0,0,0,0,0,0,0,0,0,0,0,0,
0,0,0,0,0,0,0,0,0,0,0,0,0,0,0,0,0,0,0,0,0,0,0,0,0,0,0,0,0,0,0,0,0,0,0,0,0,0,0,0,
0,0,0,0,0,0,0,0,0,0,0,0,0,0,0,0,0,0,0,0,0,0,0,0,0,0,0,0,0,0,0,0,0,0,0,0,0,0,0,0,
0,0,0,0,0,0,0,0,0,0,0,0,0,0,0,0,0,0,0,0,0,0,0,0,0,0,0,0,0,0,0,0,0,0,0,0,0,0,0,0,
0,0,0,0,0,0,0,0,0,0,0,0,0,0,0,0,0,0,0,0,0,0,0,0,0,0,0,0,0,0,0,0,0,0,0,0,0,0,0,0,
0,0,0,0,0,0,0,0,0,0,0,0,0,0,0,0,0,0,0,0,0,0,0,0,0,0,0,0,0,0,0,0,0,0,0,0,0,0,0,0,
0,0,0,0,0,0,0,0,0,0,0,0,0,0,0,0,0,0,0,0,0,0,0,0,0,0,0,0,0,0,0,0,0,0,0,0,0,0,0,0,
0,0,0,0,0,0,0,0,0,0,0,0,0,0,0,0,0,0,0,0,0,0,0,0,0,0,0,0,0,0,0,0,0,0,0,0,0,0,0,0,
0,0,0,0,0,0,0,0,0,0,0,0,0,0,0,0,0,0,0,0,0,0,0,0,0,0,0,0,0,0,0,0,0,0,0,0,0,0,0,0
</data>
 </layer>
 <layer id="5" name="AboveSprites" width="40" height="20">
  <data encoding="csv">
0,0,0,0,0,0,0,0,0,0,0,0,0,0,0,0,0,0,0,0,0,0,0,0,0,0,0,0,0,0,0,0,0,0,0,0,0,0,0,0,
0,0,0,0,0,0,0,0,0,0,0,0,0,0,0,0,0,0,0,0,0,0,0,0,0,0,0,0,0,0,0,0,0,0,0,0,0,0,0,0,
0,0,0,0,0,0,0,0,0,0,0,0,0,0,0,0,0,0,0,0,0,0,0,0,0,0,0,0,0,0,0,0,0,0,0,0,0,0,0,0,
0,0,0,0,0,0,0,0,0,0,0,0,0,0,0,0,0,0,0,0,0,0,0,0,0,0,0,0,0,0,0,0,0,0,0,0,0,0,0,0,
0,0,0,0,0,0,0,0,0,0,0,0,0,0,0,0,0,0,0,0,0,0,0,0,0,0,0,0,0,0,0,0,0,0,0,0,0,0,0,0,
0,0,0,0,0,0,0,0,0,0,0,0,0,0,0,0,0,0,0,0,0,0,0,0,0,0,0,0,0,0,0,0,0,0,0,0,0,0,0,0,
0,0,0,0,0,0,0,0,0,0,0,0,0,0,0,0,0,0,0,0,0,0,0,0,0,0,0,0,0,0,0,0,0,0,0,0,0,0,0,0,
0,0,0,0,0,0,0,0,0,0,0,0,0,0,0,0,0,0,0,0,0,0,0,0,0,0,0,0,0,0,0,0,0,0,0,0,0,0,0,0,
0,0,0,0,0,0,0,0,0,0,0,0,0,0,0,0,0,0,0,0,0,0,0,0,0,0,0,0,0,0,0,0,0,0,0,0,0,0,0,0,
0,0,0,0,0,0,0,0,0,0,0,0,0,0,0,0,0,0,0,0,0,0,0,0,0,0,0,0,0,0,0,0,0,0,0,0,0,0,0,0,
0,0,0,0,0,0,0,0,0,0,0,0,0,0,0,0,0,0,0,0,0,0,0,0,0,0,0,0,0,0,0,0,0,0,0,0,0,0,0,0,
0,0,0,0,0,0,0,0,0,0,0,0,0,0,0,0,0,0,0,0,0,0,0,0,0,0,0,0,0,0,0,0,0,0,0,0,0,0,0,0,
0,0,0,0,0,0,0,0,0,0,0,0,0,0,0,0,0,0,0,0,0,0,0,0,0,0,0,0,0,0,0,0,0,0,0,0,0,0,0,0,
0,0,0,0,0,0,0,0,0,0,0,0,0,0,0,0,0,0,0,0,0,0,0,0,0,0,0,0,0,0,0,0,0,0,0,0,0,0,0,0,
0,0,0,0,0,0,0,0,0,0,0,0,0,0,0,0,0,0,0,0,0,0,0,0,0,0,0,0,0,0,0,0,0,0,0,0,0,0,0,0,
0,0,0,0,0,0,0,0,0,0,0,0,0,0,0,0,0,0,0,0,0,0,0,0,0,0,0,0,0,0,0,0,0,0,0,0,0,0,0,0,
0,0,0,0,0,0,0,0,0,0,0,0,0,0,0,0,0,0,0,0,0,0,0,0,0,0,0,0,0,0,0,0,0,0,0,0,0,0,0,0,
0,0,0,0,0,0,0,0,0,0,0,0,0,0,0,0,0,0,0,0,0,0,0,0,0,0,0,0,0,0,0,0,0,0,0,0,0,0,0,0,
0,0,0,0,0,0,0,0,0,0,0,0,0,0,0,0,0,0,0,0,0,0,0,0,0,0,0,0,0,0,0,0,0,0,0,0,0,0,0,0,
0,0,0,0,0,0,0,0,0,0,0,0,0,0,0,0,0,0,0,0,0,0,0,0,0,0,0,0,0,0,0,0,0,0,0,0,0,0,0,0
</data>
 </layer>
 <objectgroup id="4" name="Objects">
  <object id="1" template="../../../../common/maps/obj/entry_up.tx" x="304" y="330" width="48" height="16">
   <properties>
    <property name="teleport" value=""/>
   </properties>
  </object>
  <object id="2" template="../../../../common/maps/obj/waypoint.tx" x="360" y="152"/>
  <object id="3" template="../../../../common/maps/obj/waypoint.tx" x="472" y="184"/>
  <object id="4" template="../../../../common/maps/obj/waypoint.tx" x="376" y="216"/>
  <object id="5" template="../../../../common/maps/obj/enemy.tx" x="336" y="128">
   <properties>
    <property name="enemy" value="Traveling Conjurer"/>
    <property name="speedModifier" type="float" value="4"/>
    <property name="threatRange" type="int" value="40"/>
    <property name="waypoints" value="2,3,4"/>
   </properties>
  </object>
  <object id="6" template="../../../../common/maps/obj/enemy.tx" x="224" y="224">
   <properties>
    <property name="enemy" value="Weak Demon"/>
    <property name="speedModifier" type="float" value="4"/>
    <property name="threatRange" type="int" value="40"/>
    <property name="waypoints" value="3,2,4"/>
   </properties>
  </object>
  <object id="7" template="../../../../common/maps/obj/enemy.tx" x="480" y="160">
   <properties>
    <property name="enemy" value="Adept Green Wizard"/>
    <property name="speedModifier" type="float" value="4"/>
    <property name="threatRange" type="int" value="40"/>
    <property name="waypoints" value="3,4,2"/>
   </properties>
  </object>
  <object id="8" template="../../../../common/maps/obj/treasure.tx" x="272" y="112">
   <properties>
    <property name="reward">[{&quot;type&quot;: &quot;randomCard&quot;, &quot;count&quot;: 1, &quot;addMaxCount&quot;: 1}]</property>
   </properties>
  </object>
  <object id="9" template="../../../../common/maps/obj/gold.tx" x="192" y="208"/>
  <object id="10" template="../../obj/stone.tx" x="272" y="208"/>
 </objectgroup>
</map>
