<?xml version="1.0" encoding="UTF-8"?>
<map version="1.10" tiledversion="1.12.2" orientation="orthogonal" renderorder="right-down" width="44" height="22" tilewidth="16" tileheight="16" infinite="0" nextlayerid="7" nextobjectid="17">
 <tileset firstgid="1" source="../../../../common/maps/tileset/main.tsx"/>
 <tileset firstgid="10113" source="../../../../common/maps/tileset/buildings.tsx"/>
 <tileset firstgid="11905" source="../../../../common/maps/tileset/dungeon.tsx"/>
 <layer id="1" name="Background" width="44" height="22">
  <data encoding="csv">
4186,4186,4186,4186,4186,4186,4186,4186,4186,4186,4186,4186,4186,4186,4186,4186,4186,4186,4186,4186,4186,4186,4186,4186,4186,4186,4186,4186,4186,4186,4186,4186,4186,4186,4186,4186,4186,4186,4186,4186,4186,4186,4186,4186,
4186,4186,4186,4186,4186,4186,4186,4186,4186,4186,4186,4186,4186,4186,4186,4186,4186,4186,4186,4186,4186,4186,4186,4186,4186,4186,4186,4186,4186,4186,4186,4186,4186,4186,4186,4186,4186,4186,4186,4186,4186,4186,4186,4186,
4186,4186,4186,4186,4186,4186,4186,4186,4186,4186,4186,4186,4186,4186,4186,4186,4186,4186,4186,4186,4186,4186,4186,4186,4186,4186,4186,4186,4186,4186,4186,4186,4186,4186,4186,4186,4186,4186,4186,4186,4186,4186,4186,4186,
4186,4186,4186,4186,4186,4186,4186,4186,4186,4186,4186,4186,4186,4186,4186,4186,4186,4186,4186,4186,4186,4186,4186,4186,4186,4186,4186,4186,4186,4186,4186,4186,4186,4186,4186,4186,4186,4186,4186,4186,4186,4186,4186,4186,
4186,4186,4186,4186,4186,4186,4186,4186,4186,4186,4186,4186,4186,4186,4186,4186,4186,4186,4186,4186,4186,4186,4186,4186,4186,4186,4186,4186,4186,4186,4186,4186,4186,4186,4186,4186,4186,4186,4186,4186,4186,4186,4186,4186,
4186,4186,4186,4186,4186,4186,4186,4186,4186,4186,4186,4186,4186,4186,4186,4186,4186,4186,4186,4186,4186,4186,4186,4186,4186,4186,4186,4186,4186,4186,4186,4186,4186,4186,4186,4186,4186,4186,4186,4186,4186,4186,4186,4186,
4186,4186,4186,4186,4186,4186,4186,4186,4186,4186,4186,4186,4186,4186,4186,4186,4186,4186,4186,4186,4186,4186,4186,4186,4186,4186,4186,4186,4186,4186,4186,4186,4186,4186,4186,4186,4186,4186,4186,4186,4186,4186,4186,4186,
4186,4186,4186,4186,4186,4186,4186,4186,4186,4186,4186,4186,4186,4186,4186,4186,4186,4186,4186,4186,4186,4186,4186,4186,4186,4186,4186,4186,4186,4186,4186,4186,4186,4186,4186,4186,4186,4186,4186,4186,4186,4186,4186,4186,
4186,4186,4186,4186,4186,4186,4186,4186,4186,4186,4186,4186,4186,4186,4186,4186,4186,4186,4186,4186,4186,4186,4186,4186,4186,4186,4186,4186,4186,4186,4186,4186,4186,4186,4186,4186,4186,4186,4186,4186,4186,4186,4186,4186,
4186,4186,4186,4186,4186,4186,4186,4186,4186,4186,4186,4186,4186,4186,4186,4186,4186,4186,4186,4186,4186,4186,4186,4186,4186,4186,4186,4186,4186,4186,4186,4186,4186,4186,4186,4186,4186,4186,4186,4186,4186,4186,4186,4186,
4186,4186,4186,4186,4186,4186,4186,4186,4186,4186,4186,4186,4186,4186,4186,4186,4186,4186,4186,4186,4186,4186,4186,4186,4186,4186,4186,4186,4186,4186,4186,4186,4186,4186,4186,4186,4186,4186,4186,4186,4186,4186,4186,4186,
4186,4186,4186,4186,4186,4186,4186,4186,4186,4186,4186,4186,4186,4186,4186,4186,4186,4186,4186,4186,4186,4186,4186,4186,4186,4186,4186,4186,4186,4186,4186,4186,4186,4186,4186,4186,4186,4186,4186,4186,4186,4186,4186,4186,
4186,4186,4186,4186,4186,4186,4186,4186,4186,4186,4186,4186,4186,4186,4186,4186,4186,4186,4186,4186,4186,4186,4186,4186,4186,4186,4186,4186,4186,4186,4186,4186,4186,4186,4186,4186,4186,4186,4186,4186,4186,4186,4186,4186,
4186,4186,4186,4186,4186,4186,4186,4186,4186,4186,4186,4186,4186,4186,4186,4186,4186,4186,4186,4186,4186,4186,4186,4186,4186,4186,4186,4186,4186,4186,4186,4186,4186,4186,4186,4186,4186,4186,4186,4186,4186,4186,4186,4186,
4186,4186,4186,4186,4186,4186,4186,4186,4186,4186,4186,4186,4186,4186,4186,4186,4186,4186,4186,4186,4186,4186,4186,4186,4186,4186,4186,4186,4186,4186,4186,4186,4186,4186,4186,4186,4186,4186,4186,4186,4186,4186,4186,4186,
4186,4186,4186,4186,4186,4186,4186,4186,4186,4186,4186,4186,4186,4186,4186,4186,4186,4186,4186,4186,4186,4186,4186,4186,4186,4186,4186,4186,4186,4186,4186,4186,4186,4186,4186,4186,4186,4186,4186,4186,4186,4186,4186,4186,
4186,4186,4186,4186,4186,4186,4186,4186,4186,4186,4186,4186,4186,4186,4186,4186,4186,4186,4186,4186,4186,4186,4186,4186,4186,4186,4186,4186,4186,4186,4186,4186,4186,4186,4186,4186,4186,4186,4186,4186,4186,4186,4186,4186,
4186,4186,4186,4186,4186,4186,4186,4186,4186,4186,4186,4186,4186,4186,4186,4186,4186,4186,4186,4186,4186,4186,4186,4186,4186,4186,4186,4186,4186,4186,4186,4186,4186,4186,4186,4186,4186,4186,4186,4186,4186,4186,4186,4186,
4186,4186,4186,4186,4186,4186,4186,4186,4186,4186,4186,4186,4186,4186,4186,4186,4186,4186,4186,4186,4186,4186,4186,4186,4186,4186,4186,4186,4186,4186,4186,4186,4186,4186,4186,4186,4186,4186,4186,4186,4186,4186,4186,4186,
4186,4186,4186,4186,4186,4186,4186,4186,4186,4186,4186,4186,4186,4186,4186,4186,4186,4186,4186,4186,4186,4186,4186,4186,4186,4186,4186,4186,4186,4186,4186,4186,4186,4186,4186,4186,4186,4186,4186,4186,4186,4186,4186,4186,
4186,4186,4186,4186,4186,4186,4186,4186,4186,4186,4186,4186,4186,4186,4186,4186,4186,4186,4186,4186,4186,4186,4186,4186,4186,4186,4186,4186,4186,4186,4186,4186,4186,4186,4186,4186,4186,4186,4186,4186,4186,4186,4186,4186,
4186,4186,4186,4186,4186,4186,4186,4186,4186,4186,4186,4186,4186,4186,4186,4186,4186,4186,4186,4186,4186,4186,4186,4186,4186,4186,4186,4186,4186,4186,4186,4186,4186,4186,4186,4186,4186,4186,4186,4186,4186,4186,4186,4186
</data>
 </layer>
 <layer id="6" name="Floor" width="44" height="22">
  <data encoding="csv">
2430,2430,2430,2430,2430,2430,2430,2430,2430,2430,2430,2430,2430,2430,2430,2430,2430,2430,2430,2430,2430,2430,2430,2430,2430,2430,2430,2430,2430,2430,2430,2430,2430,2430,2430,2430,2430,2430,2430,2430,2430,2430,2430,2430,
2430,2430,2430,2430,2430,2430,2430,2430,2430,2430,2430,2430,2430,2430,2430,2430,2430,2430,2430,2430,2430,2430,2430,2430,2430,2430,2430,2430,2430,2430,2430,2430,2430,2430,2430,2430,2430,2430,2430,2430,2430,2430,2430,2430,
2430,2430,2430,2430,2430,2430,2430,2430,2430,2430,2430,2430,2430,2430,2430,2430,2430,2430,2430,2430,2430,2430,2430,2430,2430,2430,2430,2430,2430,2430,2430,2430,2430,2430,2430,2430,2430,2430,2430,2430,2430,2430,2430,2430,
2430,2430,2430,2430,2430,2430,2430,2430,2430,2430,2430,2430,2430,2430,2430,2430,2430,2430,2430,2430,2430,2430,2430,2430,2430,2430,2430,2430,2430,2430,2430,2430,2430,2430,2430,2430,2430,2430,2430,2430,2430,2430,2430,2430,
2430,2430,2430,2430,2430,2430,2430,2430,2430,2430,2430,2430,2430,2430,2430,2430,2430,2430,2430,2430,2430,2430,2430,2430,2430,2430,2430,2430,2430,2430,2430,2430,2430,2430,2274,2276,2430,2430,2430,2430,2430,2430,2430,2430,
2430,2430,2430,2430,2430,2430,2430,2430,2430,2430,2430,2430,2430,2430,2430,2430,2430,2430,2430,2430,2430,2430,2430,2430,2430,2430,2430,2430,2430,2430,2430,2430,2430,2274,2589,2429,2430,2430,2430,2430,2430,2430,2430,2430,
2430,2430,2430,2430,2430,2430,2430,2430,2430,2430,2430,2430,2430,2430,2430,2430,2430,2430,2430,2430,2430,2430,2430,2430,2430,2430,2430,2430,2430,2430,2430,2430,2430,2432,0,2429,2430,2274,2275,2275,2276,2430,2430,2430,
2430,2430,2430,2430,2430,2430,2430,2430,2430,2430,2430,2430,2430,2430,2430,2430,2430,2430,2430,2430,2430,2430,2430,2430,2430,2430,2430,2430,2430,2430,2430,2430,2430,2590,2591,2592,2430,2432,0,0,2434,2430,2430,2430,
2430,2430,2430,2430,2430,2430,2430,2430,2430,2430,2430,2430,2430,2430,2430,2430,2430,2430,2430,2430,2430,2430,2430,2430,2430,2430,2430,2430,2430,2430,2430,2430,2430,2430,2430,2430,2430,2590,2273,0,2429,2430,2430,2430,
2430,2430,2430,2430,2430,2430,2430,2430,2430,2430,2430,2430,2430,2430,2430,2430,2430,2430,2430,2430,2430,2430,2430,2430,2430,2430,2430,2430,2430,2430,2430,2430,2430,2430,2430,2430,2430,2430,2590,2272,2592,2430,2430,2430,
2430,2430,2430,2430,2430,2430,2430,2430,2430,2430,2430,2430,2430,2430,2430,2430,2430,2430,2430,2430,2430,2430,2430,2430,2430,2430,2430,2430,2430,2430,2430,2430,2430,2274,2588,2588,2276,2430,2430,2430,2430,2430,2430,2430,
2430,2430,2430,2430,2430,2430,2430,2430,2430,2430,2430,2430,2430,2430,2430,2430,2430,2430,2430,2430,2430,2430,2430,2430,2430,2430,2430,2430,2430,2430,2430,2430,2430,2590,2272,2591,2592,2430,2430,2430,2430,2430,2430,2430,
2430,2430,2430,2430,2430,2430,2430,2430,2430,2430,2430,2430,2430,2430,2430,2430,2430,2430,2430,2430,2430,2430,2430,2430,2430,2430,2430,2430,2430,2430,2430,2430,2430,2430,2430,2430,2430,2430,2430,2430,2430,2430,2430,2430,
2430,2430,2430,2430,2430,2430,2430,2430,2430,2430,2430,2430,2430,2430,2430,2430,2430,2430,2430,2430,2430,2430,2430,2430,2430,2430,2430,2430,2430,2430,2430,2430,2430,2430,2430,2430,2430,2430,2430,2430,2430,2430,2430,2430,
2430,2430,2430,2430,2430,2430,2430,2430,2430,2430,2430,2430,2430,2430,2430,2430,2430,2430,2430,2430,2430,2430,2430,2274,2276,2430,2430,2430,2430,2430,2430,2430,2430,2430,2430,2430,2430,2430,2430,2430,2430,2430,2430,2430,
2430,2430,2430,2430,2430,2430,2430,2430,2430,2430,2430,2430,2430,2430,2430,2430,2430,2430,2430,2430,2430,2430,2274,2589,2587,2276,2430,2430,2430,2430,2430,2430,2430,2430,2430,2430,2430,2430,2430,2430,2430,2430,2430,2430,
2430,2430,2430,2430,2430,2430,2430,2430,2430,2430,2430,2430,2430,2430,2430,2430,2430,2430,2430,2430,2430,2430,2590,2273,2271,2592,2430,2430,2430,2430,2430,2430,2430,2430,2430,2430,2430,2430,2430,2430,2430,2430,2430,2430,
2430,2430,2430,2430,2430,2430,2430,2430,2430,2430,2430,2430,2430,2430,2430,2430,2430,2430,2430,2430,2430,2430,2430,2590,2592,2430,2430,2430,2430,2430,2430,2430,2430,2430,2430,2430,2430,2430,2430,2430,2430,2430,2430,2430,
2430,2430,2430,2430,2430,2430,2430,2430,2430,2430,2430,2430,2430,2430,2430,2430,2430,2430,2430,2430,2430,2430,2430,2430,2430,2430,2430,2430,2430,2430,2430,2430,2430,2430,2430,2430,2430,2430,2430,2430,2430,2430,2430,2430,
2430,2430,2430,2430,2430,2430,2430,2430,2430,2430,2430,2430,2430,2430,2430,2430,2430,2430,2430,2430,2430,2430,2430,2430,2430,2430,2430,2430,2430,2430,2430,2430,2430,2430,2430,2430,2430,2430,2430,2430,2430,2430,2430,2430,
2430,2430,2430,2430,2430,2430,2430,2430,2430,2430,2430,2430,2430,2430,2430,2430,2430,2430,2430,2430,2430,2430,2430,2430,2430,2430,2430,2430,2430,2430,2430,2430,2430,2430,2430,2430,2430,2430,2430,2430,2430,2430,2430,2430,
2430,2430,2430,2430,2430,2430,2430,2430,2430,2430,2430,2430,2430,2430,2430,2430,2430,2430,2430,2430,2430,2430,2430,2430,2430,2430,2430,2430,2430,2430,2430,2430,2430,2430,2430,2430,2430,2430,2430,2430,2430,2430,2430,2430
</data>
 </layer>
 <layer id="2" name="Ground" width="44" height="22">
  <data encoding="csv">
2374,2374,2374,2374,2374,2374,2374,2374,2374,2374,2374,2374,2374,2374,2374,2374,2374,2374,2374,2374,2374,2374,2374,2374,2374,2374,2374,2374,2374,2374,2374,2374,2374,2374,2374,2374,2374,2374,2374,2374,2374,2374,2374,2374,
2374,2374,2374,2374,2374,2374,2374,2374,2374,2374,2374,2374,2374,2374,2374,2374,2374,2374,2374,2374,2374,2374,2374,2374,2374,2374,2374,2374,2374,2374,2374,2374,2374,2374,2374,2374,2374,2374,2374,2374,2374,2374,2374,2374,
2374,2374,2374,2374,2374,2374,2374,2374,2374,2374,2374,2374,2374,2374,2374,2374,2374,2374,2374,2374,2374,2374,2374,2374,2374,2374,2374,2374,2374,2374,2374,2374,2374,2374,2374,2374,2374,2374,2374,2374,2374,2374,2374,2374,
2374,2374,2374,2374,2374,2374,2374,2374,2374,2374,2374,2374,2374,2374,2374,2374,2374,2374,2374,2374,2374,2374,2374,2374,2374,2374,2374,2374,2374,2374,2374,2374,2374,2374,2374,2374,2218,2532,2219,2220,2374,2374,2374,2374,
2374,2374,2374,2374,2374,2374,2374,2374,2374,2374,2374,2374,2374,2374,2374,2374,2374,2374,2374,2374,2374,2374,2374,2374,2374,2374,2374,2374,2374,2374,2374,2374,2374,2374,2218,2532,2533,0,0,2531,2219,2220,2374,2374,
2374,2374,2374,2374,2374,2374,2218,2219,2532,2219,2219,2219,2220,2374,2374,2374,2374,2374,2374,2374,2374,2218,2219,2532,2532,2219,2220,2374,2374,2374,2374,2374,2374,2218,2533,0,0,0,0,0,0,2531,2220,2374,
2374,2374,2374,2374,2374,2218,2533,0,0,0,0,0,2531,2220,2374,2374,2374,2374,2218,2532,2532,2533,0,0,0,0,2531,2532,2219,2220,2374,2374,2374,2376,0,0,0,0,0,0,0,0,2373,2374,
2374,2374,2374,2374,2218,2533,0,0,0,0,0,0,0,2531,2220,2374,2218,2219,2533,0,0,0,0,0,2215,2216,2216,2535,2217,2531,2532,2219,2219,2533,0,0,0,0,0,0,0,0,2373,2374,
2374,2374,2374,2374,2376,0,0,0,0,0,0,0,0,0,2531,2532,2533,0,0,0,0,0,0,0,2378,2374,2374,2374,2534,2217,0,0,0,0,0,0,0,0,0,0,0,0,2378,2374,
2374,2374,2374,2374,2534,2217,0,0,0,0,0,0,0,0,0,0,0,0,0,2215,2216,2535,2216,2217,2373,2374,2374,2374,2374,2376,0,0,0,0,0,0,0,0,0,0,0,0,2373,2374,
2374,2374,2374,2374,2374,2375,0,0,0,0,0,0,0,0,0,0,0,0,2215,2536,2374,2374,2374,2376,2373,2374,2374,2374,2374,2375,0,0,0,0,0,0,0,0,0,0,0,0,2373,2374,
2374,2374,2374,2374,2374,2534,2216,2217,0,0,2215,2535,2216,2217,0,0,0,0,2373,2374,2374,2374,2374,2376,2531,2532,2532,2532,2219,2533,0,0,0,0,0,0,0,0,0,0,2215,2535,2536,2374,
2374,2374,2374,2374,2374,2374,2374,2534,2535,2216,2536,2374,2374,2534,2217,0,0,0,2531,2220,2374,2374,2218,2533,0,0,0,0,0,0,0,0,0,2215,2216,2535,2216,2216,2216,2216,2536,2374,2374,2374,
2374,2374,2374,2374,2374,2374,2374,2374,2374,2374,2374,2374,2374,2374,2376,0,0,0,0,2531,2532,2219,2533,0,0,0,0,0,0,0,0,0,2215,2536,2374,2374,2374,2374,2374,2374,2374,2374,2374,2374,
2374,2374,2374,2374,2374,2374,2374,2374,2374,2374,2374,2374,2374,2374,2534,2217,0,0,0,0,0,0,0,0,0,0,0,0,0,0,0,0,2378,2374,2374,2374,2374,2374,2374,2374,2374,2374,2374,2374,
2374,2374,2374,2374,2374,2374,2374,2374,2374,2374,2374,2374,2374,2374,2374,2534,2535,2217,0,0,0,0,0,0,0,0,0,0,0,0,2215,2216,2536,2374,2374,2374,2374,2374,2374,2374,2374,2374,2374,2374,
2374,2374,2374,2374,2374,2374,2374,2374,2374,2374,2374,2374,2374,2374,2374,2374,2374,2534,2216,2217,0,0,0,0,0,0,0,0,2215,2216,2536,2374,2374,2374,2374,2374,2374,2374,2374,2374,2374,2374,2374,2374,
2374,2374,2374,2374,2374,2374,2374,2374,2374,2374,2374,2374,2374,2374,2374,2374,2374,2374,2374,2534,2216,2217,0,0,2215,2535,2216,2216,2536,2374,2374,2374,2374,2374,2374,2374,2374,2374,2374,2374,2374,2374,2374,2374,
2374,2374,2374,2374,2374,2374,2374,2374,2374,2374,2374,2374,2374,2374,2374,2374,2374,2374,2374,2374,2374,2376,0,2215,2536,2374,2374,2374,2374,2374,2374,2374,2374,2374,2374,2374,2374,2374,2374,2374,2374,2374,2374,2374,
2374,2374,2374,2374,2374,2374,2374,2374,2374,2374,2374,2374,2374,2374,2374,2374,2374,2374,2374,2374,2374,2376,0,2373,2374,2374,2374,2374,2374,2374,2374,2374,2374,2374,2374,2374,2374,2374,2374,2374,2374,2374,2374,2374,
2374,2374,2374,2374,2374,2374,2374,2374,2374,2374,2374,2374,2374,2374,2374,2374,2374,2374,2374,2374,2374,2376,0,2373,2374,2374,2374,2374,2374,2374,2374,2374,2374,2374,2374,2374,2374,2374,2374,2374,2374,2374,2374,2374,
2374,2374,2374,2374,2374,2374,2374,2374,2374,2374,2374,2374,2374,2374,2374,2374,2374,2374,2374,2374,2374,2376,0,2373,2374,2374,2374,2374,2374,2374,2374,2374,2374,2374,2374,2374,2374,2374,2374,2374,2374,2374,2374,2374
</data>
 </layer>
 <layer id="3" name="Foreground" width="44" height="22">
  <properties>
   <property name="spriteLayer" type="bool" value="true"/>
  </properties>
  <data encoding="csv">
0,0,0,0,0,0,0,0,0,0,0,0,0,0,0,0,0,0,0,0,0,0,0,0,0,0,0,0,0,0,0,0,0,0,0,0,0,0,0,0,0,0,0,0,
0,0,0,0,0,0,0,0,0,0,0,0,0,0,0,0,0,0,0,0,0,0,0,0,0,0,0,0,0,0,0,0,0,0,0,0,0,0,0,0,0,0,0,0,
0,0,0,0,0,0,0,0,0,0,0,0,0,0,0,0,0,0,0,0,0,0,0,0,0,0,0,0,0,0,0,0,0,0,0,0,0,0,0,0,0,0,0,0,
0,0,0,0,0,0,0,0,0,0,0,0,0,0,0,0,0,0,0,0,0,0,0,0,0,0,0,0,0,0,0,0,0,0,0,0,0,0,0,0,0,0,0,0,
0,0,0,0,0,0,0,0,0,0,0,0,0,0,0,0,0,0,0,0,0,0,0,0,0,0,0,0,0,0,0,0,0,0,0,0,0,0,0,0,0,0,0,0,
0,0,0,0,0,0,0,0,0,0,0,0,0,0,0,0,0,0,0,0,0,0,0,0,0,0,0,0,0,0,0,0,0,0,0,0,0,0,0,0,0,0,0,0,
0,0,0,0,0,0,0,15732,0,0,0,0,0,0,0,0,0,0,0,0,0,0,0,0,15731,0,0,0,0,0,0,0,0,0,0,0,0,0,0,0,0,0,0,0,
0,0,0,0,0,0,0,0,0,0,0,0,0,0,0,0,0,0,0,0,0,0,0,0,0,0,0,0,0,0,0,0,0,0,0,0,0,0,0,0,0,0,0,0,
0,0,0,0,0,0,0,15732,0,0,0,0,0,0,0,0,0,0,0,0,0,0,0,0,0,0,0,0,0,0,0,0,0,0,0,0,0,0,0,0,0,0,0,0,
0,0,0,0,0,0,0,0,0,0,0,0,0,0,0,0,0,0,0,0,0,0,0,0,0,0,0,0,0,0,0,0,0,0,0,0,0,0,0,0,0,0,0,0,
0,0,0,0,0,0,0,15731,0,0,0,0,0,0,0,0,15668,0,0,0,0,0,0,0,0,0,0,0,0,0,0,0,15669,0,0,0,0,0,0,0,0,0,0,0,
0,0,0,0,0,0,0,0,0,0,0,0,0,0,15669,0,0,0,0,0,0,0,0,0,0,0,0,0,0,0,0,0,0,0,0,15669,0,0,0,0,0,0,0,0,
0,0,0,0,0,0,0,0,0,0,0,0,0,0,0,0,0,0,0,0,0,0,0,0,0,0,0,0,15731,0,0,0,0,0,0,0,0,0,0,0,0,0,0,0,
0,0,0,0,0,0,0,0,0,0,0,0,0,0,0,0,0,0,0,0,0,0,0,0,0,0,0,0,0,0,0,0,0,0,0,0,0,0,0,0,0,0,0,0,
0,0,0,0,0,0,0,0,0,0,0,0,0,0,0,0,0,0,0,0,0,0,0,0,0,0,0,0,0,0,0,0,0,0,0,0,0,0,0,0,0,0,0,0,
0,0,0,0,0,0,0,0,0,0,0,0,0,0,0,0,0,0,0,0,0,0,0,0,0,0,0,0,0,0,0,0,0,0,0,0,0,0,0,0,0,0,0,0,
0,0,0,0,0,0,0,0,0,0,0,0,0,0,0,0,0,0,0,0,0,0,0,0,0,15669,0,0,0,0,0,0,0,0,0,0,0,0,0,0,0,0,0,0,
0,0,0,0,0,0,0,0,0,0,0,0,0,0,0,0,0,0,0,0,0,0,0,0,0,0,0,0,0,0,0,0,0,0,0,0,0,0,0,0,0,0,0,0,
0,0,0,0,0,0,0,0,0,0,0,0,0,0,0,0,0,0,0,0,0,0,0,0,0,0,0,0,0,0,0,0,0,0,0,0,0,0,0,0,0,0,0,0,
0,0,0,0,0,0,0,0,0,0,0,0,0,0,0,0,0,0,0,0,0,0,0,0,0,0,0,0,0,0,0,0,0,0,0,0,0,0,0,0,0,0,0,0,
0,0,0,0,0,0,0,0,0,0,0,0,0,0,0,0,0,0,0,0,0,0,0,0,0,0,0,0,0,0,0,0,0,0,0,0,0,0,0,0,0,0,0,0,
0,0,0,0,0,0,0,0,0,0,0,0,0,0,0,0,0,0,0,0,0,0,0,0,0,0,0,0,0,0,0,0,0,0,0,0,0,0,0,0,0,0,0,0
</data>
 </layer>
 <layer id="5" name="AboveSprites" width="44" height="22">
  <data encoding="csv">
0,0,0,0,0,0,0,0,0,0,0,0,0,0,0,0,0,0,0,0,0,0,0,0,0,0,0,0,0,0,0,0,0,0,0,0,0,0,0,0,0,0,0,0,
0,0,0,0,0,0,0,0,0,0,0,0,0,0,0,0,0,0,0,0,0,0,0,0,0,0,0,0,0,0,0,0,0,0,0,0,0,0,0,0,0,0,0,0,
0,0,0,0,0,0,0,0,0,0,0,0,0,0,0,0,0,0,0,0,0,0,0,0,0,0,0,0,0,0,0,0,0,0,0,0,0,0,0,0,0,0,0,0,
0,0,0,0,0,0,0,0,0,0,0,0,0,0,0,0,0,0,0,0,0,0,0,0,0,0,0,0,0,0,0,0,0,0,0,0,0,0,0,0,0,0,0,0,
0,0,0,0,0,0,0,0,0,0,0,0,0,0,0,0,0,0,0,0,0,0,0,0,0,0,0,0,0,0,0,0,0,0,0,0,0,0,0,0,0,0,0,0,
0,0,0,0,0,0,0,0,0,0,0,0,0,0,0,0,0,0,0,0,0,0,0,0,0,0,0,0,0,0,0,0,0,0,0,0,0,0,0,0,0,0,0,0,
0,0,0,0,0,0,0,0,0,0,0,0,0,0,0,0,0,0,0,0,0,0,0,0,0,0,0,0,0,0,0,0,0,0,0,0,0,0,0,0,0,0,0,0,
0,0,0,0,0,0,0,0,0,0,0,0,0,0,0,0,0,0,0,0,0,0,0,0,0,0,0,0,0,0,0,0,0,0,0,0,0,0,0,0,0,0,0,0,
0,0,0,0,0,0,0,0,0,0,0,0,0,0,0,0,0,0,0,0,0,0,0,0,0,0,0,0,0,0,0,0,0,0,0,0,0,0,0,0,0,0,0,0,
0,0,0,0,0,0,0,0,0,0,0,0,0,0,0,0,0,0,0,0,0,0,0,0,0,0,0,0,0,0,0,0,0,0,0,0,0,0,0,0,0,0,0,0,
0,0,0,0,0,0,0,0,0,0,0,0,0,0,0,0,0,0,0,0,0,0,0,0,0,0,0,0,0,0,0,0,0,0,0,0,0,0,0,0,0,0,0,0,
0,0,0,0,0,0,0,0,0,0,0,0,0,0,0,0,0,0,0,0,0,0,0,0,0,0,0,0,0,0,0,0,0,0,0,0,0,0,0,0,0,0,0,0,
0,0,0,0,0,0,0,0,0,0,0,0,0,0,0,0,0,0,0,0,0,0,0,0,0,0,0,0,0,0,0,0,0,0,0,0,0,0,0,0,0,0,0,0,
0,0,0,0,0,0,0,0,0,0,0,0,0,0,0,0,0,0,0,0,0,0,0,0,0,0,0,0,0,0,0,0,0,0,0,0,0,0,0,0,0,0,0,0,
0,0,0,0,0,0,0,0,0,0,0,0,0,0,0,0,0,0,0,0,0,0,0,0,0,0,0,0,0,0,0,0,0,0,0,0,0,0,0,0,0,0,0,0,
0,0,0,0,0,0,0,0,0,0,0,0,0,0,0,0,0,0,0,0,0,0,0,0,0,0,0,0,0,0,0,0,0,0,0,0,0,0,0,0,0,0,0,0,
0,0,0,0,0,0,0,0,0,0,0,0,0,0,0,0,0,0,0,0,0,0,0,0,0,0,0,0,0,0,0,0,0,0,0,0,0,0,0,0,0,0,0,0,
0,0,0,0,0,0,0,0,0,0,0,0,0,0,0,0,0,0,0,0,0,0,0,0,0,0,0,0,0,0,0,0,0,0,0,0,0,0,0,0,0,0,0,0,
0,0,0,0,0,0,0,0,0,0,0,0,0,0,0,0,0,0,0,0,0,0,0,0,0,0,0,0,0,0,0,0,0,0,0,0,0,0,0,0,0,0,0,0,
0,0,0,0,0,0,0,0,0,0,0,0,0,0,0,0,0,0,0,0,0,0,0,0,0,0,0,0,0,0,0,0,0,0,0,0,0,0,0,0,0,0,0,0,
0,0,0,0,0,0,0,0,0,0,0,0,0,0,0,0,0,0,0,0,0,0,0,0,0,0,0,0,0,0,0,0,0,0,0,0,0,0,0,0,0,0,0,0,
0,0,0,0,0,0,0,0,0,0,0,0,0,0,0,0,0,0,0,0,0,0,0,0,0,0,0,0,0,0,0,0,0,0,0,0,0,0,0,0,0,0,0,0
</data>
 </layer>
 <objectgroup id="4" name="Objects">
  <object id="1" template="../../../../common/maps/obj/entry_up.tx" x="336" y="362" width="48" height="16">
   <properties>
    <property name="teleport" value=""/>
   </properties>
  </object>
  <object id="2" template="../../../../common/maps/obj/waypoint.tx" x="392" y="232"/>
  <object id="3" template="../../../../common/maps/obj/waypoint.tx" x="616" y="136"/>
  <object id="4" template="../../../../common/maps/obj/waypoint.tx" x="152" y="168"/>
  <object id="5" template="../../../../common/maps/obj/waypoint.tx" x="616" y="104"/>
  <object id="6" template="../../../../common/maps/obj/waypoint.tx" x="344" y="264"/>
  <object id="7" template="../../../../common/maps/obj/waypoint.tx" x="344" y="120"/>
  <object id="8" template="../../../../common/maps/obj/enemy.tx" x="576" y="112">
   <properties>
    <property name="enemy" value="Leaping Frog"/>
    <property name="speedModifier" type="float" value="4"/>
    <property name="threatRange" type="int" value="40"/>
    <property name="waypoints" value="2,3,4,5,6,7"/>
   </properties>
  </object>
  <object id="9" template="../../../../common/maps/obj/enemy.tx" x="192" y="128">
   <properties>
    <property name="enemy" value="Gorgon 2"/>
    <property name="speedModifier" type="float" value="4"/>
    <property name="threatRange" type="int" value="40"/>
    <property name="waypoints" value="3,2,7,6,5,4"/>
   </properties>
  </object>
  <object id="10" template="../../../../common/maps/obj/enemy.tx" x="480" y="224">
   <properties>
    <property name="enemy" value="Expert Druid"/>
    <property name="speedModifier" type="float" value="4"/>
    <property name="threatRange" type="int" value="40"/>
    <property name="waypoints" value="6,7,2,3,4,5"/>
   </properties>
  </object>
  <object id="11" template="../../../../common/maps/obj/enemy.tx" x="368" y="144">
   <properties>
    <property name="enemy" value="Slow Turtle"/>
    <property name="speedModifier" type="float" value="4"/>
    <property name="threatRange" type="int" value="40"/>
    <property name="waypoints" value="7,6,5,4,3,2"/>
   </properties>
  </object>
  <object id="12" template="../../../../common/maps/obj/treasure.tx" x="640" y="128">
   <properties>
    <property name="reward">[{&quot;type&quot;: &quot;randomCard&quot;, &quot;count&quot;: 1, &quot;addMaxCount&quot;: 1}, {&quot;type&quot;: &quot;randomCard&quot;, &quot;count&quot;: 1, &quot;probability&quot;: 0.5, &quot;rarity&quot;: [&quot;rare&quot;]}]</property>
   </properties>
  </object>
  <object id="13" template="../../../../common/maps/obj/gold.tx" x="272" y="144"/>
  <object id="14" template="../../obj/stone.tx" x="384" y="208"/>
  <object id="15" template="../../obj/wood.tx" x="496" y="144"/>
  <object id="16" template="../../../../common/maps/obj/manashards.tx" x="288" y="224"/>
 </objectgroup>
</map>
