<?xml version="1.0" encoding="UTF-8"?>
<map version="1.10" tiledversion="1.12.2" orientation="orthogonal" renderorder="right-down" width="36" height="18" tilewidth="16" tileheight="16" infinite="0" nextlayerid="7" nextobjectid="12">
 <tileset firstgid="1" source="../../../../common/maps/tileset/main.tsx"/>
 <tileset firstgid="10113" source="../../../../common/maps/tileset/buildings.tsx"/>
 <tileset firstgid="11905" source="../../../../common/maps/tileset/dungeon.tsx"/>
 <layer id="1" name="Background" width="36" height="18">
  <data encoding="csv">
3378,3378,3378,3378,3378,3378,3378,3378,3378,3378,3378,3378,3378,3378,3378,3378,3378,3378,3378,3378,3378,3378,3378,3378,3378,3378,3378,3378,3378,3378,3378,3378,3378,3378,3378,3378,
3378,3378,3378,3378,3378,3378,3378,3378,3378,3378,3378,3378,3378,3378,3378,3378,3378,3378,3378,3378,3378,3378,3378,3378,3378,3378,3378,3378,3378,3378,3378,3378,3378,3378,3378,3378,
3378,3378,3378,3378,3378,3378,3378,3378,3378,3378,3378,3378,3378,3378,3378,3378,3378,3378,3378,3378,3378,3378,3378,3378,3378,3378,3378,3378,3378,3378,3378,3378,3378,3378,3378,3378,
3378,3378,3378,3378,3378,3378,3378,3378,3378,3378,3378,3378,3378,3378,3378,3378,3378,3378,3378,3378,3378,3378,3378,3378,3378,3378,3378,3378,3378,3378,3378,3378,3378,3378,3378,3378,
3378,3378,3378,3378,3378,3378,3378,3378,3378,3378,3378,3378,3378,3378,3378,3378,3378,3378,3378,3378,3378,3378,3378,3378,3378,3378,3378,3378,3378,3378,3378,3378,3378,3378,3378,3378,
3378,3378,3378,3378,3378,3378,3378,3378,3378,3378,3378,3378,3378,3378,3378,3378,3378,3378,3378,3378,3378,3378,3378,3378,3378,3378,3378,3378,3378,3378,3378,3378,3378,3378,3378,3378,
3378,3378,3378,3378,3378,3378,3378,3378,3378,3378,3378,3378,3378,3378,3378,3378,3378,3378,3378,3378,3378,3378,3378,3378,3378,3378,3378,3378,3378,3378,3378,3378,3378,3378,3378,3378,
3378,3378,3378,3378,3378,3378,3378,3378,3378,3378,3378,3378,3378,3378,3378,3378,3378,3378,3378,3378,3378,3378,3378,3378,3378,3378,3378,3378,3378,3378,3378,3378,3378,3378,3378,3378,
3378,3378,3378,3378,3378,3378,3378,3378,3378,3378,3378,3378,3378,3378,3378,3378,3378,3378,3378,3378,3378,3378,3378,3378,3378,3378,3378,3378,3378,3378,3378,3378,3378,3378,3378,3378,
3378,3378,3378,3378,3378,3378,3378,3378,3378,3378,3378,3378,3378,3378,3378,3378,3378,3378,3378,3378,3378,3378,3378,3378,3378,3378,3378,3378,3378,3378,3378,3378,3378,3378,3378,3378,
3378,3378,3378,3378,3378,3378,3378,3378,3378,3378,3378,3378,3378,3378,3378,3378,3378,3378,3378,3378,3378,3378,3378,3378,3378,3378,3378,3378,3378,3378,3378,3378,3378,3378,3378,3378,
3378,3378,3378,3378,3378,3378,3378,3378,3378,3378,3378,3378,3378,3378,3378,3378,3378,3378,3378,3378,3378,3378,3378,3378,3378,3378,3378,3378,3378,3378,3378,3378,3378,3378,3378,3378,
3378,3378,3378,3378,3378,3378,3378,3378,3378,3378,3378,3378,3378,3378,3378,3378,3378,3378,3378,3378,3378,3378,3378,3378,3378,3378,3378,3378,3378,3378,3378,3378,3378,3378,3378,3378,
3378,3378,3378,3378,3378,3378,3378,3378,3378,3378,3378,3378,3378,3378,3378,3378,3378,3378,3378,3378,3378,3378,3378,3378,3378,3378,3378,3378,3378,3378,3378,3378,3378,3378,3378,3378,
3378,3378,3378,3378,3378,3378,3378,3378,3378,3378,3378,3378,3378,3378,3378,3378,3378,3378,3378,3378,3378,3378,3378,3378,3378,3378,3378,3378,3378,3378,3378,3378,3378,3378,3378,3378,
3378,3378,3378,3378,3378,3378,3378,3378,3378,3378,3378,3378,3378,3378,3378,3378,3378,3378,3378,3378,3378,3378,3378,3378,3378,3378,3378,3378,3378,3378,3378,3378,3378,3378,3378,3378,
3378,3378,3378,3378,3378,3378,3378,3378,3378,3378,3378,3378,3378,3378,3378,3378,3378,3378,3378,3378,3378,3378,3378,3378,3378,3378,3378,3378,3378,3378,3378,3378,3378,3378,3378,3378,
3378,3378,3378,3378,3378,3378,3378,3378,3378,3378,3378,3378,3378,3378,3378,3378,3378,3378,3378,3378,3378,3378,3378,3378,3378,3378,3378,3378,3378,3378,3378,3378,3378,3378,3378,3378
</data>
 </layer>
 <layer id="6" name="Floor" width="36" height="18">
  <data encoding="csv">
2398,2398,2398,2398,2398,2398,2398,2398,2398,2398,2398,2398,2398,2398,2398,2398,2398,2398,2398,2398,2398,2398,2398,2398,2398,2398,2398,2398,2398,2398,2398,2398,2398,2398,2398,2398,
2398,2398,2398,2398,2398,2398,2398,2398,2398,2398,2398,2398,2398,2398,2398,2398,2398,2398,2398,2398,2398,2398,2398,2398,2398,2398,2398,2398,2398,2398,2398,2398,2398,2398,2398,2398,
2398,2398,2398,2398,2398,2398,2398,2398,2398,2398,2398,2398,2398,2398,2398,2398,2398,2398,2398,2398,2398,2398,2398,2398,2398,2398,2398,2398,2398,2398,2398,2398,2398,2398,2398,2398,
2398,2398,2398,2398,2398,2398,2398,2398,2398,2398,2398,2398,2398,2398,2398,2398,2398,2398,2398,2398,2398,2398,2398,2398,2398,2398,2398,2398,2398,2398,2398,2398,2398,2398,2398,2398,
2398,2398,2398,2398,2398,2398,2398,2398,2398,2398,2398,2398,2398,2398,2398,2398,2398,2398,2398,2398,2398,2398,2398,2398,2398,2398,2398,2398,2398,2398,2398,2398,2398,2398,2398,2398,
2398,2398,2398,2398,2398,2398,2398,2398,2398,2398,2398,2398,2398,2398,2398,2398,2398,2398,2398,2398,2398,2398,2398,2398,2398,2398,2398,2398,2398,2398,2398,2398,2398,2398,2398,2398,
2398,2398,2398,2398,2398,2398,2398,2398,2398,2398,2398,2398,2398,2398,2398,2398,2398,2398,2398,2398,2398,2398,2398,2398,2398,2398,2398,2398,2398,2398,2398,2398,2398,2398,2398,2398,
2398,2398,2398,2398,2398,2398,2398,2398,2398,2398,2398,2398,2398,2398,2398,2398,2398,2398,2398,2398,2398,2398,2398,2398,2398,2398,2398,2398,2398,2398,2398,2398,2398,2398,2398,2398,
2398,2398,2398,2398,2398,2398,2398,2398,2398,2398,2398,2398,2398,2398,2398,2398,2398,2398,2398,2398,2398,2398,2398,2398,2398,2398,2398,2398,2398,2398,2398,2398,2398,2398,2398,2398,
2398,2398,2398,2398,2242,2243,2243,2556,2243,2244,2398,2398,2398,2398,2398,2398,2398,2398,2398,2398,2398,2398,2398,2398,2398,2398,2398,2398,2398,2398,2398,2398,2398,2398,2398,2398,
2398,2398,2398,2398,2399,0,0,0,0,2555,2244,2398,2398,2398,2398,2398,2398,2398,2398,2398,2398,2398,2398,2398,2398,2398,2398,2398,2398,2398,2398,2398,2398,2398,2398,2398,
2398,2398,2398,2242,2557,0,0,0,0,2239,2560,2398,2398,2398,2398,2398,2398,2398,2398,2398,2398,2398,2398,2398,2398,2398,2398,2398,2398,2398,2398,2398,2398,2398,2398,2398,
2398,2398,2398,2558,2240,2559,2240,2240,2559,2560,2398,2398,2398,2398,2398,2398,2398,2398,2398,2398,2398,2398,2398,2398,2398,2398,2398,2398,2398,2398,2398,2398,2398,2398,2398,2398,
2398,2398,2398,2398,2398,2398,2398,2398,2398,2398,2398,2398,2398,2398,2398,2398,2398,2398,2398,2398,2398,2398,2398,2398,2398,2398,2398,2398,2398,2398,2398,2398,2398,2398,2398,2398,
2398,2398,2398,2398,2398,2398,2398,2398,2398,2398,2398,2398,2398,2398,2398,2398,2398,2398,2398,2398,2398,2398,2398,2398,2398,2398,2398,2398,2398,2398,2398,2398,2398,2398,2398,2398,
2398,2398,2398,2398,2398,2398,2398,2398,2398,2398,2398,2398,2398,2398,2398,2398,2398,2398,2398,2398,2398,2398,2398,2398,2398,2398,2398,2398,2398,2398,2398,2398,2398,2398,2398,2398,
2398,2398,2398,2398,2398,2398,2398,2398,2398,2398,2398,2398,2398,2398,2398,2398,2398,2398,2398,2398,2398,2398,2398,2398,2398,2398,2398,2398,2398,2398,2398,2398,2398,2398,2398,2398,
2398,2398,2398,2398,2398,2398,2398,2398,2398,2398,2398,2398,2398,2398,2398,2398,2398,2398,2398,2398,2398,2398,2398,2398,2398,2398,2398,2398,2398,2398,2398,2398,2398,2398,2398,2398
</data>
 </layer>
 <layer id="2" name="Ground" width="36" height="18">
  <data encoding="csv">
2374,2374,2374,2374,2374,2374,2374,2374,2374,2374,2374,2374,2374,2374,2374,2374,2374,2374,2374,2374,2374,2374,2374,2374,2374,2374,2374,2374,2374,2374,2374,2374,2374,2374,2374,2374,
2374,2374,2374,2374,2374,2374,2374,2374,2374,2374,2374,2374,2374,2374,2374,2374,2374,2374,2374,2374,2374,2374,2374,2374,2374,2374,2374,2374,2374,2374,2374,2374,2374,2374,2374,2374,
2374,2374,2374,2374,2374,2374,2374,2374,2374,2374,2374,2374,2374,2374,2374,2374,2374,2374,2374,2374,2374,2374,2374,2374,2374,2374,2374,2374,2374,2374,2374,2374,2374,2374,2374,2374,
2374,2374,2374,2374,2374,2374,2374,2374,2374,2374,2374,2374,2374,2374,2374,2374,2374,2374,2374,2374,2374,2374,2374,2374,2374,2374,2374,2374,2374,2374,2374,2374,2374,2374,2374,2374,
2374,2374,2374,2374,2374,2374,2374,2374,2374,2374,2374,2374,2374,2374,2374,2374,2374,2374,2374,2374,2374,2374,2374,2374,2374,2374,2374,2374,2374,2374,2374,2374,2374,2374,2374,2374,
2374,2374,2374,2374,2374,2374,2374,2374,2374,2374,2374,2374,2218,2219,2532,2219,2219,2219,2219,2219,2532,2220,2374,2374,2374,2374,2374,2374,2374,2374,2374,2374,2374,2374,2374,2374,
2374,2374,2374,2374,2374,2374,2374,2374,2374,2374,2218,2219,2533,0,0,0,0,0,0,0,0,2531,2219,2220,2374,2374,2374,2374,2374,2374,2374,2374,2374,2374,2374,2374,
2374,2374,2374,2374,2218,2532,2219,2219,2219,2532,2533,0,0,0,0,0,0,0,0,0,0,0,0,2531,2220,2374,2374,2374,2374,2374,2374,2374,2374,2374,2374,2374,
2374,2374,2374,2218,2533,0,0,0,0,0,2215,2216,2535,2535,2216,2535,2535,2217,0,0,0,0,0,0,2531,2219,2219,2219,2219,2532,2219,2220,2374,2374,2374,2374,
2374,2374,2218,2533,0,0,0,0,0,0,2373,2374,2374,2374,2374,2374,2374,2534,2535,2535,2217,0,0,0,0,0,0,0,0,0,0,2531,2220,2374,2374,2374,
2374,2374,2375,0,0,0,0,0,0,0,2373,2374,2374,2374,2374,2374,2374,2374,2374,2374,2375,0,0,0,0,0,0,0,0,0,0,0,2378,2374,2374,2374,
2374,2374,2376,0,0,0,0,0,0,0,2531,2219,2219,2219,2220,2374,2374,2374,2374,2374,2375,0,0,0,0,0,0,0,0,0,0,0,2373,2374,2374,2374,
2374,2374,2534,2535,2217,0,0,0,0,2215,2535,2217,0,0,2531,2219,2220,2374,2218,2532,2533,0,2215,2216,2535,2217,0,0,0,0,2215,2535,2536,2374,2374,2374,
2374,2374,2374,2374,2534,2217,0,2215,2216,2536,2374,2534,2216,2535,2217,0,2531,2219,2533,2215,2216,2216,2536,2374,2374,2534,2535,2216,2535,2216,2536,2374,2374,2374,2374,2374,
2374,2374,2374,2374,2374,2534,2535,2536,2374,2374,2374,2374,2374,2374,2534,2216,2535,2217,0,2378,2374,2374,2374,2374,2374,2374,2374,2374,2374,2374,2374,2374,2374,2374,2374,2374,
2374,2374,2374,2374,2374,2374,2374,2374,2374,2374,2374,2374,2374,2374,2374,2374,2374,2376,0,2378,2374,2374,2374,2374,2374,2374,2374,2374,2374,2374,2374,2374,2374,2374,2374,2374,
2374,2374,2374,2374,2374,2374,2374,2374,2374,2374,2374,2374,2374,2374,2374,2374,2374,2375,0,2373,2374,2374,2374,2374,2374,2374,2374,2374,2374,2374,2374,2374,2374,2374,2374,2374,
2374,2374,2374,2374,2374,2374,2374,2374,2374,2374,2374,2374,2374,2374,2374,2374,2374,2376,0,2378,2374,2374,2374,2374,2374,2374,2374,2374,2374,2374,2374,2374,2374,2374,2374,2374
</data>
 </layer>
 <layer id="3" name="Foreground" width="36" height="18">
  <properties>
   <property name="spriteLayer" type="bool" value="true"/>
  </properties>
  <data encoding="csv">
0,0,0,0,0,0,0,0,0,0,0,0,0,0,0,0,0,0,0,0,0,0,0,0,0,0,0,0,0,0,0,0,0,0,0,0,
0,0,0,0,0,0,0,0,0,0,0,0,0,0,0,0,0,0,0,0,0,0,0,0,0,0,0,0,0,0,0,0,0,0,0,0,
0,0,0,0,0,0,0,0,0,0,0,0,0,0,0,0,0,0,0,0,0,0,0,0,0,0,0,0,0,0,0,0,0,0,0,0,
0,0,0,0,0,0,0,0,0,0,0,0,0,0,0,0,0,0,0,0,0,0,0,0,0,0,0,0,0,0,0,0,0,0,0,0,
0,0,0,0,0,0,0,0,0,0,0,0,0,0,0,0,0,0,0,0,0,0,0,0,0,0,0,0,0,0,0,0,0,0,0,0,
0,0,0,0,0,0,0,0,0,0,0,0,0,0,0,0,0,0,0,0,0,0,0,0,0,0,0,0,0,0,0,0,0,0,0,0,
0,0,0,0,0,0,0,0,0,0,0,0,0,15731,0,0,0,0,15732,0,15669,0,0,0,0,0,0,0,0,0,0,0,0,0,0,0,
0,0,0,0,0,0,0,0,0,0,0,0,0,0,0,0,0,0,0,0,0,0,0,0,0,0,0,0,0,0,0,0,0,0,0,0,
0,0,0,0,0,0,0,15731,0,0,0,0,0,0,0,0,0,0,0,0,0,0,15669,0,0,0,0,0,0,0,0,0,0,0,0,0,
0,0,0,0,0,0,0,0,0,0,0,0,0,0,0,0,0,0,0,0,0,0,0,0,0,0,0,0,0,0,0,0,0,0,0,0,
0,0,0,0,0,0,0,0,0,0,0,0,0,0,0,0,0,0,0,0,0,0,0,0,15668,0,0,0,0,0,0,0,0,0,0,0,
0,0,0,0,0,0,0,0,0,15668,0,0,0,0,0,0,0,0,0,0,0,0,0,0,0,0,0,0,0,0,0,0,0,0,0,0,
0,0,0,0,0,0,15731,0,0,0,0,0,15669,0,0,0,0,0,0,0,0,0,0,0,0,0,0,15731,0,0,0,0,0,0,0,0,
0,0,0,0,0,0,0,0,0,0,0,0,0,0,0,0,0,0,0,0,0,0,0,0,0,0,0,0,0,0,0,0,0,0,0,0,
0,0,0,0,0,0,0,0,0,0,0,0,0,0,0,0,0,0,0,0,0,0,0,0,0,0,0,0,0,0,0,0,0,0,0,0,
0,0,0,0,0,0,0,0,0,0,0,0,0,0,0,0,0,0,0,0,0,0,0,0,0,0,0,0,0,0,0,0,0,0,0,0,
0,0,0,0,0,0,0,0,0,0,0,0,0,0,0,0,0,0,0,0,0,0,0,0,0,0,0,0,0,0,0,0,0,0,0,0,
0,0,0,0,0,0,0,0,0,0,0,0,0,0,0,0,0,0,0,0,0,0,0,0,0,0,0,0,0,0,0,0,0,0,0,0
</data>
 </layer>
 <layer id="5" name="AboveSprites" width="36" height="18">
  <data encoding="csv">
0,0,0,0,0,0,0,0,0,0,0,0,0,0,0,0,0,0,0,0,0,0,0,0,0,0,0,0,0,0,0,0,0,0,0,0,
0,0,0,0,0,0,0,0,0,0,0,0,0,0,0,0,0,0,0,0,0,0,0,0,0,0,0,0,0,0,0,0,0,0,0,0,
0,0,0,0,0,0,0,0,0,0,0,0,0,0,0,0,0,0,0,0,0,0,0,0,0,0,0,0,0,0,0,0,0,0,0,0,
0,0,0,0,0,0,0,0,0,0,0,0,0,0,0,0,0,0,0,0,0,0,0,0,0,0,0,0,0,0,0,0,0,0,0,0,
0,0,0,0,0,0,0,0,0,0,0,0,0,0,0,0,0,0,0,0,0,0,0,0,0,0,0,0,0,0,0,0,0,0,0,0,
0,0,0,0,0,0,0,0,0,0,0,0,0,0,0,0,0,0,0,0,0,0,0,0,0,0,0,0,0,0,0,0,0,0,0,0,
0,0,0,0,0,0,0,0,0,0,0,0,0,0,0,0,0,0,0,0,0,0,0,0,0,0,0,0,0,0,0,0,0,0,0,0,
0,0,0,0,0,0,0,0,0,0,0,0,0,0,0,0,0,0,0,0,0,0,0,0,0,0,0,0,0,0,0,0,0,0,0,0,
0,0,0,0,0,0,0,0,0,0,0,0,0,0,0,0,0,0,0,0,0,0,0,0,0,0,0,0,0,0,0,0,0,0,0,0,
0,0,0,0,0,0,0,0,0,0,0,0,0,0,0,0,0,0,0,0,0,0,0,0,0,0,0,0,0,0,0,0,0,0,0,0,
0,0,0,0,0,0,0,0,0,0,0,0,0,0,0,0,0,0,0,0,0,0,0,0,0,0,0,0,0,0,0,0,0,0,0,0,
0,0,0,0,0,0,0,0,0,0,0,0,0,0,0,0,0,0,0,0,0,0,0,0,0,0,0,0,0,0,0,0,0,0,0,0,
0,0,0,0,0,0,0,0,0,0,0,0,0,0,0,0,0,0,0,0,0,0,0,0,0,0,0,0,0,0,0,0,0,0,0,0,
0,0,0,0,0,0,0,0,0,0,0,0,0,0,0,0,0,0,0,0,0,0,0,0,0,0,0,0,0,0,0,0,0,0,0,0,
0,0,0,0,0,0,0,0,0,0,0,0,0,0,0,0,0,0,0,0,0,0,0,0,0,0,0,0,0,0,0,0,0,0,0,0,
0,0,0,0,0,0,0,0,0,0,0,0,0,0,0,0,0,0,0,0,0,0,0,0,0,0,0,0,0,0,0,0,0,0,0,0,
0,0,0,0,0,0,0,0,0,0,0,0,0,0,0,0,0,0,0,0,0,0,0,0,0,0,0,0,0,0,0,0,0,0,0,0,
0,0,0,0,0,0,0,0,0,0,0,0,0,0,0,0,0,0,0,0,0,0,0,0,0,0,0,0,0,0,0,0,0,0,0,0
</data>
 </layer>
 <objectgroup id="4" name="Objects">
  <object id="1" template="../../../../common/maps/obj/entry_up.tx" x="272" y="298" width="48" height="16">
   <properties>
    <property name="teleport" value=""/>
   </properties>
  </object>
  <object id="2" template="../../../../common/maps/obj/waypoint.tx" x="328" y="136"/>
  <object id="3" template="../../../../common/maps/obj/waypoint.tx" x="472" y="152"/>
  <object id="4" template="../../../../common/maps/obj/waypoint.tx" x="104" y="168"/>
  <object id="5" template="../../../../common/maps/obj/waypoint.tx" x="296" y="136"/>
  <object id="6" template="../../../../common/maps/obj/enemy.tx" x="480" y="192">
   <properties>
    <property name="enemy" value="Verdant Wyrm"/>
    <property name="speedModifier" type="float" value="4"/>
    <property name="threatRange" type="int" value="40"/>
    <property name="waypoints" value="2,3,4,5"/>
   </properties>
  </object>
  <object id="7" template="../../../../common/maps/obj/enemy.tx" x="64" y="176">
   <properties>
    <property name="enemy" value="Frostcloak Marauder"/>
    <property name="speedModifier" type="float" value="4"/>
    <property name="threatRange" type="int" value="40"/>
    <property name="waypoints" value="3,2,5,4"/>
   </properties>
  </object>
  <object id="8" template="../../../../common/maps/obj/enemy.tx" x="144" y="160">
   <properties>
    <property name="enemy" value="Dune Ghoul"/>
    <property name="speedModifier" type="float" value="4"/>
    <property name="threatRange" type="int" value="40"/>
    <property name="waypoints" value="2,3,4,5"/>
   </properties>
  </object>
  <object id="9" template="../../../../common/maps/obj/treasure.tx" x="240" y="112">
   <properties>
    <property name="reward">[{&quot;type&quot;: &quot;randomCard&quot;, &quot;count&quot;: 1, &quot;addMaxCount&quot;: 1}]</property>
   </properties>
  </object>
  <object id="10" template="../../../../common/maps/obj/gold.tx" x="432" y="176"/>
  <object id="11" template="../../obj/stone.tx" x="336" y="208"/>
 </objectgroup>
</map>
