<?xml version="1.0" encoding="UTF-8"?>
<map version="1.10" tiledversion="1.12.2" orientation="orthogonal" renderorder="right-down" width="48" height="24" tilewidth="16" tileheight="16" infinite="0" nextlayerid="7" nextobjectid="20">
 <tileset firstgid="1" source="../../../../common/maps/tileset/main.tsx"/>
 <tileset firstgid="10113" source="../../../../common/maps/tileset/buildings.tsx"/>
 <tileset firstgid="11905" source="../../../../common/maps/tileset/dungeon.tsx"/>
 <layer id="1" name="Background" width="48" height="24">
  <data encoding="csv">
3378,3378,3378,3378,3378,3378,3378,3378,3378,3378,3378,3378,3378,3378,3378,3378,3378,3378,3378,3378,3378,3378,3378,3378,3378,3378,3378,3378,3378,3378,3378,3378,3378,3378,3378,3378,3378,3378,3378,3378,3378,3378,3378,3378,3378,3378,3378,3378,
3378,3378,3378,3378,3378,3378,3378,3378,3378,3378,3378,3378,3378,3378,3378,3378,3378,3378,3378,3378,3378,3378,3378,3378,3378,3378,3378,3378,3378,3378,3378,3378,3378,3378,3378,3378,3378,3378,3378,3378,3378,3378,3378,3378,3378,3378,3378,3378,
3378,3378,3378,3378,3378,3378,3378,3378,3378,3378,3378,3378,3378,3378,3378,3378,3378,3378,3378,3378,3378,3378,3378,3378,3378,3378,3378,3378,3378,3378,3378,3378,3378,3378,3378,3378,3378,3378,3378,3378,3378,3378,3378,3378,3378,3378,3378,3378,
3378,3378,3378,3378,3378,3378,3378,3378,3378,3378,3378,3378,3378,3378,3378,3378,3378,3378,3378,3378,3378,3378,3378,3378,3378,3378,3378,3378,3378,3378,3378,3378,3378,3378,3378,3378,3378,3378,3378,3378,3378,3378,3378,3378,3378,3378,3378,3378,
3378,3378,3378,3378,3378,3378,3378,3378,3378,3378,3378,3378,3378,3378,3378,3378,3378,3378,3378,3378,3378,3378,3378,3378,3378,3378,3378,3378,3378,3378,3378,3378,3378,3378,3378,3378,3378,3378,3378,3378,3378,3378,3378,3378,3378,3378,3378,3378,
3378,3378,3378,3378,3378,3378,3378,3378,3378,3378,3378,3378,3378,3378,3378,3378,3378,3378,3378,3378,3378,3378,3378,3378,3378,3378,3378,3378,3378,3378,3378,3378,3378,3378,3378,3378,3378,3378,3378,3378,3378,3378,3378,3378,3378,3378,3378,3378,
3378,3378,3378,3378,3378,3378,3378,3378,3378,3378,3378,3378,3378,3378,3378,3378,3378,3378,3378,3378,3378,3378,3378,3378,3378,3378,3378,3378,3378,3378,3378,3378,3378,3378,3378,3378,3378,3378,3378,3378,3378,3378,3378,3378,3378,3378,3378,3378,
3378,3378,3378,3378,3378,3378,3378,3378,3378,3378,3378,3378,3378,3378,3378,3378,3378,3378,3378,3378,3378,3378,3378,3378,3378,3378,3378,3378,3378,3378,3378,3378,3378,3378,3378,3378,3378,3378,3378,3378,3378,3378,3378,3378,3378,3378,3378,3378,
3378,3378,3378,3378,3378,3378,3378,3378,3378,3378,3378,3378,3378,3378,3378,3378,3378,3378,3378,3378,3378,3378,3378,3378,3378,3378,3378,3378,3378,3378,3378,3378,3378,3378,3378,3378,3378,3378,3378,3378,3378,3378,3378,3378,3378,3378,3378,3378,
3378,3378,3378,3378,3378,3378,3378,3378,3378,3378,3378,3378,3378,3378,3378,3378,3378,3378,3378,3378,3378,3378,3378,3378,3378,3378,3378,3378,3378,3378,3378,3378,3378,3378,3378,3378,3378,3378,3378,3378,3378,3378,3378,3378,3378,3378,3378,3378,
3378,3378,3378,3378,3378,3378,3378,3378,3378,3378,3378,3378,3378,3378,3378,3378,3378,3378,3378,3378,3378,3378,3378,3378,3378,3378,3378,3378,3378,3378,3378,3378,3378,3378,3378,3378,3378,3378,3378,3378,3378,3378,3378,3378,3378,3378,3378,3378,
3378,3378,3378,3378,3378,3378,3378,3378,3378,3378,3378,3378,3378,3378,3378,3378,3378,3378,3378,3378,3378,3378,3378,3378,3378,3378,3378,3378,3378,3378,3378,3378,3378,3378,3378,3378,3378,3378,3378,3378,3378,3378,3378,3378,3378,3378,3378,3378,
3378,3378,3378,3378,3378,3378,3378,3378,3378,3378,3378,3378,3378,3378,3378,3378,3378,3378,3378,3378,3378,3378,3378,3378,3378,3378,3378,3378,3378,3378,3378,3378,3378,3378,3378,3378,3378,3378,3378,3378,3378,3378,3378,3378,3378,3378,3378,3378,
3378,3378,3378,3378,3378,3378,3378,3378,3378,3378,3378,3378,3378,3378,3378,3378,3378,3378,3378,3378,3378,3378,3378,3378,3378,3378,3378,3378,3378,3378,3378,3378,3378,3378,3378,3378,3378,3378,3378,3378,3378,3378,3378,3378,3378,3378,3378,3378,
3378,3378,3378,3378,3378,3378,3378,3378,3378,3378,3378,3378,3378,3378,3378,3378,3378,3378,3378,3378,3378,3378,3378,3378,3378,3378,3378,3378,3378,3378,3378,3378,3378,3378,3378,3378,3378,3378,3378,3378,3378,3378,3378,3378,3378,3378,3378,3378,
3378,3378,3378,3378,3378,3378,3378,3378,3378,3378,3378,3378,3378,3378,3378,3378,3378,3378,3378,3378,3378,3378,3378,3378,3378,3378,3378,3378,3378,3378,3378,3378,3378,3378,3378,3378,3378,3378,3378,3378,3378,3378,3378,3378,3378,3378,3378,3378,
3378,3378,3378,3378,3378,3378,3378,3378,3378,3378,3378,3378,3378,3378,3378,3378,3378,3378,3378,3378,3378,3378,3378,3378,3378,3378,3378,3378,3378,3378,3378,3378,3378,3378,3378,3378,3378,3378,3378,3378,3378,3378,3378,3378,3378,3378,3378,3378,
3378,3378,3378,3378,3378,3378,3378,3378,3378,3378,3378,3378,3378,3378,3378,3378,3378,3378,3378,3378,3378,3378,3378,3378,3378,3378,3378,3378,3378,3378,3378,3378,3378,3378,3378,3378,3378,3378,3378,3378,3378,3378,3378,3378,3378,3378,3378,3378,
3378,3378,3378,3378,3378,3378,3378,3378,3378,3378,3378,3378,3378,3378,3378,3378,3378,3378,3378,3378,3378,3378,3378,3378,3378,3378,3378,3378,3378,3378,3378,3378,3378,3378,3378,3378,3378,3378,3378,3378,3378,3378,3378,3378,3378,3378,3378,3378,
3378,3378,3378,3378,3378,3378,3378,3378,3378,3378,3378,3378,3378,3378,3378,3378,3378,3378,3378,3378,3378,3378,3378,3378,3378,3378,3378,3378,3378,3378,3378,3378,3378,3378,3378,3378,3378,3378,3378,3378,3378,3378,3378,3378,3378,3378,3378,3378,
3378,3378,3378,3378,3378,3378,3378,3378,3378,3378,3378,3378,3378,3378,3378,3378,3378,3378,3378,3378,3378,3378,3378,3378,3378,3378,3378,3378,3378,3378,3378,3378,3378,3378,3378,3378,3378,3378,3378,3378,3378,3378,3378,3378,3378,3378,3378,3378,
3378,3378,3378,3378,3378,3378,3378,3378,3378,3378,3378,3378,3378,3378,3378,3378,3378,3378,3378,3378,3378,3378,3378,3378,3378,3378,3378,3378,3378,3378,3378,3378,3378,3378,3378,3378,3378,3378,3378,3378,3378,3378,3378,3378,3378,3378,3378,3378,
3378,3378,3378,3378,3378,3378,3378,3378,3378,3378,3378,3378,3378,3378,3378,3378,3378,3378,3378,3378,3378,3378,3378,3378,3378,3378,3378,3378,3378,3378,3378,3378,3378,3378,3378,3378,3378,3378,3378,3378,3378,3378,3378,3378,3378,3378,3378,3378,
3378,3378,3378,3378,3378,3378,3378,3378,3378,3378,3378,3378,3378,3378,3378,3378,3378,3378,3378,3378,3378,3378,3378,3378,3378,3378,3378,3378,3378,3378,3378,3378,3378,3378,3378,3378,3378,3378,3378,3378,3378,3378,3378,3378,3378,3378,3378,3378
</data>
 </layer>
 <layer id="6" name="Floor" width="48" height="24">
  <data encoding="csv">
2398,2398,2398,2398,2398,2398,2398,2398,2398,2398,2398,2398,2398,2398,2398,2398,2398,2398,2398,2398,2398,2398,2398,2398,2398,2398,2398,2398,2398,2398,2398,2398,2398,2398,2398,2398,2398,2398,2398,2398,2398,2398,2398,2398,2398,2398,2398,2398,
2398,2398,2398,2398,2398,2398,2398,2398,2398,2398,2398,2398,2398,2398,2398,2398,2398,2398,2398,2398,2398,2398,2398,2398,2398,2398,2398,2398,2398,2398,2398,2398,2398,2398,2398,2398,2398,2398,2398,2398,2398,2398,2398,2398,2398,2398,2398,2398,
2398,2398,2398,2398,2398,2398,2398,2398,2398,2398,2398,2398,2398,2398,2398,2398,2398,2398,2398,2398,2398,2398,2398,2398,2398,2398,2398,2398,2398,2398,2398,2398,2398,2398,2398,2398,2398,2398,2398,2398,2398,2398,2398,2398,2398,2398,2398,2398,
2398,2398,2398,2398,2398,2398,2398,2398,2398,2398,2398,2398,2398,2398,2398,2398,2398,2398,2398,2398,2398,2398,2398,2398,2398,2398,2398,2398,2398,2398,2398,2398,2398,2398,2398,2398,2398,2398,2398,2398,2398,2398,2398,2398,2398,2398,2398,2398,
2398,2398,2398,2398,2398,2398,2398,2398,2398,2398,2398,2398,2398,2398,2398,2398,2398,2398,2398,2398,2398,2398,2398,2398,2398,2398,2398,2398,2398,2398,2398,2398,2398,2398,2398,2398,2398,2398,2398,2398,2398,2398,2398,2398,2398,2398,2398,2398,
2398,2398,2398,2398,2398,2398,2398,2398,2398,2398,2398,2398,2398,2398,2398,2398,2398,2398,2398,2398,2398,2398,2398,2398,2398,2398,2398,2398,2398,2398,2398,2398,2398,2398,2398,2398,2398,2398,2398,2398,2398,2398,2398,2398,2398,2398,2398,2398,
2398,2398,2398,2398,2398,2398,2398,2398,2398,2398,2398,2398,2398,2398,2398,2398,2398,2398,2398,2398,2398,2398,2398,2398,2398,2398,2398,2398,2398,2398,2398,2398,2398,2398,2398,2398,2398,2398,2398,2398,2398,2398,2398,2398,2398,2398,2398,2398,
2398,2398,2398,2398,2398,2398,2398,2398,2398,2398,2398,2398,2398,2398,2398,2398,2398,2398,2398,2398,2398,2398,2398,2398,2398,2398,2398,2398,2398,2398,2398,2398,2398,2398,2398,2398,2398,2398,2398,2398,2398,2398,2398,2398,2398,2398,2398,2398,
2398,2398,2398,2398,2398,2398,2398,2398,2398,2398,2398,2398,2398,2398,2398,2398,2398,2398,2398,2398,2398,2398,2398,2398,2398,2398,2398,2398,2398,2398,2398,2398,2398,2398,2398,2398,2398,2398,2398,2398,2398,2398,2398,2398,2398,2398,2398,2398,
2398,2398,2398,2398,2398,2398,2398,2398,2398,2398,2398,2398,2398,2398,2398,2398,2398,2398,2398,2398,2398,2398,2398,2398,2398,2398,2398,2398,2398,2398,2398,2398,2398,2398,2398,2398,2398,2398,2398,2398,2398,2398,2398,2398,2398,2398,2398,2398,
2398,2398,2398,2398,2398,2398,2398,2398,2398,2398,2398,2398,2398,2398,2398,2398,2398,2398,2398,2398,2398,2398,2398,2398,2242,2244,2398,2398,2398,2398,2398,2398,2398,2398,2398,2398,2398,2398,2398,2398,2398,2398,2398,2398,2398,2398,2398,2398,
2398,2398,2398,2398,2398,2398,2398,2398,2398,2398,2398,2398,2398,2398,2398,2398,2398,2398,2398,2398,2398,2398,2398,2242,2557,2555,2244,2398,2398,2398,2398,2398,2398,2398,2398,2398,2398,2398,2398,2398,2398,2398,2398,2398,2398,2398,2398,2398,
2398,2398,2398,2398,2398,2398,2398,2398,2398,2398,2398,2398,2398,2398,2398,2398,2398,2398,2398,2398,2398,2398,2398,2558,2241,2239,2560,2398,2242,2556,2243,2244,2398,2398,2398,2398,2398,2398,2398,2398,2398,2398,2398,2398,2398,2398,2398,2398,
2398,2398,2398,2398,2398,2398,2398,2398,2398,2398,2398,2398,2398,2398,2398,2398,2398,2398,2398,2398,2398,2398,2398,2398,2558,2560,2398,2398,2399,0,0,2555,2556,2244,2398,2398,2398,2398,2398,2398,2398,2398,2398,2398,2398,2398,2398,2398,
2398,2398,2398,2398,2398,2398,2398,2398,2398,2398,2398,2398,2398,2398,2398,2398,2398,2398,2398,2398,2398,2398,2398,2398,2398,2398,2398,2398,2399,0,0,0,0,2555,2244,2398,2398,2398,2398,2398,2398,2398,2398,2398,2398,2398,2398,2398,
2398,2398,2398,2398,2398,2398,2398,2398,2398,2398,2398,2398,2398,2398,2398,2398,2398,2398,2398,2398,2398,2398,2398,2398,2398,2398,2398,2398,2558,2559,2559,2559,2241,2239,2560,2398,2398,2398,2398,2398,2398,2398,2398,2398,2398,2398,2398,2398,
2398,2398,2398,2398,2398,2398,2398,2398,2398,2398,2398,2398,2398,2398,2398,2398,2398,2398,2398,2398,2398,2398,2398,2398,2398,2398,2398,2398,2398,2398,2398,2398,2558,2560,2398,2398,2398,2398,2398,2398,2398,2398,2398,2398,2398,2398,2398,2398,
2398,2398,2398,2398,2398,2398,2398,2398,2398,2398,2398,2398,2398,2398,2398,2398,2398,2398,2398,2398,2398,2398,2398,2398,2398,2398,2398,2398,2398,2398,2398,2398,2398,2398,2398,2398,2398,2398,2398,2398,2398,2398,2398,2398,2398,2398,2398,2398,
2398,2398,2398,2398,2398,2398,2398,2398,2398,2398,2398,2398,2398,2398,2398,2398,2398,2398,2398,2398,2398,2398,2398,2398,2398,2398,2398,2398,2398,2398,2398,2398,2398,2398,2398,2398,2398,2398,2398,2398,2398,2398,2398,2398,2398,2398,2398,2398,
2398,2398,2398,2398,2398,2398,2398,2398,2398,2398,2398,2398,2398,2398,2398,2398,2398,2398,2398,2398,2398,2398,2398,2398,2398,2398,2398,2398,2398,2398,2398,2398,2398,2398,2398,2398,2398,2398,2398,2398,2398,2398,2398,2398,2398,2398,2398,2398,
2398,2398,2398,2398,2398,2398,2398,2398,2398,2398,2398,2398,2398,2398,2398,2398,2398,2398,2398,2398,2398,2398,2398,2398,2398,2398,2398,2398,2398,2398,2398,2398,2398,2398,2398,2398,2398,2398,2398,2398,2398,2398,2398,2398,2398,2398,2398,2398,
2398,2398,2398,2398,2398,2398,2398,2398,2398,2398,2398,2398,2398,2398,2398,2398,2398,2398,2398,2398,2398,2398,2398,2398,2398,2398,2398,2398,2398,2398,2398,2398,2398,2398,2398,2398,2398,2398,2398,2398,2398,2398,2398,2398,2398,2398,2398,2398,
2398,2398,2398,2398,2398,2398,2398,2398,2398,2398,2398,2398,2398,2398,2398,2398,2398,2398,2398,2398,2398,2398,2398,2398,2398,2398,2398,2398,2398,2398,2398,2398,2398,2398,2398,2398,2398,2398,2398,2398,2398,2398,2398,2398,2398,2398,2398,2398,
2398,2398,2398,2398,2398,2398,2398,2398,2398,2398,2398,2398,2398,2398,2398,2398,2398,2398,2398,2398,2398,2398,2398,2398,2398,2398,2398,2398,2398,2398,2398,2398,2398,2398,2398,2398,2398,2398,2398,2398,2398,2398,2398,2398,2398,2398,2398,2398
</data>
 </layer>
 <layer id="2" name="Ground" width="48" height="24">
  <data encoding="csv">
2374,2374,2374,2374,2374,2374,2374,2374,2374,2374,2374,2374,2374,2374,2374,2374,2374,2374,2374,2374,2374,2374,2374,2374,2374,2374,2374,2374,2374,2374,2374,2374,2374,2374,2374,2374,2374,2374,2374,2374,2374,2374,2374,2374,2374,2374,2374,2374,
2374,2374,2374,2374,2374,2374,2374,2374,2374,2374,2374,2374,2374,2374,2374,2374,2374,2374,2374,2374,2374,2374,2374,2374,2374,2374,2374,2374,2374,2374,2374,2374,2374,2374,2374,2374,2374,2374,2374,2374,2374,2374,2374,2374,2374,2374,2374,2374,
2374,2374,2374,2374,2374,2374,2374,2374,2374,2374,2374,2374,2374,2374,2374,2374,2374,2374,2374,2374,2374,2374,2374,2374,2374,2374,2374,2374,2374,2374,2374,2374,2374,2374,2374,2374,2374,2374,2374,2374,2374,2374,2374,2374,2374,2374,2374,2374,
2374,2374,2374,2374,2374,2374,2374,2374,2374,2374,2374,2374,2374,2374,2374,2374,2374,2374,2374,2374,2374,2374,2374,2374,2374,2374,2374,2374,2374,2374,2374,2374,2374,2374,2374,2374,2374,2374,2374,2374,2374,2374,2374,2374,2374,2374,2374,2374,
2374,2374,2374,2374,2374,2374,2374,2374,2374,2374,2374,2374,2374,2374,2374,2374,2374,2374,2374,2374,2374,2374,2374,2374,2374,2374,2374,2374,2374,2374,2374,2374,2374,2374,2374,2374,2374,2374,2374,2374,2374,2374,2374,2374,2374,2374,2374,2374,
2374,2374,2374,2374,2374,2374,2374,2374,2374,2374,2374,2374,2374,2374,2374,2374,2374,2374,2374,2374,2374,2374,2374,2374,2374,2374,2374,2374,2374,2374,2374,2374,2374,2374,2374,2374,2374,2374,2374,2374,2374,2374,2374,2374,2374,2374,2374,2374,
2374,2374,2374,2374,2374,2374,2374,2374,2374,2218,2532,2532,2532,2532,2220,2374,2374,2374,2374,2374,2374,2374,2374,2374,2374,2374,2374,2374,2374,2374,2374,2374,2374,2374,2374,2374,2374,2374,2374,2374,2374,2374,2374,2374,2374,2374,2374,2374,
2374,2374,2374,2374,2374,2374,2374,2374,2218,2533,0,0,0,0,2531,2220,2374,2374,2374,2374,2218,2219,2219,2532,2532,2532,2532,2219,2532,2220,2374,2374,2374,2374,2374,2374,2374,2374,2374,2374,2374,2374,2374,2374,2374,2374,2374,2374,
2374,2374,2374,2374,2374,2374,2374,2218,2533,0,0,0,0,0,0,2531,2532,2532,2219,2532,2533,0,0,0,0,0,0,0,0,2531,2219,2219,2220,2374,2374,2374,2374,2374,2374,2374,2374,2374,2374,2374,2374,2374,2374,2374,
2374,2374,2374,2374,2374,2374,2374,2534,2217,0,0,0,0,0,0,0,0,0,0,0,0,0,0,0,0,0,0,0,0,0,0,0,2531,2219,2219,2220,2374,2374,2374,2374,2374,2374,2374,2374,2374,2374,2374,2374,
2374,2374,2374,2374,2374,2374,2374,2374,2375,0,0,0,0,0,0,0,0,0,0,0,0,0,0,0,0,0,0,0,0,0,0,0,0,0,0,2531,2220,2374,2374,2374,2374,2374,2374,2374,2374,2374,2374,2374,
2374,2374,2374,2374,2374,2374,2374,2374,2534,2216,2217,0,0,0,0,0,0,0,0,0,2215,2216,2217,0,0,0,0,0,0,0,0,0,0,0,0,0,2531,2220,2374,2374,2374,2374,2374,2374,2374,2374,2374,2374,
2374,2374,2374,2374,2374,2374,2374,2374,2374,2374,2534,2217,0,0,0,0,0,0,0,2215,2536,2374,2534,2217,0,0,0,0,0,0,0,0,0,0,0,0,0,2531,2219,2532,2220,2374,2374,2374,2374,2374,2374,2374,
2374,2374,2374,2374,2374,2374,2374,2374,2374,2374,2374,2376,0,0,0,0,0,0,0,2373,2374,2374,2374,2376,0,0,0,0,0,0,0,0,0,0,0,0,0,0,0,0,2531,2532,2220,2374,2374,2374,2374,2374,
2374,2374,2374,2374,2374,2374,2374,2374,2374,2374,2374,2534,2217,0,0,0,0,0,0,2373,2374,2374,2218,2533,0,0,0,0,0,0,0,0,0,0,0,0,0,0,0,0,0,0,2531,2220,2374,2374,2374,2374,
2374,2374,2374,2374,2374,2374,2374,2374,2374,2374,2374,2374,2534,2217,0,0,0,0,0,2531,2219,2532,2533,0,0,0,0,0,0,0,0,0,0,0,0,0,0,0,0,0,0,0,0,2373,2374,2374,2374,2374,
2374,2374,2374,2374,2374,2374,2374,2374,2374,2374,2374,2374,2374,2534,2217,0,0,0,0,0,0,0,0,0,0,0,0,0,0,0,0,0,0,0,0,0,0,0,0,0,0,2215,2535,2536,2374,2374,2374,2374,
2374,2374,2374,2374,2374,2374,2374,2374,2374,2374,2374,2374,2374,2374,2534,2216,2217,0,0,0,0,0,0,0,0,0,0,0,0,0,0,0,0,2215,2216,2535,2216,2216,2535,2535,2216,2536,2374,2374,2374,2374,2374,2374,
2374,2374,2374,2374,2374,2374,2374,2374,2374,2374,2374,2374,2374,2374,2374,2374,2534,2216,2535,2535,2535,2217,0,0,0,0,0,2215,2535,2535,2216,2216,2216,2536,2374,2374,2374,2374,2374,2374,2374,2374,2374,2374,2374,2374,2374,2374,
2374,2374,2374,2374,2374,2374,2374,2374,2374,2374,2374,2374,2374,2374,2374,2374,2374,2374,2374,2374,2374,2534,2535,2217,0,2215,2216,2536,2374,2374,2374,2374,2374,2374,2374,2374,2374,2374,2374,2374,2374,2374,2374,2374,2374,2374,2374,2374,
2374,2374,2374,2374,2374,2374,2374,2374,2374,2374,2374,2374,2374,2374,2374,2374,2374,2374,2374,2374,2374,2374,2374,2375,0,2378,2374,2374,2374,2374,2374,2374,2374,2374,2374,2374,2374,2374,2374,2374,2374,2374,2374,2374,2374,2374,2374,2374,
2374,2374,2374,2374,2374,2374,2374,2374,2374,2374,2374,2374,2374,2374,2374,2374,2374,2374,2374,2374,2374,2374,2374,2375,0,2378,2374,2374,2374,2374,2374,2374,2374,2374,2374,2374,2374,2374,2374,2374,2374,2374,2374,2374,2374,2374,2374,2374,
2374,2374,2374,2374,2374,2374,2374,2374,2374,2374,2374,2374,2374,2374,2374,2374,2374,2374,2374,2374,2374,2374,2374,2375,0,2378,2374,2374,2374,2374,2374,2374,2374,2374,2374,2374,2374,2374,2374,2374,2374,2374,2374,2374,2374,2374,2374,2374,
2374,2374,2374,2374,2374,2374,2374,2374,2374,2374,2374,2374,2374,2374,2374,2374,2374,2374,2374,2374,2374,2374,2374,2376,0,2373,2374,2374,2374,2374,2374,2374,2374,2374,2374,2374,2374,2374,2374,2374,2374,2374,2374,2374,2374,2374,2374,2374
</data>
 </layer>
 <layer id="3" name="Foreground" width="48" height="24">
  <properties>
   <property name="spriteLayer" type="bool" value="true"/>
  </properties>
  <data encoding="csv">
0,0,0,0,0,0,0,0,0,0,0,0,0,0,0,0,0,0,0,0,0,0,0,0,0,0,0,0,0,0,0,0,0,0,0,0,0,0,0,0,0,0,0,0,0,0,0,0,
0,0,0,0,0,0,0,0,0,0,0,0,0,0,0,0,0,0,0,0,0,0,0,0,0,0,0,0,0,0,0,0,0,0,0,0,0,0,0,0,0,0,0,0,0,0,0,0,
0,0,0,0,0,0,0,0,0,0,0,0,0,0,0,0,0,0,0,0,0,0,0,0,0,0,0,0,0,0,0,0,0,0,0,0,0,0,0,0,0,0,0,0,0,0,0,0,
0,0,0,0,0,0,0,0,0,0,0,0,0,0,0,0,0,0,0,0,0,0,0,0,0,0,0,0,0,0,0,0,0,0,0,0,0,0,0,0,0,0,0,0,0,0,0,0,
0,0,0,0,0,0,0,0,0,0,0,0,0,0,0,0,0,0,0,0,0,0,0,0,0,0,0,0,0,0,0,0,0,0,0,0,0,0,0,0,0,0,0,0,0,0,0,0,
0,0,0,0,0,0,0,0,0,0,0,0,0,0,0,0,0,0,0,0,0,0,0,0,0,0,0,0,0,0,0,0,0,0,0,0,0,0,0,0,0,0,0,0,0,0,0,0,
0,0,0,0,0,0,0,0,0,0,0,0,0,0,0,0,0,0,0,0,0,0,0,0,0,0,0,0,0,0,0,0,0,0,0,0,0,0,0,0,0,0,0,0,0,0,0,0,
0,0,0,0,0,0,0,0,0,0,0,0,0,0,0,0,0,0,0,0,0,0,0,0,0,0,0,0,0,0,0,0,0,0,0,0,0,0,0,0,0,0,0,0,0,0,0,0,
0,0,0,0,0,0,0,0,0,0,0,0,0,0,0,0,0,0,0,0,0,0,0,15731,0,0,0,0,0,0,0,0,0,0,0,0,0,0,0,0,0,0,0,0,0,0,0,0,
0,0,0,0,0,0,0,0,0,0,0,0,0,0,0,0,0,0,0,0,0,0,0,0,0,0,15731,0,0,0,15732,0,0,0,0,0,0,0,0,0,0,0,0,0,0,0,0,0,
0,0,0,0,0,0,0,0,0,0,0,0,0,0,0,0,15669,0,0,0,0,0,0,0,0,0,0,0,0,0,0,0,0,0,0,0,0,0,0,0,0,0,0,0,0,0,0,0,
0,0,0,0,0,0,0,0,0,0,0,0,0,0,0,0,0,0,0,0,0,0,0,0,0,0,0,0,0,0,0,0,0,0,0,0,0,0,0,0,0,0,0,0,0,0,0,0,
0,0,0,0,0,0,0,0,0,0,0,0,0,0,0,0,0,0,0,0,0,0,0,0,0,0,0,0,0,0,0,0,0,0,0,0,0,0,0,0,0,0,0,0,0,0,0,0,
0,0,0,0,0,0,0,0,0,0,0,0,0,0,0,0,15732,0,0,0,0,0,0,0,0,0,0,0,0,0,0,0,0,0,0,0,0,0,0,0,0,0,0,0,0,0,0,0,
0,0,0,0,0,0,0,0,0,0,0,0,0,0,0,0,0,0,0,0,0,0,0,0,0,0,0,0,0,0,0,0,0,0,0,0,0,0,0,0,0,0,0,0,0,0,0,0,
0,0,0,0,0,0,0,0,0,0,0,0,0,0,0,0,0,0,0,0,0,0,0,0,0,0,15731,0,15732,0,0,0,0,0,0,0,0,0,0,0,0,0,15668,0,0,0,0,0,
0,0,0,0,0,0,0,0,0,0,0,0,0,0,0,0,0,0,0,0,0,0,0,0,0,0,0,0,0,0,0,0,0,0,0,0,0,0,0,0,0,0,0,0,0,0,0,0,
0,0,0,0,0,0,0,0,0,0,0,0,0,0,0,0,0,0,0,0,0,0,0,0,0,0,0,0,0,0,0,0,0,0,0,0,0,0,0,0,0,0,0,0,0,0,0,0,
0,0,0,0,0,0,0,0,0,0,0,0,0,0,0,0,0,0,0,0,0,0,0,0,0,0,0,0,0,0,0,0,0,0,0,0,0,0,0,0,0,0,0,0,0,0,0,0,
0,0,0,0,0,0,0,0,0,0,0,0,0,0,0,0,0,0,0,0,0,0,0,0,0,0,0,0,0,0,0,0,0,0,0,0,0,0,0,0,0,0,0,0,0,0,0,0,
0,0,0,0,0,0,0,0,0,0,0,0,0,0,0,0,0,0,0,0,0,0,0,0,0,0,0,0,0,0,0,0,0,0,0,0,0,0,0,0,0,0,0,0,0,0,0,0,
0,0,0,0,0,0,0,0,0,0,0,0,0,0,0,0,0,0,0,0,0,0,0,0,0,0,0,0,0,0,0,0,0,0,0,0,0,0,0,0,0,0,0,0,0,0,0,0,
0,0,0,0,0,0,0,0,0,0,0,0,0,0,0,0,0,0,0,0,0,0,0,0,0,0,0,0,0,0,0,0,0,0,0,0,0,0,0,0,0,0,0,0,0,0,0,0,
0,0,0,0,0,0,0,0,0,0,0,0,0,0,0,0,0,0,0,0,0,0,0,0,0,0,0,0,0,0,0,0,0,0,0,0,0,0,0,0,0,0,0,0,0,0,0,0
</data>
 </layer>
 <layer id="5" name="AboveSprites" width="48" height="24">
  <data encoding="csv">
0,0,0,0,0,0,0,0,0,0,0,0,0,0,0,0,0,0,0,0,0,0,0,0,0,0,0,0,0,0,0,0,0,0,0,0,0,0,0,0,0,0,0,0,0,0,0,0,
0,0,0,0,0,0,0,0,0,0,0,0,0,0,0,0,0,0,0,0,0,0,0,0,0,0,0,0,0,0,0,0,0,0,0,0,0,0,0,0,0,0,0,0,0,0,0,0,
0,0,0,0,0,0,0,0,0,0,0,0,0,0,0,0,0,0,0,0,0,0,0,0,0,0,0,0,0,0,0,0,0,0,0,0,0,0,0,0,0,0,0,0,0,0,0,0,
0,0,0,0,0,0,0,0,0,0,0,0,0,0,0,0,0,0,0,0,0,0,0,0,0,0,0,0,0,0,0,0,0,0,0,0,0,0,0,0,0,0,0,0,0,0,0,0,
0,0,0,0,0,0,0,0,0,0,0,0,0,0,0,0,0,0,0,0,0,0,0,0,0,0,0,0,0,0,0,0,0,0,0,0,0,0,0,0,0,0,0,0,0,0,0,0,
0,0,0,0,0,0,0,0,0,0,0,0,0,0,0,0,0,0,0,0,0,0,0,0,0,0,0,0,0,0,0,0,0,0,0,0,0,0,0,0,0,0,0,0,0,0,0,0,
0,0,0,0,0,0,0,0,0,0,0,0,0,0,0,0,0,0,0,0,0,0,0,0,0,0,0,0,0,0,0,0,0,0,0,0,0,0,0,0,0,0,0,0,0,0,0,0,
0,0,0,0,0,0,0,0,0,0,0,0,0,0,0,0,0,0,0,0,0,0,0,0,0,0,0,0,0,0,0,0,0,0,0,0,0,0,0,0,0,0,0,0,0,0,0,0,
0,0,0,0,0,0,0,0,0,0,0,0,0,0,0,0,0,0,0,0,0,0,0,0,0,0,0,0,0,0,0,0,0,0,0,0,0,0,0,0,0,0,0,0,0,0,0,0,
0,0,0,0,0,0,0,0,0,0,0,0,0,0,0,0,0,0,0,0,0,0,0,0,0,0,0,0,0,0,0,0,0,0,0,0,0,0,0,0,0,0,0,0,0,0,0,0,
0,0,0,0,0,0,0,0,0,0,0,0,0,0,0,0,0,0,0,0,0,0,0,0,0,0,0,0,0,0,0,0,0,0,0,0,0,0,0,0,0,0,0,0,0,0,0,0,
0,0,0,0,0,0,0,0,0,0,0,0,0,0,0,0,0,0,0,0,0,0,0,0,0,0,0,0,0,0,0,0,0,0,0,0,0,0,0,0,0,0,0,0,0,0,0,0,
0,0,0,0,0,0,0,0,0,0,0,0,0,0,0,0,0,0,0,0,0,0,0,0,0,0,0,0,0,0,0,0,0,0,0,0,0,0,0,0,0,0,0,0,0,0,0,0,
0,0,0,0,0,0,0,0,0,0,0,0,0,0,0,0,0,0,0,0,0,0,0,0,0,0,0,0,0,0,0,0,0,0,0,0,0,0,0,0,0,0,0,0,0,0,0,0,
0,0,0,0,0,0,0,0,0,0,0,0,0,0,0,0,0,0,0,0,0,0,0,0,0,0,0,0,0,0,0,0,0,0,0,0,0,0,0,0,0,0,0,0,0,0,0,0,
0,0,0,0,0,0,0,0,0,0,0,0,0,0,0,0,0,0,0,0,0,0,0,0,0,0,0,0,0,0,0,0,0,0,0,0,0,0,0,0,0,0,0,0,0,0,0,0,
0,0,0,0,0,0,0,0,0,0,0,0,0,0,0,0,0,0,0,0,0,0,0,0,0,0,0,0,0,0,0,0,0,0,0,0,0,0,0,0,0,0,0,0,0,0,0,0,
0,0,0,0,0,0,0,0,0,0,0,0,0,0,0,0,0,0,0,0,0,0,0,0,0,0,0,0,0,0,0,0,0,0,0,0,0,0,0,0,0,0,0,0,0,0,0,0,
0,0,0,0,0,0,0,0,0,0,0,0,0,0,0,0,0,0,0,0,0,0,0,0,0,0,0,0,0,0,0,0,0,0,0,0,0,0,0,0,0,0,0,0,0,0,0,0,
0,0,0,0,0,0,0,0,0,0,0,0,0,0,0,0,0,0,0,0,0,0,0,0,0,0,0,0,0,0,0,0,0,0,0,0,0,0,0,0,0,0,0,0,0,0,0,0,
0,0,0,0,0,0,0,0,0,0,0,0,0,0,0,0,0,0,0,0,0,0,0,0,0,0,0,0,0,0,0,0,0,0,0,0,0,0,0,0,0,0,0,0,0,0,0,0,
0,0,0,0,0,0,0,0,0,0,0,0,0,0,0,0,0,0,0,0,0,0,0,0,0,0,0,0,0,0,0,0,0,0,0,0,0,0,0,0,0,0,0,0,0,0,0,0,
0,0,0,0,0,0,0,0,0,0,0,0,0,0,0,0,0,0,0,0,0,0,0,0,0,0,0,0,0,0,0,0,0,0,0,0,0,0,0,0,0,0,0,0,0,0,0,0,
0,0,0,0,0,0,0,0,0,0,0,0,0,0,0,0,0,0,0,0,0,0,0,0,0,0,0,0,0,0,0,0,0,0,0,0,0,0,0,0,0,0,0,0,0,0,0,0
</data>
 </layer>
 <objectgroup id="4" name="Objects">
  <object id="1" template="../../../../common/maps/obj/entry_up.tx" x="368" y="394" width="48" height="16">
   <properties>
    <property name="teleport" value=""/>
   </properties>
  </object>
  <object id="2" template="../../../../common/maps/obj/waypoint.tx" x="392" y="248"/>
  <object id="3" template="../../../../common/maps/obj/waypoint.tx" x="616" y="264"/>
  <object id="4" template="../../../../common/maps/obj/waypoint.tx" x="184" y="168"/>
  <object id="5" template="../../../../common/maps/obj/waypoint.tx" x="376" y="280"/>
  <object id="6" template="../../../../common/maps/obj/waypoint.tx" x="232" y="184"/>
  <object id="7" template="../../../../common/maps/obj/waypoint.tx" x="376" y="168"/>
  <object id="8" template="../../../../common/maps/obj/enemy.tx" x="192" y="144">
   <properties>
    <property name="enemy" value="Young Red Dragon"/>
    <property name="speedModifier" type="float" value="4"/>
    <property name="threatRange" type="int" value="40"/>
    <property name="waypoints" value="2,3,4,5,6,7"/>
   </properties>
  </object>
  <object id="9" template="../../../../common/maps/obj/enemy.tx" x="496" y="224">
   <properties>
    <property name="enemy" value="Dinosaur"/>
    <property name="speedModifier" type="float" value="4"/>
    <property name="threatRange" type="int" value="40"/>
    <property name="waypoints" value="3,2,7,6,5,4"/>
   </properties>
  </object>
  <object id="10" template="../../../../common/maps/obj/enemy.tx" x="320" y="176">
   <properties>
    <property name="enemy" value="Sliver_Red"/>
    <property name="speedModifier" type="float" value="4"/>
    <property name="threatRange" type="int" value="40"/>
    <property name="waypoints" value="6,7,2,3,4,5"/>
   </properties>
  </object>
  <object id="11" template="../../../../common/maps/obj/enemy.tx" x="240" y="272">
   <properties>
    <property name="enemy" value="Boggart"/>
    <property name="speedModifier" type="float" value="4"/>
    <property name="threatRange" type="int" value="40"/>
    <property name="waypoints" value="7,6,5,4,3,2"/>
   </properties>
  </object>
  <object id="12" template="../../../../common/maps/obj/enemy.tx" x="624" y="240">
   <properties>
    <property name="enemy" value="Dwarf"/>
    <property name="speedModifier" type="float" value="4"/>
    <property name="threatRange" type="int" value="40"/>
    <property name="waypoints" value="4,5,6,7,2,3"/>
   </properties>
  </object>
  <object id="13" template="../../../../common/maps/obj/treasure.tx" x="560" y="192">
   <properties>
    <property name="reward">[{&quot;type&quot;: &quot;randomCard&quot;, &quot;count&quot;: 2, &quot;addMaxCount&quot;: 1}, {&quot;type&quot;: &quot;randomCard&quot;, &quot;count&quot;: 1, &quot;probability&quot;: 0.6, &quot;rarity&quot;: [&quot;rare&quot;]}]</property>
   </properties>
  </object>
  <object id="14" template="../../../../common/maps/obj/gold.tx" x="448" y="176">
   <properties>
    <property name="reward">[{&quot;type&quot;: &quot;gold&quot;, &quot;count&quot;: 120, &quot;addMaxCount&quot;: 60}]</property>
   </properties>
  </object>
  <object id="15" template="../../obj/stone.tx" x="272" y="272"/>
  <object id="16" template="../../obj/wood.tx" x="512" y="272"/>
  <object id="17" template="../../../../common/maps/obj/manashards.tx" x="288" y="160"/>
  <object id="18" template="../../../../common/maps/obj/gold.tx" x="336" y="272"/>
  <object id="19" template="../../../../common/maps/obj/booster.tx" x="144" y="176"/>
 </objectgroup>
</map>
