<?xml version="1.0" encoding="UTF-8"?>
<map version="1.10" tiledversion="1.12.2" orientation="orthogonal" renderorder="right-down" width="36" height="18" tilewidth="16" tileheight="16" infinite="0" nextlayerid="7" nextobjectid="11">
 <tileset firstgid="1" source="../../../../common/maps/tileset/main.tsx"/>
 <tileset firstgid="10113" source="../../../../common/maps/tileset/buildings.tsx"/>
 <tileset firstgid="11905" source="../../../../common/maps/tileset/dungeon.tsx"/>
 <layer id="1" name="Background" width="36" height="18">
  <data encoding="csv">
6813,6813,6813,6813,6813,6813,6813,6813,6813,6813,6813,6813,6813,6813,6813,6813,6813,6813,6813,6813,6813,6813,6813,6813,6813,6813,6813,6813,6813,6813,6813,6813,6813,6813,6813,6813,
6813,6813,6813,6813,6813,6813,6813,6813,6813,6813,6813,6813,6813,6813,6813,6813,6813,6813,6813,6813,6813,6813,6813,6813,6813,6813,6813,6813,6813,6813,6813,6813,6813,6813,6813,6813,
6813,6813,6813,6813,6813,6813,6813,6813,6813,6813,6813,6813,6813,6813,6813,6813,6813,6813,6813,6813,6813,6813,6813,6813,6813,6813,6813,6813,6813,6813,6813,6813,6813,6813,6813,6813,
6813,6813,6813,6813,6813,6813,6813,6813,6813,6813,6813,6813,6813,6813,6813,6813,6813,6813,6813,6813,6813,6813,6813,6813,6813,6813,6813,6813,6813,6813,6813,6813,6813,6813,6813,6813,
6813,6813,6813,6813,6813,6813,6813,6813,6813,6813,6813,6813,6813,6813,6813,6813,6813,6813,6813,6813,6813,6813,6813,6813,6813,6813,6813,6813,6813,6813,6813,6813,6813,6813,6813,6813,
6813,6813,6813,6813,6813,6813,6813,6813,6813,6813,6813,6813,6813,6813,6813,6813,6813,6813,6813,6813,6813,6813,6813,6813,6813,6813,6813,6813,6813,6813,6813,6813,6813,6813,6813,6813,
6813,6813,6813,6813,6813,6813,6813,6813,6813,6813,6813,6813,6813,6813,6813,6813,6813,6813,6813,6813,6813,6813,6813,6813,6813,6813,6813,6813,6813,6813,6813,6813,6813,6813,6813,6813,
6813,6813,6813,6813,6813,6813,6813,6813,6813,6813,6813,6813,6813,6813,6813,6813,6813,6813,6813,6813,6813,6813,6813,6813,6813,6813,6813,6813,6813,6813,6813,6813,6813,6813,6813,6813,
6813,6813,6813,6813,6813,6813,6813,6813,6813,6813,6813,6813,6813,6813,6813,6813,6813,6813,6813,6813,6813,6813,6813,6813,6813,6813,6813,6813,6813,6813,6813,6813,6813,6813,6813,6813,
6813,6813,6813,6813,6813,6813,6813,6813,6813,6813,6813,6813,6813,6813,6813,6813,6813,6813,6813,6813,6813,6813,6813,6813,6813,6813,6813,6813,6813,6813,6813,6813,6813,6813,6813,6813,
6813,6813,6813,6813,6813,6813,6813,6813,6813,6813,6813,6813,6813,6813,6813,6813,6813,6813,6813,6813,6813,6813,6813,6813,6813,6813,6813,6813,6813,6813,6813,6813,6813,6813,6813,6813,
6813,6813,6813,6813,6813,6813,6813,6813,6813,6813,6813,6813,6813,6813,6813,6813,6813,6813,6813,6813,6813,6813,6813,6813,6813,6813,6813,6813,6813,6813,6813,6813,6813,6813,6813,6813,
6813,6813,6813,6813,6813,6813,6813,6813,6813,6813,6813,6813,6813,6813,6813,6813,6813,6813,6813,6813,6813,6813,6813,6813,6813,6813,6813,6813,6813,6813,6813,6813,6813,6813,6813,6813,
6813,6813,6813,6813,6813,6813,6813,6813,6813,6813,6813,6813,6813,6813,6813,6813,6813,6813,6813,6813,6813,6813,6813,6813,6813,6813,6813,6813,6813,6813,6813,6813,6813,6813,6813,6813,
6813,6813,6813,6813,6813,6813,6813,6813,6813,6813,6813,6813,6813,6813,6813,6813,6813,6813,6813,6813,6813,6813,6813,6813,6813,6813,6813,6813,6813,6813,6813,6813,6813,6813,6813,6813,
6813,6813,6813,6813,6813,6813,6813,6813,6813,6813,6813,6813,6813,6813,6813,6813,6813,6813,6813,6813,6813,6813,6813,6813,6813,6813,6813,6813,6813,6813,6813,6813,6813,6813,6813,6813,
6813,6813,6813,6813,6813,6813,6813,6813,6813,6813,6813,6813,6813,6813,6813,6813,6813,6813,6813,6813,6813,6813,6813,6813,6813,6813,6813,6813,6813,6813,6813,6813,6813,6813,6813,6813,
6813,6813,6813,6813,6813,6813,6813,6813,6813,6813,6813,6813,6813,6813,6813,6813,6813,6813,6813,6813,6813,6813,6813,6813,6813,6813,6813,6813,6813,6813,6813,6813,6813,6813,6813,6813
</data>
 </layer>
 <layer id="6" name="Floor" width="36" height="18">
  <data encoding="csv">
2462,2462,2462,2462,2462,2462,2462,2462,2462,2462,2462,2462,2462,2462,2462,2462,2462,2462,2462,2462,2462,2462,2462,2462,2462,2462,2462,2462,2462,2462,2462,2462,2462,2462,2462,2462,
2462,2462,2462,2462,2462,2462,2462,2462,2462,2462,2462,2462,2462,2462,2462,2462,2462,2462,2462,2462,2462,2462,2462,2462,2462,2462,2462,2462,2462,2462,2462,2462,2462,2462,2462,2462,
2462,2462,2462,2462,2462,2462,2462,2462,2462,2462,2462,2462,2462,2462,2462,2462,2462,2462,2462,2462,2462,2462,2462,2462,2462,2462,2462,2462,2462,2462,2462,2462,2462,2462,2462,2462,
2462,2462,2462,2462,2462,2462,2462,2462,2462,2462,2462,2462,2462,2462,2462,2462,2462,2462,2462,2462,2462,2462,2462,2462,2462,2462,2462,2462,2462,2462,2462,2462,2462,2462,2462,2462,
2462,2462,2462,2462,2462,2462,2462,2462,2462,2462,2462,2462,2462,2462,2462,2462,2462,2462,2462,2462,2462,2462,2462,2462,2462,2462,2462,2462,2462,2462,2462,2462,2462,2462,2462,2462,
2462,2462,2462,2462,2462,2462,2462,2462,2462,2462,2462,2462,2306,2308,2462,2462,2462,2462,2462,2462,2462,2462,2462,2462,2462,2462,2462,2462,2462,2462,2462,2462,2462,2462,2462,2462,
2462,2462,2462,2462,2462,2462,2462,2462,2462,2462,2306,2307,2621,2619,2620,2620,2308,2462,2462,2462,2462,2462,2462,2462,2462,2462,2462,2462,2462,2462,2462,2462,2462,2462,2462,2462,
2462,2462,2462,2462,2462,2462,2462,2462,2462,2462,2622,2623,2305,2303,2623,2304,2624,2462,2462,2462,2462,2462,2462,2462,2462,2462,2462,2306,2307,2308,2462,2462,2462,2462,2462,2462,
2462,2462,2462,2462,2462,2462,2462,2462,2462,2462,2462,2462,2622,2624,2462,2462,2462,2462,2462,2462,2462,2462,2462,2462,2462,2462,2306,2621,0,2619,2308,2462,2462,2462,2462,2462,
2462,2462,2462,2462,2462,2462,2462,2462,2462,2462,2462,2462,2462,2462,2462,2462,2462,2462,2462,2462,2462,2462,2462,2462,2462,2462,2622,2305,0,0,2461,2462,2462,2462,2462,2462,
2462,2462,2462,2462,2462,2462,2462,2462,2462,2462,2462,2462,2462,2462,2462,2462,2462,2462,2462,2462,2462,2462,2462,2462,2462,2462,2462,2622,2623,2623,2624,2462,2462,2462,2462,2462,
2462,2462,2462,2462,2462,2462,2462,2462,2462,2462,2462,2462,2462,2462,2462,2462,2462,2462,2462,2462,2462,2462,2462,2462,2462,2462,2462,2462,2462,2462,2462,2462,2462,2462,2462,2462,
2462,2462,2462,2462,2462,2462,2462,2462,2462,2462,2462,2462,2462,2462,2462,2462,2462,2462,2462,2462,2462,2462,2462,2462,2462,2462,2462,2462,2462,2462,2462,2462,2462,2462,2462,2462,
2462,2462,2462,2462,2462,2462,2462,2462,2462,2462,2462,2462,2462,2462,2462,2462,2462,2462,2462,2462,2462,2462,2462,2462,2462,2462,2462,2462,2462,2462,2462,2462,2462,2462,2462,2462,
2462,2462,2462,2462,2462,2462,2462,2462,2462,2462,2462,2462,2462,2462,2462,2462,2462,2462,2462,2462,2462,2462,2462,2462,2462,2462,2462,2462,2462,2462,2462,2462,2462,2462,2462,2462,
2462,2462,2462,2462,2462,2462,2462,2462,2462,2462,2462,2462,2462,2462,2462,2462,2462,2462,2462,2462,2462,2462,2462,2462,2462,2462,2462,2462,2462,2462,2462,2462,2462,2462,2462,2462,
2462,2462,2462,2462,2462,2462,2462,2462,2462,2462,2462,2462,2462,2462,2462,2462,2462,2462,2462,2462,2462,2462,2462,2462,2462,2462,2462,2462,2462,2462,2462,2462,2462,2462,2462,2462,
2462,2462,2462,2462,2462,2462,2462,2462,2462,2462,2462,2462,2462,2462,2462,2462,2462,2462,2462,2462,2462,2462,2462,2462,2462,2462,2462,2462,2462,2462,2462,2462,2462,2462,2462,2462
</data>
 </layer>
 <layer id="2" name="Ground" width="36" height="18">
  <data encoding="csv">
2374,2374,2374,2374,2374,2374,2374,2374,2374,2374,2374,2374,2374,2374,2374,2374,2374,2374,2374,2374,2374,2374,2374,2374,2374,2374,2374,2374,2374,2374,2374,2374,2374,2374,2374,2374,
2374,2374,2374,2374,2374,2374,2374,2374,2374,2374,2374,2374,2374,2374,2374,2374,2374,2374,2374,2374,2374,2374,2374,2374,2374,2374,2374,2374,2374,2374,2374,2374,2374,2374,2374,2374,
2374,2374,2374,2374,2374,2374,2374,2374,2374,2374,2374,2374,2374,2374,2374,2374,2374,2374,2374,2374,2374,2374,2374,2374,2374,2374,2374,2374,2374,2374,2374,2374,2374,2374,2374,2374,
2374,2374,2374,2374,2374,2374,2374,2374,2374,2374,2374,2374,2374,2374,2374,2374,2374,2374,2374,2374,2374,2374,2374,2374,2374,2374,2374,2374,2374,2374,2374,2374,2374,2374,2374,2374,
2374,2374,2374,2374,2374,2374,2374,2374,2374,2374,2374,2374,2374,2374,2374,2218,2219,2220,2374,2374,2374,2374,2374,2374,2374,2374,2374,2374,2374,2374,2374,2374,2374,2374,2374,2374,
2374,2374,2374,2374,2374,2374,2374,2374,2374,2374,2374,2218,2219,2219,2532,2533,0,2378,2374,2374,2374,2374,2374,2374,2374,2374,2374,2374,2374,2374,2374,2374,2374,2374,2374,2374,
2374,2374,2374,2374,2374,2374,2374,2374,2374,2218,2219,2533,0,0,0,0,2215,2536,2374,2374,2374,2374,2374,2374,2374,2374,2374,2374,2374,2374,2374,2374,2374,2374,2374,2374,
2374,2374,2374,2374,2374,2374,2374,2374,2218,2533,0,0,0,0,0,0,2373,2374,2374,2374,2374,2374,2374,2218,2219,2219,2219,2219,2532,2220,2374,2374,2374,2374,2374,2374,
2374,2374,2374,2374,2374,2374,2374,2218,2533,0,0,0,0,0,0,0,2531,2220,2374,2374,2374,2374,2218,2533,0,0,0,0,0,2531,2220,2374,2374,2374,2374,2374,
2374,2374,2374,2374,2374,2374,2374,2376,0,0,0,0,2215,2535,2535,2216,2217,2378,2374,2374,2374,2218,2533,0,0,0,0,0,0,0,2531,2220,2374,2374,2374,2374,
2374,2374,2374,2374,2374,2374,2374,2534,2217,0,0,0,2378,2374,2374,2374,2376,2373,2374,2374,2374,2375,0,0,0,0,0,0,0,0,0,2373,2374,2374,2374,2374,
2374,2374,2374,2374,2374,2374,2374,2374,2534,2217,0,0,2373,2374,2374,2374,2375,2531,2219,2532,2219,2533,0,0,0,0,0,0,0,0,2215,2536,2374,2374,2374,2374,
2374,2374,2374,2374,2374,2374,2374,2374,2374,2534,2216,2217,2531,2219,2219,2532,2533,0,0,0,0,2215,2535,2217,0,0,0,0,0,2215,2536,2374,2374,2374,2374,2374,
2374,2374,2374,2374,2374,2374,2374,2374,2374,2374,2374,2534,2535,2217,0,0,0,0,0,2215,2535,2536,2374,2534,2535,2217,0,0,2215,2536,2374,2374,2374,2374,2374,2374,
2374,2374,2374,2374,2374,2374,2374,2374,2374,2374,2374,2374,2374,2534,2216,2535,2216,2217,0,2373,2374,2374,2374,2374,2374,2534,2535,2535,2536,2374,2374,2374,2374,2374,2374,2374,
2374,2374,2374,2374,2374,2374,2374,2374,2374,2374,2374,2374,2374,2374,2374,2374,2374,2375,0,2378,2374,2374,2374,2374,2374,2374,2374,2374,2374,2374,2374,2374,2374,2374,2374,2374,
2374,2374,2374,2374,2374,2374,2374,2374,2374,2374,2374,2374,2374,2374,2374,2374,2374,2375,0,2373,2374,2374,2374,2374,2374,2374,2374,2374,2374,2374,2374,2374,2374,2374,2374,2374,
2374,2374,2374,2374,2374,2374,2374,2374,2374,2374,2374,2374,2374,2374,2374,2374,2374,2376,0,2378,2374,2374,2374,2374,2374,2374,2374,2374,2374,2374,2374,2374,2374,2374,2374,2374
</data>
 </layer>
 <layer id="3" name="Foreground" width="36" height="18">
  <properties>
   <property name="spriteLayer" type="bool" value="true"/>
  </properties>
  <data encoding="csv">
0,0,0,0,0,0,0,0,0,0,0,0,0,0,0,0,0,0,0,0,0,0,0,0,0,0,0,0,0,0,0,0,0,0,0,0,
0,0,0,0,0,0,0,0,0,0,0,0,0,0,0,0,0,0,0,0,0,0,0,0,0,0,0,0,0,0,0,0,0,0,0,0,
0,0,0,0,0,0,0,0,0,0,0,0,0,0,0,0,0,0,0,0,0,0,0,0,0,0,0,0,0,0,0,0,0,0,0,0,
0,0,0,0,0,0,0,0,0,0,0,0,0,0,0,0,0,0,0,0,0,0,0,0,0,0,0,0,0,0,0,0,0,0,0,0,
0,0,0,0,0,0,0,0,0,0,0,0,0,0,0,0,0,0,0,0,0,0,0,0,0,0,0,0,0,0,0,0,0,0,0,0,
0,0,0,0,0,0,0,0,0,0,0,0,0,0,0,0,0,0,0,0,0,0,0,0,0,0,0,0,0,0,0,0,0,0,0,0,
0,0,0,0,0,0,0,0,0,0,0,0,0,0,0,0,0,0,0,0,0,0,0,0,0,0,0,0,0,0,0,0,0,0,0,0,
0,0,0,0,0,0,0,0,0,0,0,0,0,0,0,0,0,0,0,0,0,0,0,0,0,0,0,0,0,0,0,0,0,0,0,0,
0,0,0,0,0,0,0,0,0,15668,0,0,0,0,0,0,0,0,0,0,0,0,0,0,0,0,0,0,0,0,0,0,0,0,0,0,
0,0,0,0,0,0,0,0,0,0,0,0,0,0,0,0,0,0,0,0,0,0,0,0,15668,0,0,0,15731,0,0,0,0,0,0,0,
0,0,0,0,0,0,0,0,0,15731,0,0,0,0,0,0,0,0,0,0,0,0,15669,0,0,0,15731,0,0,0,15732,0,0,0,0,0,
0,0,0,0,0,0,0,0,0,0,0,0,0,0,0,0,0,0,0,0,0,0,0,0,0,0,0,0,0,0,0,0,0,0,0,0,
0,0,0,0,0,0,0,0,0,0,0,0,0,0,0,0,0,0,0,0,15731,0,0,0,15731,0,0,0,0,0,0,0,0,0,0,0,
0,0,0,0,0,0,0,0,0,0,0,0,0,0,0,0,0,0,0,0,0,0,0,0,0,0,0,0,0,0,0,0,0,0,0,0,
0,0,0,0,0,0,0,0,0,0,0,0,0,0,0,0,0,0,0,0,0,0,0,0,0,0,0,0,0,0,0,0,0,0,0,0,
0,0,0,0,0,0,0,0,0,0,0,0,0,0,0,0,0,0,0,0,0,0,0,0,0,0,0,0,0,0,0,0,0,0,0,0,
0,0,0,0,0,0,0,0,0,0,0,0,0,0,0,0,0,0,0,0,0,0,0,0,0,0,0,0,0,0,0,0,0,0,0,0,
0,0,0,0,0,0,0,0,0,0,0,0,0,0,0,0,0,0,0,0,0,0,0,0,0,0,0,0,0,0,0,0,0,0,0,0
</data>
 </layer>
 <layer id="5" name="AboveSprites" width="36" height="18">
  <data encoding="csv">
0,0,0,0,0,0,0,0,0,0,0,0,0,0,0,0,0,0,0,0,0,0,0,0,0,0,0,0,0,0,0,0,0,0,0,0,
0,0,0,0,0,0,0,0,0,0,0,0,0,0,0,0,0,0,0,0,0,0,0,0,0,0,0,0,0,0,0,0,0,0,0,0,
0,0,0,0,0,0,0,0,0,0,0,0,0,0,0,0,0,0,0,0,0,0,0,0,0,0,0,0,0,0,0,0,0,0,0,0,
0,0,0,0,0,0,0,0,0,0,0,0,0,0,0,0,0,0,0,0,0,0,0,0,0,0,0,0,0,0,0,0,0,0,0,0,
0,0,0,0,0,0,0,0,0,0,0,0,0,0,0,0,0,0,0,0,0,0,0,0,0,0,0,0,0,0,0,0,0,0,0,0,
0,0,0,0,0,0,0,0,0,0,0,0,0,0,0,0,0,0,0,0,0,0,0,0,0,0,0,0,0,0,0,0,0,0,0,0,
0,0,0,0,0,0,0,0,0,0,0,0,0,0,0,0,0,0,0,0,0,0,0,0,0,0,0,0,0,0,0,0,0,0,0,0,
0,0,0,0,0,0,0,0,0,0,0,0,0,0,0,0,0,0,0,0,0,0,0,0,0,0,0,0,0,0,0,0,0,0,0,0,
0,0,0,0,0,0,0,0,0,0,0,0,0,0,0,0,0,0,0,0,0,0,0,0,0,0,0,0,0,0,0,0,0,0,0,0,
0,0,0,0,0,0,0,0,0,0,0,0,0,0,0,0,0,0,0,0,0,0,0,0,0,0,0,0,0,0,0,0,0,0,0,0,
0,0,0,0,0,0,0,0,0,0,0,0,0,0,0,0,0,0,0,0,0,0,0,0,0,0,0,0,0,0,0,0,0,0,0,0,
0,0,0,0,0,0,0,0,0,0,0,0,0,0,0,0,0,0,0,0,0,0,0,0,0,0,0,0,0,0,0,0,0,0,0,0,
0,0,0,0,0,0,0,0,0,0,0,0,0,0,0,0,0,0,0,0,0,0,0,0,0,0,0,0,0,0,0,0,0,0,0,0,
0,0,0,0,0,0,0,0,0,0,0,0,0,0,0,0,0,0,0,0,0,0,0,0,0,0,0,0,0,0,0,0,0,0,0,0,
0,0,0,0,0,0,0,0,0,0,0,0,0,0,0,0,0,0,0,0,0,0,0,0,0,0,0,0,0,0,0,0,0,0,0,0,
0,0,0,0,0,0,0,0,0,0,0,0,0,0,0,0,0,0,0,0,0,0,0,0,0,0,0,0,0,0,0,0,0,0,0,0,
0,0,0,0,0,0,0,0,0,0,0,0,0,0,0,0,0,0,0,0,0,0,0,0,0,0,0,0,0,0,0,0,0,0,0,0,
0,0,0,0,0,0,0,0,0,0,0,0,0,0,0,0,0,0,0,0,0,0,0,0,0,0,0,0,0,0,0,0,0,0,0,0
</data>
 </layer>
 <objectgroup id="4" name="Objects">
  <object id="1" template="../../../../common/maps/obj/entry_up.tx" x="272" y="298" width="48" height="16">
   <properties>
    <property name="teleport" value=""/>
   </properties>
  </object>
  <object id="2" template="../../../../common/maps/obj/waypoint.tx" x="216" y="120"/>
  <object id="3" template="../../../../common/maps/obj/waypoint.tx" x="456" y="184"/>
  <object id="4" template="../../../../common/maps/obj/waypoint.tx" x="248" y="136"/>
  <object id="5" template="../../../../common/maps/obj/enemy.tx" x="176" y="144">
   <properties>
    <property name="enemy" value="Bloodshot Eye"/>
    <property name="speedModifier" type="float" value="4"/>
    <property name="threatRange" type="int" value="40"/>
    <property name="waypoints" value="2,3,4"/>
   </properties>
  </object>
  <object id="6" template="../../../../common/maps/obj/enemy.tx" x="416" y="208">
   <properties>
    <property name="enemy" value="Demon"/>
    <property name="speedModifier" type="float" value="4"/>
    <property name="threatRange" type="int" value="40"/>
    <property name="waypoints" value="3,2,4"/>
   </properties>
  </object>
  <object id="7" template="../../../../common/maps/obj/enemy.tx" x="256" y="96">
   <properties>
    <property name="enemy" value="Hobbling Zombie"/>
    <property name="speedModifier" type="float" value="4"/>
    <property name="threatRange" type="int" value="40"/>
    <property name="waypoints" value="3,4,2"/>
   </properties>
  </object>
  <object id="8" template="../../../../common/maps/obj/treasure.tx" x="416" y="144">
   <properties>
    <property name="reward">[{&quot;type&quot;: &quot;randomCard&quot;, &quot;count&quot;: 1, &quot;addMaxCount&quot;: 1}]</property>
   </properties>
  </object>
  <object id="9" template="../../../../common/maps/obj/gold.tx" x="160" y="176"/>
  <object id="10" template="../../obj/stone.tx" x="272" y="208"/>
 </objectgroup>
</map>
