<?xml version="1.0" encoding="UTF-8"?>
<map version="1.10" tiledversion="1.12.2" orientation="orthogonal" renderorder="right-down" width="36" height="18" tilewidth="16" tileheight="16" infinite="0" nextlayerid="7" nextobjectid="11">
 <tileset firstgid="1" source="../../../../common/maps/tileset/main.tsx"/>
 <tileset firstgid="10113" source="../../../../common/maps/tileset/buildings.tsx"/>
 <tileset firstgid="11905" source="../../../../common/maps/tileset/dungeon.tsx"/>
 <layer id="1" name="Background" width="36" height="18">
  <data encoding="csv">
3188,3188,3188,3188,3188,3188,3188,3188,3188,3188,3188,3188,3188,3188,3188,3188,3188,3188,3188,3188,3188,3188,3188,3188,3188,3188,3188,3188,3188,3188,3188,3188,3188,3188,3188,3188,
3188,3188,3188,3188,3188,3188,3188,3188,3188,3188,3188,3188,3188,3188,3188,3188,3188,3188,3188,3188,3188,3188,3188,3188,3188,3188,3188,3188,3188,3188,3188,3188,3188,3188,3188,3188,
3188,3188,3188,3188,3188,3188,3188,3188,3188,3188,3188,3188,3188,3188,3188,3188,3188,3188,3188,3188,3188,3188,3188,3188,3188,3188,3188,3188,3188,3188,3188,3188,3188,3188,3188,3188,
3188,3188,3188,3188,3188,3188,3188,3188,3188,3188,3188,3188,3188,3188,3188,3188,3188,3188,3188,3188,3188,3188,3188,3188,3188,3188,3188,3188,3188,3188,3188,3188,3188,3188,3188,3188,
3188,3188,3188,3188,3188,3188,3188,3188,3188,3188,3188,3188,3188,3188,3188,3188,3188,3188,3188,3188,3188,3188,3188,3188,3188,3188,3188,3188,3188,3188,3188,3188,3188,3188,3188,3188,
3188,3188,3188,3188,3188,3188,3188,3188,3188,3188,3188,3188,3188,3188,3188,3188,3188,3188,3188,3188,3188,3188,3188,3188,3188,3188,3188,3188,3188,3188,3188,3188,3188,3188,3188,3188,
3188,3188,3188,3188,3188,3188,3188,3188,3188,3188,3188,3188,3188,3188,3188,3188,3188,3188,3188,3188,3188,3188,3188,3188,3188,3188,3188,3188,3188,3188,3188,3188,3188,3188,3188,3188,
3188,3188,3188,3188,3188,3188,3188,3188,3188,3188,3188,3188,3188,3188,3188,3188,3188,3188,3188,3188,3188,3188,3188,3188,3188,3188,3188,3188,3188,3188,3188,3188,3188,3188,3188,3188,
3188,3188,3188,3188,3188,3188,3188,3188,3188,3188,3188,3188,3188,3188,3188,3188,3188,3188,3188,3188,3188,3188,3188,3188,3188,3188,3188,3188,3188,3188,3188,3188,3188,3188,3188,3188,
3188,3188,3188,3188,3188,3188,3188,3188,3188,3188,3188,3188,3188,3188,3188,3188,3188,3188,3188,3188,3188,3188,3188,3188,3188,3188,3188,3188,3188,3188,3188,3188,3188,3188,3188,3188,
3188,3188,3188,3188,3188,3188,3188,3188,3188,3188,3188,3188,3188,3188,3188,3188,3188,3188,3188,3188,3188,3188,3188,3188,3188,3188,3188,3188,3188,3188,3188,3188,3188,3188,3188,3188,
3188,3188,3188,3188,3188,3188,3188,3188,3188,3188,3188,3188,3188,3188,3188,3188,3188,3188,3188,3188,3188,3188,3188,3188,3188,3188,3188,3188,3188,3188,3188,3188,3188,3188,3188,3188,
3188,3188,3188,3188,3188,3188,3188,3188,3188,3188,3188,3188,3188,3188,3188,3188,3188,3188,3188,3188,3188,3188,3188,3188,3188,3188,3188,3188,3188,3188,3188,3188,3188,3188,3188,3188,
3188,3188,3188,3188,3188,3188,3188,3188,3188,3188,3188,3188,3188,3188,3188,3188,3188,3188,3188,3188,3188,3188,3188,3188,3188,3188,3188,3188,3188,3188,3188,3188,3188,3188,3188,3188,
3188,3188,3188,3188,3188,3188,3188,3188,3188,3188,3188,3188,3188,3188,3188,3188,3188,3188,3188,3188,3188,3188,3188,3188,3188,3188,3188,3188,3188,3188,3188,3188,3188,3188,3188,3188,
3188,3188,3188,3188,3188,3188,3188,3188,3188,3188,3188,3188,3188,3188,3188,3188,3188,3188,3188,3188,3188,3188,3188,3188,3188,3188,3188,3188,3188,3188,3188,3188,3188,3188,3188,3188,
3188,3188,3188,3188,3188,3188,3188,3188,3188,3188,3188,3188,3188,3188,3188,3188,3188,3188,3188,3188,3188,3188,3188,3188,3188,3188,3188,3188,3188,3188,3188,3188,3188,3188,3188,3188,
3188,3188,3188,3188,3188,3188,3188,3188,3188,3188,3188,3188,3188,3188,3188,3188,3188,3188,3188,3188,3188,3188,3188,3188,3188,3188,3188,3188,3188,3188,3188,3188,3188,3188,3188,3188
</data>
 </layer>
 <layer id="6" name="Floor" width="36" height="18">
  <data encoding="csv">
2946,2946,2946,2946,2946,2946,2946,2946,2946,2946,2946,2946,2946,2946,2946,2946,2946,2946,2946,2946,2946,2946,2946,2946,2946,2946,2946,2946,2946,2946,2946,2946,2946,2946,2946,2946,
2946,2946,2946,2946,2946,2946,2946,2946,2946,2946,2946,2946,2946,2946,2946,2946,2946,2946,2946,2946,2946,2946,2946,2946,2946,2946,2946,2946,2946,2946,2946,2946,2946,2946,2946,2946,
2946,2946,2946,2946,2946,2946,2946,2946,2946,2946,2946,2946,2946,2946,2946,2946,2946,2946,2946,2946,2946,2946,2946,2946,2946,2946,2946,2946,2946,2946,2946,2946,2946,2946,2946,2946,
2946,2946,2946,2946,2946,2946,2946,2946,2946,2946,2946,2946,2946,2946,2946,2946,2946,2946,2946,2946,2946,2946,2946,2946,2946,2946,2946,2946,2946,2946,2946,2946,2946,2946,2946,2946,
2946,2946,2946,2946,2946,2946,2946,2946,2946,2946,2946,2946,2946,2946,2946,2946,2946,2946,2946,2946,2946,2946,2946,2946,2946,2946,2946,2946,2946,2946,2946,2946,2946,2946,2946,2946,
2946,2946,2946,2946,2946,2946,2946,2946,2946,2946,2946,2946,2946,2946,2946,2946,2946,2946,2946,2946,2946,2946,2946,2946,2946,2946,2946,2946,2946,2946,2946,2946,2946,2946,2946,2946,
2946,2946,2946,2946,2946,2946,2946,2946,2946,2946,2946,2946,2946,2946,2946,2946,2946,2946,2946,2946,2946,2946,2946,2946,2946,2946,2946,2946,2946,2946,2946,2946,2946,2946,2946,2946,
2946,2946,2946,2946,2946,2946,2946,2946,2946,2946,2946,2946,2946,2946,2946,2946,2946,2946,2946,2946,2946,2946,2946,2946,2946,2946,2946,2946,2946,2946,2946,2946,2946,2946,2946,2946,
2946,2946,2946,2946,2946,2946,2946,2946,2946,2946,2946,2946,2946,2946,2946,2946,2946,2946,2946,2946,2946,2946,2946,2946,2946,2946,2946,2946,2946,2946,2946,2946,2946,2946,2946,2946,
2946,2946,2946,2946,2946,2946,2946,2946,2946,2313,3104,2315,2946,2946,2946,2946,2946,2946,2946,2946,2946,2946,2946,2946,2946,2946,2946,2946,2946,2946,2946,2946,2946,2946,2946,2946,
2946,2946,2946,2946,2946,2946,2946,2946,2946,2471,0,3103,2315,2946,2946,2946,2946,2946,2946,2946,2946,2946,2946,2946,2946,2946,2946,2946,2946,2946,2946,2946,2946,2946,2946,2946,
2946,2946,2946,2946,2946,2946,2946,2946,2946,2471,0,0,3103,3104,2314,3104,2314,2315,2946,2946,2946,2946,2946,2946,2946,2946,2946,2313,2314,2314,2315,2946,2946,2946,2946,2946,
2946,2946,2946,2946,2946,2946,2946,2946,2946,2629,2788,2788,2788,2789,0,0,2787,2631,2946,2946,2946,2946,2946,2946,2946,2946,2946,2947,0,0,2945,2946,2946,2946,2946,2946,
2946,2946,2946,2946,2946,2946,2946,2946,2946,2946,2946,2946,2946,2629,2630,2630,2631,2946,2946,2946,2946,2946,2946,2946,2946,2946,2946,2947,0,0,2473,2946,2946,2946,2946,2946,
2946,2946,2946,2946,2946,2946,2946,2946,2946,2946,2946,2946,2946,2946,2946,2946,2946,2946,2946,2946,2946,2946,2946,2946,2946,2946,2946,2629,2630,2630,2631,2946,2946,2946,2946,2946,
2946,2946,2946,2946,2946,2946,2946,2946,2946,2946,2946,2946,2946,2946,2946,2946,2946,2946,2946,2946,2946,2946,2946,2946,2946,2946,2946,2946,2946,2946,2946,2946,2946,2946,2946,2946,
2946,2946,2946,2946,2946,2946,2946,2946,2946,2946,2946,2946,2946,2946,2946,2946,2946,2946,2946,2946,2946,2946,2946,2946,2946,2946,2946,2946,2946,2946,2946,2946,2946,2946,2946,2946,
2946,2946,2946,2946,2946,2946,2946,2946,2946,2946,2946,2946,2946,2946,2946,2946,2946,2946,2946,2946,2946,2946,2946,2946,2946,2946,2946,2946,2946,2946,2946,2946,2946,2946,2946,2946
</data>
 </layer>
 <layer id="2" name="Ground" width="36" height="18">
  <data encoding="csv">
2374,2374,2374,2374,2374,2374,2374,2374,2374,2374,2374,2374,2374,2374,2374,2374,2374,2374,2374,2374,2374,2374,2374,2374,2374,2374,2374,2374,2374,2374,2374,2374,2374,2374,2374,2374,
2374,2374,2374,2374,2374,2374,2374,2374,2374,2374,2374,2374,2374,2374,2374,2374,2374,2374,2374,2374,2374,2374,2374,2374,2374,2374,2374,2374,2374,2374,2374,2374,2374,2374,2374,2374,
2374,2374,2374,2374,2374,2374,2374,2374,2374,2374,2374,2374,2374,2374,2374,2374,2374,2374,2374,2374,2374,2374,2374,2374,2374,2374,2374,2374,2374,2374,2374,2374,2374,2374,2374,2374,
2374,2374,2374,2374,2374,2374,2374,2374,2374,2374,2374,2374,2374,2374,2374,2374,2374,2374,2374,2374,2374,2374,2374,2374,2374,2374,2374,2374,2374,2374,2374,2374,2374,2374,2374,2374,
2374,2374,2374,2374,2374,2374,2374,2374,2374,2374,2374,2374,2374,2374,2374,2374,2374,2374,2374,2374,2374,2374,2374,2374,2374,2374,2374,2374,2374,2374,2374,2374,2374,2374,2374,2374,
2374,2374,2374,2374,2374,2374,2374,2374,2374,2374,2374,2374,2374,2374,2374,2374,2374,2374,2374,2374,2374,2374,2374,2374,2374,2374,2374,2374,2374,2374,2374,2374,2374,2374,2374,2374,
2374,2374,2374,2374,2374,2374,2374,2374,2374,2374,2374,2374,2374,2374,2218,2532,2219,2219,2219,2219,2219,2219,2532,2220,2374,2374,2374,2374,2374,2374,2374,2374,2374,2374,2374,2374,
2374,2374,2374,2374,2374,2374,2374,2374,2374,2374,2218,2532,2220,2374,2534,2535,2217,0,0,0,0,0,0,2531,2532,2220,2374,2374,2374,2374,2374,2374,2374,2374,2374,2374,
2374,2374,2374,2374,2374,2374,2374,2374,2374,2374,2375,2215,2536,2374,2374,2374,2534,2217,0,0,0,0,0,2215,2535,2536,2218,2220,2374,2374,2374,2374,2374,2374,2374,2374,
2374,2374,2374,2374,2374,2374,2374,2374,2374,2218,2533,2373,2374,2374,2374,2374,2374,2375,0,0,0,0,2215,2536,2374,2374,2376,2531,2219,2219,2219,2220,2374,2374,2374,2374,
2374,2374,2374,2374,2374,2374,2374,2374,2218,2533,0,2531,2220,2374,2374,2374,2218,2533,0,0,0,0,2373,2374,2374,2374,2375,0,0,0,0,2531,2532,2532,2220,2374,
2374,2374,2374,2374,2374,2374,2374,2374,2534,2217,0,0,2531,2532,2219,2532,2533,0,0,0,0,0,2531,2220,2374,2374,2376,0,0,0,0,0,0,0,2378,2374,
2374,2374,2374,2374,2374,2374,2374,2374,2374,2534,2217,0,0,0,0,0,0,0,0,0,0,0,0,2531,2532,2219,2533,0,0,0,0,0,0,0,2373,2374,
2374,2374,2374,2374,2374,2374,2374,2374,2374,2374,2534,2216,2217,0,0,0,0,0,0,0,0,0,0,0,0,0,0,0,0,0,0,0,0,0,2373,2374,
2374,2374,2374,2374,2374,2374,2374,2374,2374,2374,2374,2374,2534,2216,2535,2535,2535,2217,0,0,0,2215,2216,2216,2535,2535,2216,2216,2217,0,0,2215,2535,2535,2536,2374,
2374,2374,2374,2374,2374,2374,2374,2374,2374,2374,2374,2374,2374,2374,2374,2374,2374,2376,0,2215,2535,2536,2374,2374,2374,2374,2374,2374,2534,2535,2535,2536,2374,2374,2374,2374,
2374,2374,2374,2374,2374,2374,2374,2374,2374,2374,2374,2374,2374,2374,2374,2374,2374,2376,0,2373,2374,2374,2374,2374,2374,2374,2374,2374,2374,2374,2374,2374,2374,2374,2374,2374,
2374,2374,2374,2374,2374,2374,2374,2374,2374,2374,2374,2374,2374,2374,2374,2374,2374,2376,0,2373,2374,2374,2374,2374,2374,2374,2374,2374,2374,2374,2374,2374,2374,2374,2374,2374
</data>
 </layer>
 <layer id="3" name="Foreground" width="36" height="18">
  <properties>
   <property name="spriteLayer" type="bool" value="true"/>
  </properties>
  <data encoding="csv">
0,0,0,0,0,0,0,0,0,0,0,0,0,0,0,0,0,0,0,0,0,0,0,0,0,0,0,0,0,0,0,0,0,0,0,0,
0,0,0,0,0,0,0,0,0,0,0,0,0,0,0,0,0,0,0,0,0,0,0,0,0,0,0,0,0,0,0,0,0,0,0,0,
0,0,0,0,0,0,0,0,0,0,0,0,0,0,0,0,0,0,0,0,0,0,0,0,0,0,0,0,0,0,0,0,0,0,0,0,
0,0,0,0,0,0,0,0,0,0,0,0,0,0,0,0,0,0,0,0,0,0,0,0,0,0,0,0,0,0,0,0,0,0,0,0,
0,0,0,0,0,0,0,0,0,0,0,0,0,0,0,0,0,0,0,0,0,0,0,0,0,0,0,0,0,0,0,0,0,0,0,0,
0,0,0,0,0,0,0,0,0,0,0,0,0,0,0,0,0,0,0,0,0,0,0,0,0,0,0,0,0,0,0,0,0,0,0,0,
0,0,0,0,0,0,0,0,0,0,0,0,0,0,0,0,0,0,0,0,0,0,0,0,0,0,0,0,0,0,0,0,0,0,0,0,
0,0,0,0,0,0,0,0,0,0,0,0,0,0,0,0,0,15668,0,0,0,0,0,0,0,0,0,0,0,0,0,0,0,0,0,0,
0,0,0,0,0,0,0,0,0,0,0,0,0,0,0,0,0,0,0,0,0,0,15732,0,0,0,0,0,0,0,0,0,0,0,0,0,
0,0,0,0,0,0,0,0,0,0,0,0,0,0,0,0,0,0,0,0,15731,0,0,0,0,0,0,0,0,0,0,0,0,0,0,0,
0,0,0,0,0,0,0,0,0,0,0,0,0,0,0,0,0,0,15731,0,0,0,0,0,0,0,0,0,15731,0,15731,0,0,0,0,0,
0,0,0,0,0,0,0,0,0,0,0,0,0,0,0,0,0,0,0,0,0,0,0,0,0,0,0,0,0,0,0,0,0,0,0,0,
0,0,0,0,0,0,0,0,0,0,0,0,0,0,0,0,0,0,0,0,15669,0,0,0,0,0,0,0,0,0,0,0,0,0,0,0,
0,0,0,0,0,0,0,0,0,0,0,0,0,0,0,0,0,0,0,0,0,0,15732,0,0,0,0,0,0,0,0,0,15731,0,0,0,
0,0,0,0,0,0,0,0,0,0,0,0,0,0,0,0,0,0,0,0,0,0,0,0,0,0,0,0,0,0,0,0,0,0,0,0,
0,0,0,0,0,0,0,0,0,0,0,0,0,0,0,0,0,0,0,0,0,0,0,0,0,0,0,0,0,0,0,0,0,0,0,0,
0,0,0,0,0,0,0,0,0,0,0,0,0,0,0,0,0,0,0,0,0,0,0,0,0,0,0,0,0,0,0,0,0,0,0,0,
0,0,0,0,0,0,0,0,0,0,0,0,0,0,0,0,0,0,0,0,0,0,0,0,0,0,0,0,0,0,0,0,0,0,0,0
</data>
 </layer>
 <layer id="5" name="AboveSprites" width="36" height="18">
  <data encoding="csv">
0,0,0,0,0,0,0,0,0,0,0,0,0,0,0,0,0,0,0,0,0,0,0,0,0,0,0,0,0,0,0,0,0,0,0,0,
0,0,0,0,0,0,0,0,0,0,0,0,0,0,0,0,0,0,0,0,0,0,0,0,0,0,0,0,0,0,0,0,0,0,0,0,
0,0,0,0,0,0,0,0,0,0,0,0,0,0,0,0,0,0,0,0,0,0,0,0,0,0,0,0,0,0,0,0,0,0,0,0,
0,0,0,0,0,0,0,0,0,0,0,0,0,0,0,0,0,0,0,0,0,0,0,0,0,0,0,0,0,0,0,0,0,0,0,0,
0,0,0,0,0,0,0,0,0,0,0,0,0,0,0,0,0,0,0,0,0,0,0,0,0,0,0,0,0,0,0,0,0,0,0,0,
0,0,0,0,0,0,0,0,0,0,0,0,0,0,0,0,0,0,0,0,0,0,0,0,0,0,0,0,0,0,0,0,0,0,0,0,
0,0,0,0,0,0,0,0,0,0,0,0,0,0,0,0,0,0,0,0,0,0,0,0,0,0,0,0,0,0,0,0,0,0,0,0,
0,0,0,0,0,0,0,0,0,0,0,0,0,0,0,0,0,0,0,0,0,0,0,0,0,0,0,0,0,0,0,0,0,0,0,0,
0,0,0,0,0,0,0,0,0,0,0,0,0,0,0,0,0,0,0,0,0,0,0,0,0,0,0,0,0,0,0,0,0,0,0,0,
0,0,0,0,0,0,0,0,0,0,0,0,0,0,0,0,0,0,0,0,0,0,0,0,0,0,0,0,0,0,0,0,0,0,0,0,
0,0,0,0,0,0,0,0,0,0,0,0,0,0,0,0,0,0,0,0,0,0,0,0,0,0,0,0,0,0,0,0,0,0,0,0,
0,0,0,0,0,0,0,0,0,0,0,0,0,0,0,0,0,0,0,0,0,0,0,0,0,0,0,0,0,0,0,0,0,0,0,0,
0,0,0,0,0,0,0,0,0,0,0,0,0,0,0,0,0,0,0,0,0,0,0,0,0,0,0,0,0,0,0,0,0,0,0,0,
0,0,0,0,0,0,0,0,0,0,0,0,0,0,0,0,0,0,0,0,0,0,0,0,0,0,0,0,0,0,0,0,0,0,0,0,
0,0,0,0,0,0,0,0,0,0,0,0,0,0,0,0,0,0,0,0,0,0,0,0,0,0,0,0,0,0,0,0,0,0,0,0,
0,0,0,0,0,0,0,0,0,0,0,0,0,0,0,0,0,0,0,0,0,0,0,0,0,0,0,0,0,0,0,0,0,0,0,0,
0,0,0,0,0,0,0,0,0,0,0,0,0,0,0,0,0,0,0,0,0,0,0,0,0,0,0,0,0,0,0,0,0,0,0,0,
0,0,0,0,0,0,0,0,0,0,0,0,0,0,0,0,0,0,0,0,0,0,0,0,0,0,0,0,0,0,0,0,0,0,0,0
</data>
 </layer>
 <objectgroup id="4" name="Objects">
  <object id="1" template="../../../../common/maps/obj/entry_up.tx" x="272" y="298" width="48" height="16">
   <properties>
    <property name="teleport" value=""/>
   </properties>
  </object>
  <object id="2" template="../../../../common/maps/obj/waypoint.tx" x="296" y="200"/>
  <object id="3" template="../../../../common/maps/obj/waypoint.tx" x="456" y="200"/>
  <object id="4" template="../../../../common/maps/obj/waypoint.tx" x="264" y="216"/>
  <object id="5" template="../../../../common/maps/obj/enemy.tx" x="528" y="192">
   <properties>
    <property name="enemy" value="Shieldmaiden Paragon"/>
    <property name="speedModifier" type="float" value="4"/>
    <property name="threatRange" type="int" value="40"/>
    <property name="waypoints" value="2,3,4"/>
   </properties>
  </object>
  <object id="6" template="../../../../common/maps/obj/enemy.tx" x="176" y="192">
   <properties>
    <property name="enemy" value="White Dwarf"/>
    <property name="speedModifier" type="float" value="4"/>
    <property name="threatRange" type="int" value="40"/>
    <property name="waypoints" value="3,2,4"/>
   </properties>
  </object>
  <object id="7" template="../../../../common/maps/obj/enemy.tx" x="400" y="224">
   <properties>
    <property name="enemy" value="Gavony Farmhand"/>
    <property name="speedModifier" type="float" value="4"/>
    <property name="threatRange" type="int" value="40"/>
    <property name="waypoints" value="3,4,2"/>
   </properties>
  </object>
  <object id="8" template="../../../../common/maps/obj/treasure.tx" x="480" y="208">
   <properties>
    <property name="reward">[{&quot;type&quot;: &quot;randomCard&quot;, &quot;count&quot;: 1, &quot;addMaxCount&quot;: 1}]</property>
   </properties>
  </object>
  <object id="9" template="../../../../common/maps/obj/gold.tx" x="304" y="128"/>
  <object id="10" template="../../obj/stone.tx" x="224" y="224"/>
 </objectgroup>
</map>
