<?xml version="1.0" encoding="UTF-8"?>
<map version="1.10" tiledversion="1.12.2" orientation="orthogonal" renderorder="right-down" width="40" height="20" tilewidth="16" tileheight="16" infinite="0" nextlayerid="7" nextobjectid="16">
 <tileset firstgid="1" source="../../../../common/maps/tileset/main.tsx"/>
 <tileset firstgid="10113" source="../../../../common/maps/tileset/buildings.tsx"/>
 <tileset firstgid="11905" source="../../../../common/maps/tileset/dungeon.tsx"/>
 <layer id="1" name="Background" width="40" height="20">
  <data encoding="csv">
3378,3378,3378,3378,3378,3378,3378,3378,3378,3378,3378,3378,3378,3378,3378,3378,3378,3378,3378,3378,3378,3378,3378,3378,3378,3378,3378,3378,3378,3378,3378,3378,3378,3378,3378,3378,3378,3378,3378,3378,
3378,3378,3378,3378,3378,3378,3378,3378,3378,3378,3378,3378,3378,3378,3378,3378,3378,3378,3378,3378,3378,3378,3378,3378,3378,3378,3378,3378,3378,3378,3378,3378,3378,3378,3378,3378,3378,3378,3378,3378,
3378,3378,3378,3378,3378,3378,3378,3378,3378,3378,3378,3378,3378,3378,3378,3378,3378,3378,3378,3378,3378,3378,3378,3378,3378,3378,3378,3378,3378,3378,3378,3378,3378,3378,3378,3378,3378,3378,3378,3378,
3378,3378,3378,3378,3378,3378,3378,3378,3378,3378,3378,3378,3378,3378,3378,3378,3378,3378,3378,3378,3378,3378,3378,3378,3378,3378,3378,3378,3378,3378,3378,3378,3378,3378,3378,3378,3378,3378,3378,3378,
3378,3378,3378,3378,3378,3378,3378,3378,3378,3378,3378,3378,3378,3378,3378,3378,3378,3378,3378,3378,3378,3378,3378,3378,3378,3378,3378,3378,3378,3378,3378,3378,3378,3378,3378,3378,3378,3378,3378,3378,
3378,3378,3378,3378,3378,3378,3378,3378,3378,3378,3378,3378,3378,3378,3378,3378,3378,3378,3378,3378,3378,3378,3378,3378,3378,3378,3378,3378,3378,3378,3378,3378,3378,3378,3378,3378,3378,3378,3378,3378,
3378,3378,3378,3378,3378,3378,3378,3378,3378,3378,3378,3378,3378,3378,3378,3378,3378,3378,3378,3378,3378,3378,3378,3378,3378,3378,3378,3378,3378,3378,3378,3378,3378,3378,3378,3378,3378,3378,3378,3378,
3378,3378,3378,3378,3378,3378,3378,3378,3378,3378,3378,3378,3378,3378,3378,3378,3378,3378,3378,3378,3378,3378,3378,3378,3378,3378,3378,3378,3378,3378,3378,3378,3378,3378,3378,3378,3378,3378,3378,3378,
3378,3378,3378,3378,3378,3378,3378,3378,3378,3378,3378,3378,3378,3378,3378,3378,3378,3378,3378,3378,3378,3378,3378,3378,3378,3378,3378,3378,3378,3378,3378,3378,3378,3378,3378,3378,3378,3378,3378,3378,
3378,3378,3378,3378,3378,3378,3378,3378,3378,3378,3378,3378,3378,3378,3378,3378,3378,3378,3378,3378,3378,3378,3378,3378,3378,3378,3378,3378,3378,3378,3378,3378,3378,3378,3378,3378,3378,3378,3378,3378,
3378,3378,3378,3378,3378,3378,3378,3378,3378,3378,3378,3378,3378,3378,3378,3378,3378,3378,3378,3378,3378,3378,3378,3378,3378,3378,3378,3378,3378,3378,3378,3378,3378,3378,3378,3378,3378,3378,3378,3378,
3378,3378,3378,3378,3378,3378,3378,3378,3378,3378,3378,3378,3378,3378,3378,3378,3378,3378,3378,3378,3378,3378,3378,3378,3378,3378,3378,3378,3378,3378,3378,3378,3378,3378,3378,3378,3378,3378,3378,3378,
3378,3378,3378,3378,3378,3378,3378,3378,3378,3378,3378,3378,3378,3378,3378,3378,3378,3378,3378,3378,3378,3378,3378,3378,3378,3378,3378,3378,3378,3378,3378,3378,3378,3378,3378,3378,3378,3378,3378,3378,
3378,3378,3378,3378,3378,3378,3378,3378,3378,3378,3378,3378,3378,3378,3378,3378,3378,3378,3378,3378,3378,3378,3378,3378,3378,3378,3378,3378,3378,3378,3378,3378,3378,3378,3378,3378,3378,3378,3378,3378,
3378,3378,3378,3378,3378,3378,3378,3378,3378,3378,3378,3378,3378,3378,3378,3378,3378,3378,3378,3378,3378,3378,3378,3378,3378,3378,3378,3378,3378,3378,3378,3378,3378,3378,3378,3378,3378,3378,3378,3378,
3378,3378,3378,3378,3378,3378,3378,3378,3378,3378,3378,3378,3378,3378,3378,3378,3378,3378,3378,3378,3378,3378,3378,3378,3378,3378,3378,3378,3378,3378,3378,3378,3378,3378,3378,3378,3378,3378,3378,3378,
3378,3378,3378,3378,3378,3378,3378,3378,3378,3378,3378,3378,3378,3378,3378,3378,3378,3378,3378,3378,3378,3378,3378,3378,3378,3378,3378,3378,3378,3378,3378,3378,3378,3378,3378,3378,3378,3378,3378,3378,
3378,3378,3378,3378,3378,3378,3378,3378,3378,3378,3378,3378,3378,3378,3378,3378,3378,3378,3378,3378,3378,3378,3378,3378,3378,3378,3378,3378,3378,3378,3378,3378,3378,3378,3378,3378,3378,3378,3378,3378,
3378,3378,3378,3378,3378,3378,3378,3378,3378,3378,3378,3378,3378,3378,3378,3378,3378,3378,3378,3378,3378,3378,3378,3378,3378,3378,3378,3378,3378,3378,3378,3378,3378,3378,3378,3378,3378,3378,3378,3378,
3378,3378,3378,3378,3378,3378,3378,3378,3378,3378,3378,3378,3378,3378,3378,3378,3378,3378,3378,3378,3378,3378,3378,3378,3378,3378,3378,3378,3378,3378,3378,3378,3378,3378,3378,3378,3378,3378,3378,3378
</data>
 </layer>
 <layer id="6" name="Floor" width="40" height="20">
  <data encoding="csv">
2398,2398,2398,2398,2398,2398,2398,2398,2398,2398,2398,2398,2398,2398,2398,2398,2398,2398,2398,2398,2398,2398,2398,2398,2398,2398,2398,2398,2398,2398,2398,2398,2398,2398,2398,2398,2398,2398,2398,2398,
2398,2398,2398,2398,2398,2398,2398,2398,2398,2398,2398,2398,2398,2398,2398,2398,2398,2398,2398,2398,2398,2398,2398,2398,2398,2398,2398,2398,2398,2398,2398,2398,2398,2398,2398,2398,2398,2398,2398,2398,
2398,2398,2398,2398,2398,2398,2398,2398,2398,2398,2398,2398,2398,2398,2398,2398,2398,2398,2398,2398,2398,2398,2398,2398,2398,2398,2398,2398,2398,2398,2398,2398,2398,2398,2398,2398,2398,2398,2398,2398,
2398,2398,2398,2398,2398,2398,2398,2398,2398,2398,2398,2398,2398,2398,2398,2398,2398,2398,2398,2398,2398,2398,2398,2398,2398,2398,2398,2398,2398,2398,2398,2398,2398,2398,2398,2398,2398,2398,2398,2398,
2398,2398,2398,2398,2398,2398,2398,2398,2398,2398,2398,2398,2398,2398,2398,2398,2398,2398,2398,2398,2398,2398,2398,2398,2398,2398,2398,2398,2398,2398,2398,2398,2398,2398,2398,2398,2398,2398,2398,2398,
2398,2398,2398,2398,2398,2398,2398,2398,2398,2398,2398,2398,2398,2398,2398,2398,2398,2398,2398,2398,2398,2398,2398,2398,2398,2398,2398,2398,2398,2398,2398,2398,2398,2398,2398,2398,2398,2398,2398,2398,
2398,2398,2398,2398,2242,2243,2243,2244,2398,2398,2398,2398,2398,2398,2398,2398,2398,2398,2398,2398,2398,2398,2398,2398,2398,2398,2398,2398,2398,2398,2398,2398,2398,2398,2398,2398,2398,2398,2398,2398,
2398,2398,2398,2398,2400,0,0,2402,2398,2398,2398,2398,2398,2398,2398,2398,2398,2398,2398,2398,2398,2398,2398,2398,2398,2398,2398,2398,2398,2398,2398,2398,2398,2398,2398,2398,2398,2398,2398,2398,
2398,2398,2398,2398,2558,2241,0,2555,2244,2398,2398,2398,2398,2398,2398,2398,2398,2398,2398,2398,2398,2398,2398,2398,2398,2398,2398,2398,2398,2398,2398,2398,2398,2398,2398,2398,2398,2398,2398,2398,
2398,2398,2398,2398,2398,2558,2559,2240,2560,2398,2398,2398,2398,2398,2398,2398,2398,2398,2398,2398,2398,2398,2398,2398,2398,2398,2398,2398,2398,2398,2398,2398,2398,2398,2398,2398,2398,2398,2398,2398,
2398,2398,2398,2398,2398,2398,2398,2398,2398,2398,2398,2398,2398,2398,2398,2398,2398,2398,2398,2398,2398,2398,2398,2398,2398,2398,2398,2398,2398,2398,2398,2398,2398,2398,2398,2398,2398,2398,2398,2398,
2398,2398,2398,2398,2398,2398,2398,2398,2242,2556,2243,2244,2398,2398,2398,2398,2398,2398,2398,2398,2398,2398,2398,2398,2398,2398,2398,2398,2398,2398,2398,2242,2244,2398,2398,2398,2398,2398,2398,2398,
2398,2398,2398,2398,2398,2398,2398,2242,2557,0,0,2555,2244,2398,2398,2398,2398,2398,2398,2398,2398,2398,2398,2398,2398,2398,2398,2398,2398,2398,2242,2557,2555,2244,2398,2398,2398,2398,2398,2398,
2398,2398,2398,2398,2398,2398,2398,2558,2240,2241,0,2239,2560,2398,2398,2398,2398,2398,2398,2398,2398,2398,2398,2398,2398,2398,2398,2398,2398,2398,2558,2241,2239,2560,2398,2398,2398,2398,2398,2398,
2398,2398,2398,2398,2398,2398,2398,2398,2398,2558,2240,2560,2398,2398,2398,2398,2398,2398,2398,2398,2398,2398,2398,2398,2398,2398,2398,2398,2398,2398,2398,2558,2560,2398,2398,2398,2398,2398,2398,2398,
2398,2398,2398,2398,2398,2398,2398,2398,2398,2398,2398,2398,2398,2398,2398,2398,2398,2398,2398,2398,2398,2398,2398,2398,2398,2398,2398,2398,2398,2398,2398,2398,2398,2398,2398,2398,2398,2398,2398,2398,
2398,2398,2398,2398,2398,2398,2398,2398,2398,2398,2398,2398,2398,2398,2398,2398,2398,2398,2398,2398,2398,2398,2398,2398,2398,2398,2398,2398,2398,2398,2398,2398,2398,2398,2398,2398,2398,2398,2398,2398,
2398,2398,2398,2398,2398,2398,2398,2398,2398,2398,2398,2398,2398,2398,2398,2398,2398,2398,2398,2398,2398,2398,2398,2398,2398,2398,2398,2398,2398,2398,2398,2398,2398,2398,2398,2398,2398,2398,2398,2398,
2398,2398,2398,2398,2398,2398,2398,2398,2398,2398,2398,2398,2398,2398,2398,2398,2398,2398,2398,2398,2398,2398,2398,2398,2398,2398,2398,2398,2398,2398,2398,2398,2398,2398,2398,2398,2398,2398,2398,2398,
2398,2398,2398,2398,2398,2398,2398,2398,2398,2398,2398,2398,2398,2398,2398,2398,2398,2398,2398,2398,2398,2398,2398,2398,2398,2398,2398,2398,2398,2398,2398,2398,2398,2398,2398,2398,2398,2398,2398,2398
</data>
 </layer>
 <layer id="2" name="Ground" width="40" height="20">
  <data encoding="csv">
2374,2374,2374,2374,2374,2374,2374,2374,2374,2374,2374,2374,2374,2374,2374,2374,2374,2374,2374,2374,2374,2374,2374,2374,2374,2374,2374,2374,2374,2374,2374,2374,2374,2374,2374,2374,2374,2374,2374,2374,
2374,2374,2374,2374,2374,2374,2374,2374,2374,2374,2374,2374,2374,2374,2374,2374,2374,2374,2374,2374,2374,2374,2374,2374,2374,2374,2374,2374,2374,2374,2374,2374,2374,2374,2374,2374,2374,2374,2374,2374,
2374,2374,2374,2374,2374,2374,2374,2374,2374,2374,2374,2374,2374,2374,2374,2374,2374,2374,2374,2374,2374,2374,2374,2374,2374,2374,2374,2374,2374,2374,2374,2374,2374,2374,2374,2374,2374,2374,2374,2374,
2374,2374,2374,2374,2374,2374,2374,2374,2374,2374,2374,2374,2374,2374,2374,2374,2374,2374,2374,2374,2374,2374,2374,2374,2374,2374,2374,2374,2374,2374,2374,2374,2374,2374,2374,2374,2374,2374,2374,2374,
2374,2374,2374,2374,2374,2374,2374,2374,2374,2374,2374,2374,2374,2374,2374,2374,2374,2374,2374,2374,2374,2374,2374,2374,2374,2374,2374,2374,2374,2374,2374,2374,2374,2374,2374,2374,2374,2374,2374,2374,
2374,2374,2374,2374,2374,2374,2374,2374,2374,2374,2374,2374,2374,2374,2374,2374,2374,2374,2374,2374,2374,2374,2374,2374,2374,2374,2374,2374,2374,2374,2374,2374,2374,2374,2374,2374,2374,2374,2374,2374,
2374,2374,2218,2532,2532,2532,2219,2220,2374,2374,2374,2374,2374,2374,2374,2374,2374,2374,2374,2374,2374,2374,2374,2374,2374,2374,2374,2374,2374,2374,2374,2374,2374,2374,2374,2374,2374,2374,2374,2374,
2374,2218,2533,0,0,0,0,2531,2219,2220,2374,2218,2220,2374,2374,2374,2218,2219,2219,2532,2532,2532,2219,2220,2374,2374,2374,2374,2374,2374,2374,2218,2219,2220,2374,2374,2374,2374,2374,2374,
2374,2375,0,0,0,0,0,0,0,2531,2532,2533,2378,2374,2374,2374,2376,0,0,0,0,0,0,2531,2532,2220,2374,2374,2374,2218,2532,2533,0,2531,2532,2532,2220,2374,2374,2374,
2374,2376,0,0,0,0,0,0,0,0,0,0,2378,2374,2374,2374,2534,2217,0,0,0,0,0,0,0,2531,2220,2374,2218,2533,0,0,0,0,0,0,2531,2220,2374,2374,
2374,2376,0,0,0,0,0,0,0,0,0,0,2373,2374,2374,2374,2374,2534,2217,0,0,0,0,0,0,0,2531,2219,2533,0,0,0,0,0,0,0,0,2373,2374,2374,
2374,2375,0,0,0,0,0,0,0,0,0,0,2531,2220,2374,2374,2374,2374,2375,0,0,0,0,0,0,0,0,0,0,0,0,0,0,0,0,0,2215,2536,2374,2374,
2374,2375,0,0,0,0,0,0,0,0,0,0,0,2373,2374,2374,2374,2374,2375,0,0,0,0,0,0,0,2215,2216,2217,0,0,0,0,0,0,0,2378,2374,2374,2374,
2374,2534,2535,2217,0,2215,2216,2216,2535,2217,0,0,0,2531,2220,2374,2374,2218,2533,0,0,0,0,0,0,2215,2536,2374,2534,2535,2217,0,0,0,2215,2216,2536,2374,2374,2374,
2374,2374,2374,2534,2216,2536,2374,2374,2374,2534,2216,2217,0,0,2531,2219,2219,2533,0,0,0,0,0,2215,2216,2536,2374,2374,2374,2374,2534,2216,2216,2216,2536,2374,2374,2374,2374,2374,
2374,2374,2374,2374,2374,2374,2374,2374,2374,2374,2374,2534,2535,2535,2216,2216,2535,2535,2216,2217,0,2215,2216,2536,2374,2374,2374,2374,2374,2374,2374,2374,2374,2374,2374,2374,2374,2374,2374,2374,
2374,2374,2374,2374,2374,2374,2374,2374,2374,2374,2374,2374,2374,2374,2374,2374,2374,2374,2374,2376,0,2373,2374,2374,2374,2374,2374,2374,2374,2374,2374,2374,2374,2374,2374,2374,2374,2374,2374,2374,
2374,2374,2374,2374,2374,2374,2374,2374,2374,2374,2374,2374,2374,2374,2374,2374,2374,2374,2374,2375,0,2378,2374,2374,2374,2374,2374,2374,2374,2374,2374,2374,2374,2374,2374,2374,2374,2374,2374,2374,
2374,2374,2374,2374,2374,2374,2374,2374,2374,2374,2374,2374,2374,2374,2374,2374,2374,2374,2374,2376,0,2373,2374,2374,2374,2374,2374,2374,2374,2374,2374,2374,2374,2374,2374,2374,2374,2374,2374,2374,
2374,2374,2374,2374,2374,2374,2374,2374,2374,2374,2374,2374,2374,2374,2374,2374,2374,2374,2374,2376,0,2378,2374,2374,2374,2374,2374,2374,2374,2374,2374,2374,2374,2374,2374,2374,2374,2374,2374,2374
</data>
 </layer>
 <layer id="3" name="Foreground" width="40" height="20">
  <properties>
   <property name="spriteLayer" type="bool" value="true"/>
  </properties>
  <data encoding="csv">
0,0,0,0,0,0,0,0,0,0,0,0,0,0,0,0,0,0,0,0,0,0,0,0,0,0,0,0,0,0,0,0,0,0,0,0,0,0,0,0,
0,0,0,0,0,0,0,0,0,0,0,0,0,0,0,0,0,0,0,0,0,0,0,0,0,0,0,0,0,0,0,0,0,0,0,0,0,0,0,0,
0,0,0,0,0,0,0,0,0,0,0,0,0,0,0,0,0,0,0,0,0,0,0,0,0,0,0,0,0,0,0,0,0,0,0,0,0,0,0,0,
0,0,0,0,0,0,0,0,0,0,0,0,0,0,0,0,0,0,0,0,0,0,0,0,0,0,0,0,0,0,0,0,0,0,0,0,0,0,0,0,
0,0,0,0,0,0,0,0,0,0,0,0,0,0,0,0,0,0,0,0,0,0,0,0,0,0,0,0,0,0,0,0,0,0,0,0,0,0,0,0,
0,0,0,0,0,0,0,0,0,0,0,0,0,0,0,0,0,0,0,0,0,0,0,0,0,0,0,0,0,0,0,0,0,0,0,0,0,0,0,0,
0,0,0,0,0,0,0,0,0,0,0,0,0,0,0,0,0,0,0,0,0,0,0,0,0,0,0,0,0,0,0,0,0,0,0,0,0,0,0,0,
0,0,0,15731,0,0,0,0,0,0,0,0,0,0,0,0,0,0,0,0,0,0,0,0,0,0,0,0,0,0,0,0,0,0,0,0,0,0,0,0,
0,0,0,0,0,0,0,0,0,0,0,0,0,0,0,0,0,0,0,0,0,0,0,0,0,0,0,0,0,0,0,0,0,0,0,0,0,0,0,0,
0,0,0,0,0,0,0,0,0,0,0,0,0,0,0,0,0,0,0,0,0,0,0,0,0,0,0,0,0,0,0,0,0,0,0,0,0,0,0,0,
0,0,0,0,0,0,0,0,0,0,15732,0,0,0,0,0,0,0,0,0,0,0,0,0,0,0,0,0,0,0,0,0,0,0,0,15668,0,0,0,0,
0,0,0,0,0,0,0,0,0,0,0,0,0,0,0,0,0,0,0,0,0,0,0,15668,0,0,0,0,0,0,0,0,0,0,0,0,0,0,0,0,
0,0,0,0,15732,0,0,0,0,0,0,0,0,0,0,0,0,0,0,0,0,0,0,0,0,15669,0,0,0,0,0,0,0,0,0,0,0,0,0,0,
0,0,0,0,0,0,0,0,0,0,0,0,0,0,0,0,0,0,0,0,0,0,0,0,0,0,0,0,0,0,0,0,0,0,0,0,0,0,0,0,
0,0,0,0,0,0,0,0,0,0,0,0,0,0,0,0,0,0,0,0,0,0,0,0,0,0,0,0,0,0,0,0,0,0,0,0,0,0,0,0,
0,0,0,0,0,0,0,0,0,0,0,0,0,0,0,0,0,0,0,0,0,0,0,0,0,0,0,0,0,0,0,0,0,0,0,0,0,0,0,0,
0,0,0,0,0,0,0,0,0,0,0,0,0,0,0,0,0,0,0,0,0,0,0,0,0,0,0,0,0,0,0,0,0,0,0,0,0,0,0,0,
0,0,0,0,0,0,0,0,0,0,0,0,0,0,0,0,0,0,0,0,0,0,0,0,0,0,0,0,0,0,0,0,0,0,0,0,0,0,0,0,
0,0,0,0,0,0,0,0,0,0,0,0,0,0,0,0,0,0,0,0,0,0,0,0,0,0,0,0,0,0,0,0,0,0,0,0,0,0,0,0,
0,0,0,0,0,0,0,0,0,0,0,0,0,0,0,0,0,0,0,0,0,0,0,0,0,0,0,0,0,0,0,0,0,0,0,0,0,0,0,0
</data>
 </layer>
 <layer id="5" name="AboveSprites" width="40" height="20">
  <data encoding="csv">
0,0,0,0,0,0,0,0,0,0,0,0,0,0,0,0,0,0,0,0,0,0,0,0,0,0,0,0,0,0,0,0,0,0,0,0,0,0,0,0,
0,0,0,0,0,0,0,0,0,0,0,0,0,0,0,0,0,0,0,0,0,0,0,0,0,0,0,0,0,0,0,0,0,0,0,0,0,0,0,0,
0,0,0,0,0,0,0,0,0,0,0,0,0,0,0,0,0,0,0,0,0,0,0,0,0,0,0,0,0,0,0,0,0,0,0,0,0,0,0,0,
0,0,0,0,0,0,0,0,0,0,0,0,0,0,0,0,0,0,0,0,0,0,0,0,0,0,0,0,0,0,0,0,0,0,0,0,0,0,0,0,
0,0,0,0,0,0,0,0,0,0,0,0,0,0,0,0,0,0,0,0,0,0,0,0,0,0,0,0,0,0,0,0,0,0,0,0,0,0,0,0,
0,0,0,0,0,0,0,0,0,0,0,0,0,0,0,0,0,0,0,0,0,0,0,0,0,0,0,0,0,0,0,0,0,0,0,0,0,0,0,0,
0,0,0,0,0,0,0,0,0,0,0,0,0,0,0,0,0,0,0,0,0,0,0,0,0,0,0,0,0,0,0,0,0,0,0,0,0,0,0,0,
0,0,0,0,0,0,0,0,0,0,0,0,0,0,0,0,0,0,0,0,0,0,0,0,0,0,0,0,0,0,0,0,0,0,0,0,0,0,0,0,
0,0,0,0,0,0,0,0,0,0,0,0,0,0,0,0,0,0,0,0,0,0,0,0,0,0,0,0,0,0,0,0,0,0,0,0,0,0,0,0,
0,0,0,0,0,0,0,0,0,0,0,0,0,0,0,0,0,0,0,0,0,0,0,0,0,0,0,0,0,0,0,0,0,0,0,0,0,0,0,0,
0,0,0,0,0,0,0,0,0,0,0,0,0,0,0,0,0,0,0,0,0,0,0,0,0,0,0,0,0,0,0,0,0,0,0,0,0,0,0,0,
0,0,0,0,0,0,0,0,0,0,0,0,0,0,0,0,0,0,0,0,0,0,0,0,0,0,0,0,0,0,0,0,0,0,0,0,0,0,0,0,
0,0,0,0,0,0,0,0,0,0,0,0,0,0,0,0,0,0,0,0,0,0,0,0,0,0,0,0,0,0,0,0,0,0,0,0,0,0,0,0,
0,0,0,0,0,0,0,0,0,0,0,0,0,0,0,0,0,0,0,0,0,0,0,0,0,0,0,0,0,0,0,0,0,0,0,0,0,0,0,0,
0,0,0,0,0,0,0,0,0,0,0,0,0,0,0,0,0,0,0,0,0,0,0,0,0,0,0,0,0,0,0,0,0,0,0,0,0,0,0,0,
0,0,0,0,0,0,0,0,0,0,0,0,0,0,0,0,0,0,0,0,0,0,0,0,0,0,0,0,0,0,0,0,0,0,0,0,0,0,0,0,
0,0,0,0,0,0,0,0,0,0,0,0,0,0,0,0,0,0,0,0,0,0,0,0,0,0,0,0,0,0,0,0,0,0,0,0,0,0,0,0,
0,0,0,0,0,0,0,0,0,0,0,0,0,0,0,0,0,0,0,0,0,0,0,0,0,0,0,0,0,0,0,0,0,0,0,0,0,0,0,0,
0,0,0,0,0,0,0,0,0,0,0,0,0,0,0,0,0,0,0,0,0,0,0,0,0,0,0,0,0,0,0,0,0,0,0,0,0,0,0,0,
0,0,0,0,0,0,0,0,0,0,0,0,0,0,0,0,0,0,0,0,0,0,0,0,0,0,0,0,0,0,0,0,0,0,0,0,0,0,0,0
</data>
 </layer>
 <objectgroup id="4" name="Objects">
  <object id="1" template="../../../../common/maps/obj/entry_up.tx" x="304" y="330" width="48" height="16">
   <properties>
    <property name="teleport" value=""/>
   </properties>
  </object>
  <object id="2" template="../../../../common/maps/obj/waypoint.tx" x="344" y="184"/>
  <object id="3" template="../../../../common/maps/obj/waypoint.tx" x="536" y="168"/>
  <object id="4" template="../../../../common/maps/obj/waypoint.tx" x="104" y="152"/>
  <object id="5" template="../../../../common/maps/obj/waypoint.tx" x="312" y="216"/>
  <object id="6" template="../../../../common/maps/obj/waypoint.tx" x="520" y="200"/>
  <object id="7" template="../../../../common/maps/obj/enemy.tx" x="480" y="208">
   <properties>
    <property name="enemy" value="Goblin Cutthroat"/>
    <property name="speedModifier" type="float" value="4"/>
    <property name="threatRange" type="int" value="40"/>
    <property name="waypoints" value="2,3,4,5,6"/>
   </properties>
  </object>
  <object id="8" template="../../../../common/maps/obj/enemy.tx" x="288" y="160">
   <properties>
    <property name="enemy" value="Red Dwende"/>
    <property name="speedModifier" type="float" value="4"/>
    <property name="threatRange" type="int" value="40"/>
    <property name="waypoints" value="3,2,6,5,4"/>
   </properties>
  </object>
  <object id="9" template="../../../../common/maps/obj/enemy.tx" x="80" y="128">
   <properties>
    <property name="enemy" value="Fire Elemental"/>
    <property name="speedModifier" type="float" value="4"/>
    <property name="threatRange" type="int" value="40"/>
    <property name="waypoints" value="6,2,3,4,5"/>
   </properties>
  </object>
  <object id="10" template="../../../../common/maps/obj/enemy.tx" x="96" y="208">
   <properties>
    <property name="enemy" value="Kavu"/>
    <property name="speedModifier" type="float" value="4"/>
    <property name="threatRange" type="int" value="40"/>
    <property name="waypoints" value="2,6,5,4,3"/>
   </properties>
  </object>
  <object id="11" template="../../../../common/maps/obj/treasure.tx" x="32" y="176">
   <properties>
    <property name="reward">[{&quot;type&quot;: &quot;randomCard&quot;, &quot;count&quot;: 1, &quot;addMaxCount&quot;: 1}, {&quot;type&quot;: &quot;randomCard&quot;, &quot;count&quot;: 1, &quot;probability&quot;: 0.5, &quot;rarity&quot;: [&quot;rare&quot;]}]</property>
   </properties>
  </object>
  <object id="12" template="../../../../common/maps/obj/gold.tx" x="336" y="160"/>
  <object id="13" template="../../obj/stone.tx" x="176" y="208"/>
  <object id="14" template="../../obj/wood.tx" x="480" y="176"/>
  <object id="15" template="../../../../common/maps/obj/manashards.tx" x="368" y="224"/>
 </objectgroup>
</map>
