<?xml version="1.0" encoding="UTF-8"?>
<map version="1.10" tiledversion="1.12.2" orientation="orthogonal" renderorder="right-down" width="44" height="22" tilewidth="16" tileheight="16" infinite="0" nextlayerid="7" nextobjectid="20">
 <tileset firstgid="1" source="../../../../common/maps/tileset/main.tsx"/>
 <tileset firstgid="10113" source="../../../../common/maps/tileset/buildings.tsx"/>
 <tileset firstgid="11905" source="../../../../common/maps/tileset/dungeon.tsx"/>
 <layer id="1" name="Background" width="44" height="22">
  <data encoding="csv">
3361,3361,3361,3361,3361,3361,3361,3361,3361,3361,3361,3361,3361,3361,3361,3361,3361,3361,3361,3361,3361,3361,3361,3361,3361,3361,3361,3361,3361,3361,3361,3361,3361,3361,3361,3361,3361,3361,3361,3361,3361,3361,3361,3361,
3361,3361,3361,3361,3361,3361,3361,3361,3361,3361,3361,3361,3361,3361,3361,3361,3361,3361,3361,3361,3361,3361,3361,3361,3361,3361,3361,3361,3361,3361,3361,3361,3361,3361,3361,3361,3361,3361,3361,3361,3361,3361,3361,3361,
3361,3361,3361,3361,3361,3361,3361,3361,3361,3361,3361,3361,3361,3361,3361,3361,3361,3361,3361,3361,3361,3361,3361,3361,3361,3361,3361,3361,3361,3361,3361,3361,3361,3361,3361,3361,3361,3361,3361,3361,3361,3361,3361,3361,
3361,3361,3361,3361,3361,3361,3361,3361,3361,3361,3361,3361,3361,3361,3361,3361,3361,3361,3361,3361,3361,3361,3361,3361,3361,3361,3361,3361,3361,3361,3361,3361,3361,3361,3361,3361,3361,3361,3361,3361,3361,3361,3361,3361,
3361,3361,3361,3361,3361,3361,3361,3361,3361,3361,3361,3361,3361,3361,3361,3361,3361,3361,3361,3361,3361,3361,3361,3361,3361,3361,3361,3361,3361,3361,3361,3361,3361,3361,3361,3361,3361,3361,3361,3361,3361,3361,3361,3361,
3361,3361,3361,3361,3361,3361,3361,3361,3361,3361,3361,3361,3361,3361,3361,3361,3361,3361,3361,3361,3361,3361,3361,3361,3361,3361,3361,3361,3361,3361,3361,3361,3361,3361,3361,3361,3361,3361,3361,3361,3361,3361,3361,3361,
3361,3361,3361,3361,3361,3361,3361,3361,3361,3361,3361,3361,3361,3361,3361,3361,3361,3361,3361,3361,3361,3361,3361,3361,3361,3361,3361,3361,3361,3361,3361,3361,3361,3361,3361,3361,3361,3361,3361,3361,3361,3361,3361,3361,
3361,3361,3361,3361,3361,3361,3361,3361,3361,3361,3361,3361,3361,3361,3361,3361,3361,3361,3361,3361,3361,3361,3361,3361,3361,3361,3361,3361,3361,3361,3361,3361,3361,3361,3361,3361,3361,3361,3361,3361,3361,3361,3361,3361,
3361,3361,3361,3361,3361,3361,3361,3361,3361,3361,3361,3361,3361,3361,3361,3361,3361,3361,3361,3361,3361,3361,3361,3361,3361,3361,3361,3361,3361,3361,3361,3361,3361,3361,3361,3361,3361,3361,3361,3361,3361,3361,3361,3361,
3361,3361,3361,3361,3361,3361,3361,3361,3361,3361,3361,3361,3361,3361,3361,3361,3361,3361,3361,3361,3361,3361,3361,3361,3361,3361,3361,3361,3361,3361,3361,3361,3361,3361,3361,3361,3361,3361,3361,3361,3361,3361,3361,3361,
3361,3361,3361,3361,3361,3361,3361,3361,3361,3361,3361,3361,3361,3361,3361,3361,3361,3361,3361,3361,3361,3361,3361,3361,3361,3361,3361,3361,3361,3361,3361,3361,3361,3361,3361,3361,3361,3361,3361,3361,3361,3361,3361,3361,
3361,3361,3361,3361,3361,3361,3361,3361,3361,3361,3361,3361,3361,3361,3361,3361,3361,3361,3361,3361,3361,3361,3361,3361,3361,3361,3361,3361,3361,3361,3361,3361,3361,3361,3361,3361,3361,3361,3361,3361,3361,3361,3361,3361,
3361,3361,3361,3361,3361,3361,3361,3361,3361,3361,3361,3361,3361,3361,3361,3361,3361,3361,3361,3361,3361,3361,3361,3361,3361,3361,3361,3361,3361,3361,3361,3361,3361,3361,3361,3361,3361,3361,3361,3361,3361,3361,3361,3361,
3361,3361,3361,3361,3361,3361,3361,3361,3361,3361,3361,3361,3361,3361,3361,3361,3361,3361,3361,3361,3361,3361,3361,3361,3361,3361,3361,3361,3361,3361,3361,3361,3361,3361,3361,3361,3361,3361,3361,3361,3361,3361,3361,3361,
3361,3361,3361,3361,3361,3361,3361,3361,3361,3361,3361,3361,3361,3361,3361,3361,3361,3361,3361,3361,3361,3361,3361,3361,3361,3361,3361,3361,3361,3361,3361,3361,3361,3361,3361,3361,3361,3361,3361,3361,3361,3361,3361,3361,
3361,3361,3361,3361,3361,3361,3361,3361,3361,3361,3361,3361,3361,3361,3361,3361,3361,3361,3361,3361,3361,3361,3361,3361,3361,3361,3361,3361,3361,3361,3361,3361,3361,3361,3361,3361,3361,3361,3361,3361,3361,3361,3361,3361,
3361,3361,3361,3361,3361,3361,3361,3361,3361,3361,3361,3361,3361,3361,3361,3361,3361,3361,3361,3361,3361,3361,3361,3361,3361,3361,3361,3361,3361,3361,3361,3361,3361,3361,3361,3361,3361,3361,3361,3361,3361,3361,3361,3361,
3361,3361,3361,3361,3361,3361,3361,3361,3361,3361,3361,3361,3361,3361,3361,3361,3361,3361,3361,3361,3361,3361,3361,3361,3361,3361,3361,3361,3361,3361,3361,3361,3361,3361,3361,3361,3361,3361,3361,3361,3361,3361,3361,3361,
3361,3361,3361,3361,3361,3361,3361,3361,3361,3361,3361,3361,3361,3361,3361,3361,3361,3361,3361,3361,3361,3361,3361,3361,3361,3361,3361,3361,3361,3361,3361,3361,3361,3361,3361,3361,3361,3361,3361,3361,3361,3361,3361,3361,
3361,3361,3361,3361,3361,3361,3361,3361,3361,3361,3361,3361,3361,3361,3361,3361,3361,3361,3361,3361,3361,3361,3361,3361,3361,3361,3361,3361,3361,3361,3361,3361,3361,3361,3361,3361,3361,3361,3361,3361,3361,3361,3361,3361,
3361,3361,3361,3361,3361,3361,3361,3361,3361,3361,3361,3361,3361,3361,3361,3361,3361,3361,3361,3361,3361,3361,3361,3361,3361,3361,3361,3361,3361,3361,3361,3361,3361,3361,3361,3361,3361,3361,3361,3361,3361,3361,3361,3361,
3361,3361,3361,3361,3361,3361,3361,3361,3361,3361,3361,3361,3361,3361,3361,3361,3361,3361,3361,3361,3361,3361,3361,3361,3361,3361,3361,3361,3361,3361,3361,3361,3361,3361,3361,3361,3361,3361,3361,3361,3361,3361,3361,3361
</data>
 </layer>
 <layer id="6" name="Floor" width="44" height="22">
  <data encoding="csv">
2946,2946,2946,2946,2946,2946,2946,2946,2946,2946,2946,2946,2946,2946,2946,2946,2946,2946,2946,2946,2946,2946,2946,2946,2946,2946,2946,2946,2946,2946,2946,2946,2946,2946,2946,2946,2946,2946,2946,2946,2946,2946,2946,2946,
2946,2946,2946,2946,2946,2946,2946,2946,2946,2946,2946,2946,2946,2946,2946,2946,2946,2946,2946,2946,2946,2946,2946,2946,2946,2946,2946,2946,2946,2946,2946,2946,2946,2946,2946,2946,2946,2946,2946,2946,2946,2946,2946,2946,
2946,2946,2946,2946,2946,2946,2946,2946,2946,2946,2946,2946,2946,2946,2946,2946,2946,2946,2946,2946,2946,2946,2946,2946,2946,2946,2946,2946,2946,2946,2946,2946,2946,2946,2946,2946,2946,2946,2946,2946,2946,2946,2946,2946,
2946,2946,2946,2946,2946,2946,2946,2946,2946,2946,2946,2946,2946,2946,2946,2946,2946,2946,2946,2946,2946,2946,2946,2946,2946,2946,2946,2946,2946,2946,2946,2946,2946,2946,2946,2946,2946,2946,2946,2946,2946,2946,2946,2946,
2946,2946,2946,2946,2946,2946,2946,2946,2946,2946,2946,2946,2946,2946,2946,2946,2946,2946,2946,2946,2946,2946,2946,2946,2946,2946,2946,2946,2946,2946,2946,2946,2946,2946,2946,2946,2946,2946,2946,2946,2946,2946,2946,2946,
2946,2946,2946,2946,2946,2946,2946,2946,2946,2946,2946,2946,2946,2946,2946,2946,2946,2946,2946,2946,2946,2946,2946,2946,2946,2946,2946,2946,2946,2946,2946,2946,2946,2946,2946,2946,2946,2946,2946,2946,2946,2946,2946,2946,
2946,2946,2946,2946,2313,3104,2314,2314,3104,2315,2946,2946,2946,2946,2946,2946,2946,2946,2946,2946,2946,2946,2946,2946,2946,2946,2946,2946,2946,2946,2946,2946,2946,2946,2946,2946,2946,2946,2946,2946,2946,2946,2946,2946,
2946,2946,2946,2946,2629,2789,0,0,2787,2631,2946,2946,2946,2946,2946,2946,2946,2946,2946,2946,2946,2946,2946,2946,2946,2946,2946,2946,2946,2946,2946,2946,2946,2313,2315,2946,2946,2946,2946,2946,2946,2946,2946,2946,
2946,2946,2946,2946,2946,2629,2630,2630,2631,2946,2946,2946,2946,2946,2946,2946,2946,2946,2946,2946,2946,2946,2946,2946,2946,2946,2946,2946,2946,2946,2946,2946,2313,3105,3103,3104,2315,2946,2946,2946,2946,2946,2946,2946,
2946,2946,2946,2946,2946,2946,2946,2946,2946,2946,2946,2946,2946,2946,2946,2946,2946,2946,2946,2946,2946,2946,2946,2946,2946,2946,2946,2946,2946,2946,2946,2946,2629,2789,2787,2788,2631,2946,2946,2946,2946,2946,2946,2946,
2946,2946,2946,2946,2946,2946,2946,2946,2946,2946,2946,2946,2946,2946,2946,2946,2946,2946,2946,2946,2946,2946,2946,2946,2946,2946,2946,2946,2946,2946,2946,2946,2946,2629,2631,2946,2946,2946,2946,2946,2946,2946,2946,2946,
2946,2946,2946,2946,2946,2946,2946,2946,2946,2946,2946,2946,2946,2946,2946,2946,2946,2946,2946,2946,2946,2946,2946,2946,2946,2946,2946,2946,2946,2946,2946,2946,2946,2946,2946,2946,2946,2946,2946,2946,2946,2946,2946,2946,
2946,2946,2946,2946,2946,2946,2946,2946,2946,2946,2946,2946,2946,2946,2946,2946,2946,2313,2314,3104,2315,2946,2946,2946,2946,2946,2946,2946,2946,2946,2946,2946,2946,2946,2946,2946,2946,2946,2946,2946,2946,2946,2946,2946,
2946,2946,2946,2946,2946,2946,2946,2946,2946,2946,2946,2946,2946,2946,2946,2946,2313,3105,0,0,3103,2315,2946,2946,2946,2946,2946,2946,2946,2946,2946,2946,2946,2946,2946,2946,2946,2946,2946,2946,2946,2946,2946,2946,
2946,2946,2946,2946,2946,2946,2946,2946,2946,2946,2946,2946,2946,2946,2946,2946,2629,2789,0,0,2787,2631,2946,2946,2946,2946,2946,2946,2946,2946,2946,2946,2946,2946,2946,2946,2946,2946,2946,2946,2946,2946,2946,2946,
2946,2946,2946,2946,2946,2946,2946,2946,2946,2946,2946,2946,2946,2946,2946,2946,2946,2629,2788,2788,2631,2946,2946,2946,2946,2946,2946,2946,2946,2946,2946,2946,2946,2946,2946,2946,2946,2946,2946,2946,2946,2946,2946,2946,
2946,2946,2946,2946,2946,2946,2946,2946,2946,2946,2946,2946,2946,2946,2946,2946,2946,2946,2946,2946,2946,2946,2946,2946,2946,2946,2946,2946,2946,2946,2946,2946,2946,2946,2946,2946,2946,2946,2946,2946,2946,2946,2946,2946,
2946,2946,2946,2946,2946,2946,2946,2946,2946,2946,2946,2946,2946,2946,2946,2946,2946,2946,2946,2946,2946,2946,2946,2946,2946,2946,2946,2946,2946,2946,2946,2946,2946,2946,2946,2946,2946,2946,2946,2946,2946,2946,2946,2946,
2946,2946,2946,2946,2946,2946,2946,2946,2946,2946,2946,2946,2946,2946,2946,2946,2946,2946,2946,2946,2946,2946,2946,2946,2946,2946,2946,2946,2946,2946,2946,2946,2946,2946,2946,2946,2946,2946,2946,2946,2946,2946,2946,2946,
2946,2946,2946,2946,2946,2946,2946,2946,2946,2946,2946,2946,2946,2946,2946,2946,2946,2946,2946,2946,2946,2946,2946,2946,2946,2946,2946,2946,2946,2946,2946,2946,2946,2946,2946,2946,2946,2946,2946,2946,2946,2946,2946,2946,
2946,2946,2946,2946,2946,2946,2946,2946,2946,2946,2946,2946,2946,2946,2946,2946,2946,2946,2946,2946,2946,2946,2946,2946,2946,2946,2946,2946,2946,2946,2946,2946,2946,2946,2946,2946,2946,2946,2946,2946,2946,2946,2946,2946,
2946,2946,2946,2946,2946,2946,2946,2946,2946,2946,2946,2946,2946,2946,2946,2946,2946,2946,2946,2946,2946,2946,2946,2946,2946,2946,2946,2946,2946,2946,2946,2946,2946,2946,2946,2946,2946,2946,2946,2946,2946,2946,2946,2946
</data>
 </layer>
 <layer id="2" name="Ground" width="44" height="22">
  <data encoding="csv">
2374,2374,2374,2374,2374,2374,2374,2374,2374,2374,2374,2374,2374,2374,2374,2374,2374,2374,2374,2374,2374,2374,2374,2374,2374,2374,2374,2374,2374,2374,2374,2374,2374,2374,2374,2374,2374,2374,2374,2374,2374,2374,2374,2374,
2374,2374,2374,2374,2374,2374,2374,2374,2374,2374,2374,2374,2374,2374,2374,2374,2374,2374,2374,2374,2374,2374,2374,2374,2374,2374,2374,2374,2374,2374,2374,2374,2374,2374,2374,2374,2374,2374,2374,2374,2374,2374,2374,2374,
2374,2374,2374,2374,2374,2374,2374,2374,2374,2374,2374,2374,2374,2374,2374,2374,2374,2374,2374,2374,2374,2374,2374,2374,2374,2374,2374,2374,2374,2374,2374,2374,2374,2374,2374,2374,2374,2374,2374,2374,2374,2374,2374,2374,
2374,2374,2374,2374,2374,2374,2374,2374,2374,2374,2374,2374,2374,2374,2374,2374,2374,2374,2374,2374,2374,2374,2374,2374,2374,2374,2374,2374,2374,2374,2374,2374,2374,2374,2374,2374,2374,2374,2374,2374,2374,2374,2374,2374,
2374,2374,2374,2374,2374,2374,2374,2374,2374,2374,2374,2374,2374,2374,2374,2374,2374,2374,2374,2374,2374,2374,2374,2374,2374,2374,2374,2374,2374,2374,2374,2374,2374,2374,2374,2374,2374,2374,2374,2374,2374,2374,2374,2374,
2374,2374,2374,2374,2374,2374,2374,2374,2374,2374,2374,2374,2374,2374,2374,2374,2374,2374,2374,2374,2374,2374,2374,2374,2374,2374,2374,2374,2374,2374,2374,2374,2374,2374,2374,2374,2218,2532,2532,2220,2374,2374,2374,2374,
2374,2374,2374,2374,2218,2532,2219,2219,2219,2532,2219,2220,2374,2374,2374,2374,2374,2374,2374,2374,2374,2374,2374,2374,2374,2374,2374,2374,2374,2374,2374,2374,2374,2374,2218,2219,2533,0,0,2531,2532,2220,2374,2374,
2374,2374,2374,2218,2533,0,0,0,0,0,0,2531,2219,2220,2374,2374,2374,2374,2374,2374,2374,2374,2374,2374,2374,2374,2374,2374,2374,2374,2374,2374,2374,2218,2533,0,0,0,0,0,0,2531,2220,2374,
2374,2374,2218,2533,0,0,0,0,0,0,0,0,0,2373,2374,2374,2374,2218,2532,2219,2532,2532,2219,2220,2374,2374,2218,2220,2374,2374,2374,2374,2218,2533,0,0,0,0,0,0,0,0,2378,2374,
2374,2374,2375,0,0,0,0,0,0,0,0,0,0,2531,2219,2219,2219,2533,0,0,2215,2535,2535,2536,2374,2374,2376,2531,2219,2219,2532,2532,2533,0,0,0,0,0,0,0,0,0,2378,2374,
2374,2374,2534,2217,0,0,0,0,0,0,0,0,0,0,0,0,0,0,0,0,2373,2374,2374,2374,2374,2374,2375,0,0,0,0,0,0,0,0,0,0,0,0,0,0,0,2378,2374,
2374,2374,2374,2534,2535,2217,0,0,0,0,0,0,0,0,0,0,0,0,0,0,2373,2374,2374,2374,2374,2218,2533,2215,2535,2535,2217,0,0,0,0,0,0,0,0,0,0,2215,2536,2374,
2374,2374,2374,2374,2374,2534,2535,2216,2535,2535,2216,2535,2217,0,0,0,0,0,0,0,2531,2532,2532,2220,2374,2375,2215,2536,2374,2374,2534,2217,0,0,0,0,0,0,0,0,2215,2536,2374,2374,
2374,2374,2374,2374,2374,2374,2374,2374,2374,2374,2374,2374,2534,2217,0,0,0,0,0,0,0,0,0,2531,2532,2533,2373,2374,2374,2374,2374,2376,0,2215,2535,2216,2535,2535,2535,2535,2536,2374,2374,2374,
2374,2374,2374,2374,2374,2374,2374,2374,2374,2374,2374,2374,2374,2534,2217,0,0,0,0,0,0,0,0,0,0,0,2378,2374,2374,2374,2374,2534,2216,2536,2374,2374,2374,2374,2374,2374,2374,2374,2374,2374,
2374,2374,2374,2374,2374,2374,2374,2374,2374,2374,2374,2374,2374,2374,2534,2535,2217,0,0,0,0,0,0,0,0,0,2531,2220,2374,2374,2374,2374,2374,2374,2374,2374,2374,2374,2374,2374,2374,2374,2374,2374,
2374,2374,2374,2374,2374,2374,2374,2374,2374,2374,2374,2374,2374,2374,2374,2374,2534,2216,2535,2535,2217,0,0,0,0,0,2215,2536,2374,2374,2374,2374,2374,2374,2374,2374,2374,2374,2374,2374,2374,2374,2374,2374,
2374,2374,2374,2374,2374,2374,2374,2374,2374,2374,2374,2374,2374,2374,2374,2374,2374,2374,2374,2374,2534,2217,0,2215,2535,2216,2536,2374,2374,2374,2374,2374,2374,2374,2374,2374,2374,2374,2374,2374,2374,2374,2374,2374,
2374,2374,2374,2374,2374,2374,2374,2374,2374,2374,2374,2374,2374,2374,2374,2374,2374,2374,2374,2374,2374,2376,0,2378,2374,2374,2374,2374,2374,2374,2374,2374,2374,2374,2374,2374,2374,2374,2374,2374,2374,2374,2374,2374,
2374,2374,2374,2374,2374,2374,2374,2374,2374,2374,2374,2374,2374,2374,2374,2374,2374,2374,2374,2374,2374,2376,0,2378,2374,2374,2374,2374,2374,2374,2374,2374,2374,2374,2374,2374,2374,2374,2374,2374,2374,2374,2374,2374,
2374,2374,2374,2374,2374,2374,2374,2374,2374,2374,2374,2374,2374,2374,2374,2374,2374,2374,2374,2374,2374,2376,0,2378,2374,2374,2374,2374,2374,2374,2374,2374,2374,2374,2374,2374,2374,2374,2374,2374,2374,2374,2374,2374,
2374,2374,2374,2374,2374,2374,2374,2374,2374,2374,2374,2374,2374,2374,2374,2374,2374,2374,2374,2374,2374,2375,0,2378,2374,2374,2374,2374,2374,2374,2374,2374,2374,2374,2374,2374,2374,2374,2374,2374,2374,2374,2374,2374
</data>
 </layer>
 <layer id="3" name="Foreground" width="44" height="22">
  <properties>
   <property name="spriteLayer" type="bool" value="true"/>
  </properties>
  <data encoding="csv">
0,0,0,0,0,0,0,0,0,0,0,0,0,0,0,0,0,0,0,0,0,0,0,0,0,0,0,0,0,0,0,0,0,0,0,0,0,0,0,0,0,0,0,0,
0,0,0,0,0,0,0,0,0,0,0,0,0,0,0,0,0,0,0,0,0,0,0,0,0,0,0,0,0,0,0,0,0,0,0,0,0,0,0,0,0,0,0,0,
0,0,0,0,0,0,0,0,0,0,0,0,0,0,0,0,0,0,0,0,0,0,0,0,0,0,0,0,0,0,0,0,0,0,0,0,0,0,0,0,0,0,0,0,
0,0,0,0,0,0,0,0,0,0,0,0,0,0,0,0,0,0,0,0,0,0,0,0,0,0,0,0,0,0,0,0,0,0,0,0,0,0,0,0,0,0,0,0,
0,0,0,0,0,0,0,0,0,0,0,0,0,0,0,0,0,0,0,0,0,0,0,0,0,0,0,0,0,0,0,0,0,0,0,0,0,0,0,0,0,0,0,0,
0,0,0,0,0,0,0,0,0,0,0,0,0,0,0,0,0,0,0,0,0,0,0,0,0,0,0,0,0,0,0,0,0,0,0,0,0,0,0,0,0,0,0,0,
0,0,0,0,0,0,0,0,0,0,0,0,0,0,0,0,0,0,0,0,0,0,0,0,0,0,0,0,0,0,0,0,0,0,0,0,0,0,0,0,0,0,0,0,
0,0,0,0,0,0,0,0,0,0,15732,0,0,0,0,0,0,0,0,0,0,0,0,0,0,0,0,0,0,0,0,0,0,0,0,0,0,0,0,0,0,0,0,0,
0,0,0,0,0,0,0,0,0,0,0,0,0,0,0,0,0,0,0,0,0,0,0,0,0,0,0,0,0,0,0,0,0,0,15731,0,15731,0,15732,0,0,0,0,0,
0,0,0,0,0,0,0,0,0,0,0,15732,0,0,0,0,0,0,0,0,0,0,0,0,0,0,0,0,0,0,0,0,0,0,0,0,0,0,0,0,0,0,0,0,
0,0,0,0,0,0,0,0,0,0,0,0,0,0,0,0,0,0,0,0,0,0,0,0,0,0,0,0,0,0,0,0,0,0,0,0,0,0,0,0,0,15669,0,0,
0,0,0,0,0,0,0,0,0,0,0,0,0,0,0,0,0,0,0,0,0,0,0,0,0,0,0,0,0,0,0,0,0,0,0,0,0,0,0,0,0,0,0,0,
0,0,0,0,0,0,0,0,0,0,0,0,0,15731,0,0,0,0,0,0,0,0,0,0,0,0,0,0,0,0,0,0,0,0,0,0,15732,0,0,0,0,0,0,0,
0,0,0,0,0,0,0,0,0,0,0,0,0,0,0,0,0,0,0,0,0,0,0,0,0,0,0,0,0,0,0,0,15668,0,0,0,0,0,0,0,0,0,0,0,
0,0,0,0,0,0,0,0,0,0,0,0,0,0,0,0,0,0,15731,0,0,0,0,0,0,0,0,0,0,0,0,0,0,0,0,0,0,0,0,0,0,0,0,0,
0,0,0,0,0,0,0,0,0,0,0,0,0,0,0,0,0,0,0,0,0,0,0,0,0,0,0,0,0,0,0,0,0,0,0,0,0,0,0,0,0,0,0,0,
0,0,0,0,0,0,0,0,0,0,0,0,0,0,0,0,0,0,0,0,0,0,0,0,0,0,0,0,0,0,0,0,0,0,0,0,0,0,0,0,0,0,0,0,
0,0,0,0,0,0,0,0,0,0,0,0,0,0,0,0,0,0,0,0,0,0,0,0,0,0,0,0,0,0,0,0,0,0,0,0,0,0,0,0,0,0,0,0,
0,0,0,0,0,0,0,0,0,0,0,0,0,0,0,0,0,0,0,0,0,0,0,0,0,0,0,0,0,0,0,0,0,0,0,0,0,0,0,0,0,0,0,0,
0,0,0,0,0,0,0,0,0,0,0,0,0,0,0,0,0,0,0,0,0,0,0,0,0,0,0,0,0,0,0,0,0,0,0,0,0,0,0,0,0,0,0,0,
0,0,0,0,0,0,0,0,0,0,0,0,0,0,0,0,0,0,0,0,0,0,0,0,0,0,0,0,0,0,0,0,0,0,0,0,0,0,0,0,0,0,0,0,
0,0,0,0,0,0,0,0,0,0,0,0,0,0,0,0,0,0,0,0,0,0,0,0,0,0,0,0,0,0,0,0,0,0,0,0,0,0,0,0,0,0,0,0
</data>
 </layer>
 <layer id="5" name="AboveSprites" width="44" height="22">
  <data encoding="csv">
0,0,0,0,0,0,0,0,0,0,0,0,0,0,0,0,0,0,0,0,0,0,0,0,0,0,0,0,0,0,0,0,0,0,0,0,0,0,0,0,0,0,0,0,
0,0,0,0,0,0,0,0,0,0,0,0,0,0,0,0,0,0,0,0,0,0,0,0,0,0,0,0,0,0,0,0,0,0,0,0,0,0,0,0,0,0,0,0,
0,0,0,0,0,0,0,0,0,0,0,0,0,0,0,0,0,0,0,0,0,0,0,0,0,0,0,0,0,0,0,0,0,0,0,0,0,0,0,0,0,0,0,0,
0,0,0,0,0,0,0,0,0,0,0,0,0,0,0,0,0,0,0,0,0,0,0,0,0,0,0,0,0,0,0,0,0,0,0,0,0,0,0,0,0,0,0,0,
0,0,0,0,0,0,0,0,0,0,0,0,0,0,0,0,0,0,0,0,0,0,0,0,0,0,0,0,0,0,0,0,0,0,0,0,0,0,0,0,0,0,0,0,
0,0,0,0,0,0,0,0,0,0,0,0,0,0,0,0,0,0,0,0,0,0,0,0,0,0,0,0,0,0,0,0,0,0,0,0,0,0,0,0,0,0,0,0,
0,0,0,0,0,0,0,0,0,0,0,0,0,0,0,0,0,0,0,0,0,0,0,0,0,0,0,0,0,0,0,0,0,0,0,0,0,0,0,0,0,0,0,0,
0,0,0,0,0,0,0,0,0,0,0,0,0,0,0,0,0,0,0,0,0,0,0,0,0,0,0,0,0,0,0,0,0,0,0,0,0,0,0,0,0,0,0,0,
0,0,0,0,0,0,0,0,0,0,0,0,0,0,0,0,0,0,0,0,0,0,0,0,0,0,0,0,0,0,0,0,0,0,0,0,0,0,0,0,0,0,0,0,
0,0,0,0,0,0,0,0,0,0,0,0,0,0,0,0,0,0,0,0,0,0,0,0,0,0,0,0,0,0,0,0,0,0,0,0,0,0,0,0,0,0,0,0,
0,0,0,0,0,0,0,0,0,0,0,0,0,0,0,0,0,0,0,0,0,0,0,0,0,0,0,0,0,0,0,0,0,0,0,0,0,0,0,0,0,0,0,0,
0,0,0,0,0,0,0,0,0,0,0,0,0,0,0,0,0,0,0,0,0,0,0,0,0,0,0,0,0,0,0,0,0,0,0,0,0,0,0,0,0,0,0,0,
0,0,0,0,0,0,0,0,0,0,0,0,0,0,0,0,0,0,0,0,0,0,0,0,0,0,0,0,0,0,0,0,0,0,0,0,0,0,0,0,0,0,0,0,
0,0,0,0,0,0,0,0,0,0,0,0,0,0,0,0,0,0,0,0,0,0,0,0,0,0,0,0,0,0,0,0,0,0,0,0,0,0,0,0,0,0,0,0,
0,0,0,0,0,0,0,0,0,0,0,0,0,0,0,0,0,0,0,0,0,0,0,0,0,0,0,0,0,0,0,0,0,0,0,0,0,0,0,0,0,0,0,0,
0,0,0,0,0,0,0,0,0,0,0,0,0,0,0,0,0,0,0,0,0,0,0,0,0,0,0,0,0,0,0,0,0,0,0,0,0,0,0,0,0,0,0,0,
0,0,0,0,0,0,0,0,0,0,0,0,0,0,0,0,0,0,0,0,0,0,0,0,0,0,0,0,0,0,0,0,0,0,0,0,0,0,0,0,0,0,0,0,
0,0,0,0,0,0,0,0,0,0,0,0,0,0,0,0,0,0,0,0,0,0,0,0,0,0,0,0,0,0,0,0,0,0,0,0,0,0,0,0,0,0,0,0,
0,0,0,0,0,0,0,0,0,0,0,0,0,0,0,0,0,0,0,0,0,0,0,0,0,0,0,0,0,0,0,0,0,0,0,0,0,0,0,0,0,0,0,0,
0,0,0,0,0,0,0,0,0,0,0,0,0,0,0,0,0,0,0,0,0,0,0,0,0,0,0,0,0,0,0,0,0,0,0,0,0,0,0,0,0,0,0,0,
0,0,0,0,0,0,0,0,0,0,0,0,0,0,0,0,0,0,0,0,0,0,0,0,0,0,0,0,0,0,0,0,0,0,0,0,0,0,0,0,0,0,0,0,
0,0,0,0,0,0,0,0,0,0,0,0,0,0,0,0,0,0,0,0,0,0,0,0,0,0,0,0,0,0,0,0,0,0,0,0,0,0,0,0,0,0,0,0
</data>
 </layer>
 <objectgroup id="4" name="Objects">
  <object id="1" template="../../../../common/maps/obj/entry_up.tx" x="336" y="362" width="48" height="16">
   <properties>
    <property name="teleport" value=""/>
   </properties>
  </object>
  <object id="2" template="../../../../common/maps/obj/waypoint.tx" x="392" y="248"/>
  <object id="3" template="../../../../common/maps/obj/waypoint.tx" x="136" y="184"/>
  <object id="4" template="../../../../common/maps/obj/waypoint.tx" x="632" y="168"/>
  <object id="5" template="../../../../common/maps/obj/waypoint.tx" x="360" y="248"/>
  <object id="6" template="../../../../common/maps/obj/waypoint.tx" x="104" y="168"/>
  <object id="7" template="../../../../common/maps/obj/waypoint.tx" x="328" y="248"/>
  <object id="8" template="../../../../common/maps/obj/enemy.tx" x="256" y="224">
   <properties>
    <property name="enemy" value="Void Dragon"/>
    <property name="speedModifier" type="float" value="4"/>
    <property name="threatRange" type="int" value="40"/>
    <property name="waypoints" value="2,3,4,5,6,7"/>
   </properties>
  </object>
  <object id="9" template="../../../../common/maps/obj/enemy.tx" x="592" y="112">
   <properties>
    <property name="enemy" value="Umbral Dragon"/>
    <property name="speedModifier" type="float" value="4"/>
    <property name="threatRange" type="int" value="40"/>
    <property name="waypoints" value="3,2,7,6,5,4"/>
   </properties>
  </object>
  <object id="10" template="../../../../common/maps/obj/enemy.tx" x="528" y="192">
   <properties>
    <property name="enemy" value="Tidetusk Brute"/>
    <property name="speedModifier" type="float" value="4"/>
    <property name="threatRange" type="int" value="40"/>
    <property name="waypoints" value="6,7,2,3,4,5"/>
   </properties>
  </object>
  <object id="11" template="../../../../common/maps/obj/enemy.tx" x="432" y="176">
   <properties>
    <property name="enemy" value="Fleshlump Horror"/>
    <property name="speedModifier" type="float" value="4"/>
    <property name="threatRange" type="int" value="40"/>
    <property name="waypoints" value="7,6,5,4,3,2"/>
   </properties>
  </object>
  <object id="12" template="../../../../common/maps/obj/enemy.tx" x="80" y="144">
   <properties>
    <property name="enemy" value="Ghastly Eye"/>
    <property name="speedModifier" type="float" value="4"/>
    <property name="threatRange" type="int" value="40"/>
    <property name="waypoints" value="4,5,6,7,2,3"/>
   </properties>
  </object>
  <object id="13" template="../../../../common/maps/obj/treasure.tx" x="656" y="144">
   <properties>
    <property name="reward">[{&quot;type&quot;: &quot;randomCard&quot;, &quot;count&quot;: 2, &quot;addMaxCount&quot;: 1}, {&quot;type&quot;: &quot;randomCard&quot;, &quot;count&quot;: 1, &quot;probability&quot;: 0.6, &quot;rarity&quot;: [&quot;rare&quot;]}]</property>
   </properties>
  </object>
  <object id="14" template="../../../../common/maps/obj/gold.tx" x="288" y="160">
   <properties>
    <property name="reward">[{&quot;type&quot;: &quot;gold&quot;, &quot;count&quot;: 120, &quot;addMaxCount&quot;: 60}]</property>
   </properties>
  </object>
  <object id="15" template="../../obj/stone.tx" x="464" y="176"/>
  <object id="16" template="../../obj/wood.tx" x="224" y="176"/>
  <object id="17" template="../../../../common/maps/obj/manashards.tx" x="608" y="208"/>
  <object id="18" template="../../../../common/maps/obj/gold.tx" x="128" y="144"/>
  <object id="19" template="../../../../common/maps/obj/booster.tx" x="48" y="160"/>
 </objectgroup>
</map>
